luts/1.cube
LUT_3D_SIZE 16
-0.039298 -0.038595 0.258806
0.018261 -0.039015 0.258795
0.051575 -0.039662 0.258744
0.096266 -0.041495 0.258608
0.155474 -0.045432 0.258288
0.233544 -0.052632 0.257578
0.336159 -0.064152 0.256128
0.458395 -0.079328 0.253553
0.585425 -0.095783 0.249798
0.704273 -0.111404 0.245178
0.811891 -0.125604 0.239969
0.909094 -0.138549 0.234260
0.967228 -0.150365 0.228150
0.991652 -0.161200 0.221664
0.998942 -0.171120 0.214900
1.000032 -0.179961 0.208073
-0.032426 0.041693 0.259228
0.018173 0.043814 0.259191
0.067369 0.041176 0.256839
0.115150 0.041481 0.256609
0.171461 0.038601 0.256461
0.235520 0.022880 0.256913
0.337683 -0.037262 0.255416
0.459576 -0.061234 0.252786
0.586401 -0.082096 0.248960
0.705056 -0.100242 0.244277
0.812684 -0.116102 0.239007
0.909619 -0.130255 0.233254
0.967519 -0.142984 0.227099
0.991660 -0.154579 0.220566
0.998967 -0.165097 0.213788
1.000032 -0.174506 0.206948
0.029073 0.120982 0.297590
0.046351 0.121372 0.298319
0.071946 0.122988 0.288788
0.128527 0.134913 0.252796
0.225836 0.135212 0.244707
0.334721 0.130476 0.240130
0.455882 0.123973 0.234826
0.546022 0.113982 0.235239
0.618268 0.096293 0.238784
0.710268 0.061072 0.238533
0.817183 -0.052055 0.233022
0.913100 -0.083395 0.227028
0.969079 -0.104642 0.220634
0.992217 -0.121805 0.213900
0.999141 -0.136475 0.206930
1.000034 -0.149236 0.199981
0.077740 0.208256 0.333338
0.087130 0.208443 0.333460
0.102846 0.209036 0.332502
0.129795 0.211518 0.321574
0.169862 0.227747 0.252999
0.366737 0.228131 0.221349
0.497123 0.220902 0.212712
0.612467 0.214614 0.209433
0.720494 0.207796 0.204019
0.800065 0.200346 0.201365
0.858635 0.191703 0.204222
0.920033 0.181188 0.211223
0.972140 0.161564 0.204434
0.993302 0.136064 0.197281
0.999396 0.099855 0.189934
0.999922 -0.021920 0.182751
0.125298 0.296960 0.366094
0.130430 0.297095 0.366288
0.140226 0.297461 0.366314
0.156637 0.298795 0.364283
0.185534 0.302302 0.347737
0.303796 0.317596 0.239697
0.480955 0.319893 0.189782
0.619166 0.312522 0.172271
0.724085 0.307744 0.169476
0.796549 0.305483 0.169968
0.863790 0.302646 0.170545
0.929827 0.299776 0.173018
0.976528 0.291318 0.165695
0.994822 0.280997 0.157753
0.999559 0.268400 0.149560
1.004660 0.252720 0.141889
0.186681 0.385780 0.397453
0.189797 0.385848 0.397643
0.196681 0.386102 0.397860
0.211565 0.386851 0.397388
0.237386 0.388956 0.391899
0.288150 0.393346 0.359760
0.442518 0.408612 0.211233
0.571769 0.412743 0.119978
0.622351 0.412483 0.040599
0.746539 0.408376 -0.046334
0.854395 0.404001 -0.056232
0.940507 0.398892 -0.066360
0.981418 0.392653 -0.076644
0.996409 0.385211 -0.086403
0.999784 0.376141 -0.094139
1.014246 0.364748 -0.098624
0.249192 0.473234 0.428049
0.251698 0.473292 0.428147
0.257566 0.473463 0.428316
0.270937 0.473906 0.428163
0.295078 0.475263 0.425728
0.335998 0.478547 0.412293
0.425478 0.483827 0.335997
0.562072 0.499592 0.144956
0.606558 0.506662 -0.172436
0.746858 0.502447 -0.215097
0.863039 0.496963 -0.222145
0.948527 0.491222 -0.221748
0.985413 0.484900 -0.219837
0.997698 0.477711 -0.217697
0.999968 0.469340 -0.215259
1.025321 0.458718 -0.211485
0.310164 0.557209 0.457126
0.312195 0.557287 0.457172
0.317262 0.557395 0.457242
0.329149 0.557766 0.457171
0.351413 0.558728 0.455859
0.388859 0.561096 0.448483
0.453363 0.566135 0.415892
0.563418 0.572359 0.221682
0.579650 0.589553 -0.161057
0.727897 0.590619 -0.266562
0.857567 0.585383 -0.299612
0.950711 0.578493 -0.308135
0.987534 0.571096 -0.307559
0.998433 0.563127 -0.303933
1.000025 0.554211 -0.298917
1.035948 0.543238 -0.292272
0.367583 0.635897 0.483981
0.369305 0.635908 0.484003
0.373751 0.636038 0.484047
0.384360 0.636304 0.483947
0.404997 0.637000 0.483079
0.440248 0.638900 0.478257
0.496947 0.643108 0.458419
0.587499 0.649871 0.384850
0.637097 0.656972 0.150641
0.701326 0.667715 -0.263105
0.836682 0.666470 -0.334425
0.944350 0.660291 -0.364155
0.987319 0.652006 -0.375112
0.998681 0.642966 -0.375341
1.000034 0.633003 -0.370808
1.044026 0.621208 -0.363246
0.420638 0.708221 0.508283
0.422101 0.708208 0.508276
0.426045 0.708248 0.508276
0.435606 0.708593 0.508199
0.454626 0.709222 0.507412
0.487890 0.710766 0.503852
0.540161 0.714364 0.490163
0.614659 0.720700 0.447097
0.693520 0.728137 0.231797
0.682585 0.733146 -0.170114
0.810831 0.737995 -0.331649
0.929402 0.735078 -0.390317
0.983701 0.727816 -0.418036
0.998355 0.718290 -0.430886
1.000034 0.707422 -0.432066
1.047770 0.694521 -0.426478
0.468648 0.773740 0.529882
0.469918 0.773780 0.529859
0.473425 0.773838 0.529878
0.482098 0.774138 0.529718
0.499331 0.774661 0.529127
0.528924 0.775950 0.526785
0.575255 0.779095 0.517484
0.638825 0.784760 0.488890
0.712673 0.792177 0.417590
0.742015 0.797970 0.171160
0.790386 0.800177 -0.271430
0.908939 0.801863 -0.386855
0.976824 0.797300 -0.438375
0.997241 0.788982 -0.464846
1.000025 0.777885 -0.478181
1.045708 0.764157 -0.479741
0.497073 0.833573 0.554448
0.498358 0.833594 0.554412
0.501916 0.833667 0.554197
0.510683 0.833787 0.553780
0.528472 0.834398 0.552637
0.560744 0.835666 0.549210
0.606162 0.838374 0.541404
0.662266 0.843446 0.521445
0.724843 0.850081 0.476786
0.762938 0.856214 0.372618
0.788907 0.858977 -0.134995
0.889100 0.861005 -0.339445
0.967267 0.860000 -0.433718
0.995058 0.853929 -0.480798
0.999931 0.843972 -0.505908
1.036851 0.830239 -0.518013
0.500006 0.887143 0.584748
0.501222 0.887176 0.584747
0.504392 0.887277 0.584637
0.512268 0.887506 0.584406
0.528535 0.888008 0.583672
0.557741 0.889105 0.581541
0.602961 0.891522 0.575275
0.658533 0.895899 0.560070
0.705347 0.901329 0.534790
0.751108 0.907143 0.480906
0.794548 0.911077 0.229298
0.881237 0.915105 -0.248171
0.957157 0.916360 -0.393304
0.991636 0.913254 -0.474909
0.999640 0.905173 -0.518338
1.023173 0.892415 -0.541432
0.491891 0.934751 0.616676
0.492933 0.934787 0.616685
0.495779 0.934888 0.616710
0.502896 0.935088 0.616680
0.517622 0.935471 0.616476
0.544575 0.936307 0.615512
0.587117 0.938021 0.611775
0.638527 0.941125 0.602491
0.685430 0.944751 0.585824
0.738798 0.949160 0.548763
0.804648 0.953737 0.460943
0.879821 0.957426 0.126752
0.949712 0.959746 -0.315595
0.987453 0.960271 -0.438542
0.999018 0.956288 -0.511310
1.007037 0.947638 -0.551189
0.521061 0.968891 0.635215
0.521892 0.968914 0.635241
0.524252 0.968972 0.635317
0.530125 0.968992 0.635551
0.542270 0.969193 0.635879
0.564840 0.969698 0.636024
0.601180 0.970537 0.634712
0.648622 0.972151 0.628954
0.701205 0.974580 0.614621
0.756567 0.977406 0.586492
0.816302 0.980232 0.533571
0.883004 0.982809 0.394878
0.945238 0.984739 -0.179600
0.982782 0.985810 -0.367951
0.997896 0.985988 -0.477639
1.000031 0.981994 -0.543235
0.550119 0.988701 0.650992
0.550899 0.988717 0.651012
0.553048 0.988715 0.651096
0.558357 0.988677 0.651310
0.569462 0.988844 0.651585
0.590127 0.989042 0.651769
0.623977 0.989475 0.651027
0.668881 0.990339 0.646964
0.719171 0.991499 0.636442
0.771645 0.992865 0.615873
0.826859 0.994317 0.579461
0.886835 0.995633 0.511595
0.942195 0.996650 0.232854
0.978276 0.997365 -0.259921
0.995670 0.997750 -0.409445
0.999946 0.997811 -0.511220
-0.041013 -0.040352 0.319546
0.025194 -0.041913 0.315071
0.040583 -0.033192 0.296531
0.089218 -0.034418 0.307946
0.150850 -0.038808 0.312178
0.230506 -0.047176 0.310776
0.334204 -0.060295 0.298849
0.457246 -0.076991 0.258798
0.584858 -0.094648 0.255315
0.704157 -0.111162 0.250888
0.811892 -0.125646 0.245930
0.909054 -0.138577 0.240520
0.967268 -0.150375 0.234673
0.991641 -0.161216 0.228433
0.998939 -0.171117 0.221870
1.000032 -0.179949 0.215176
-0.057569 0.052679 0.313893
-0.023330 0.047413 0.311031
0.057857 0.046464 0.303591
0.103176 0.043650 0.303202
0.154381 0.036001 0.299860
0.233116 -0.014443 0.286399
0.336028 -0.044555 0.258901
0.458297 -0.066273 0.256369
0.585371 -0.086216 0.252678
0.704189 -0.103822 0.248138
0.811839 -0.119261 0.243023
0.909007 -0.133059 0.237421
0.967245 -0.145480 0.231434
0.991632 -0.156788 0.225080
0.998937 -0.167043 0.218461
1.000031 -0.176168 0.211816
0.024550 0.122001 0.315990
0.041521 0.122265 0.317542
0.073059 0.122626 0.317628
0.129080 0.133863 0.255948
0.225867 0.132458 0.248832
0.331647 0.127704 0.244544
0.452855 0.120820 0.239040
0.539477 0.109906 0.240100
0.610563 0.090033 0.244109
0.709287 0.046216 0.242792
0.816275 -0.060712 0.237425
0.912443 -0.088419 0.231596
0.968835 -0.108397 0.225367
0.992165 -0.124835 0.218816
0.999107 -0.138969 0.212034
1.000033 -0.151284 0.205269
0.076745 0.208629 0.343457
0.086630 0.208661 0.342750
0.104036 0.208987 0.342861
0.132059 0.211237 0.335988
0.168160 0.226987 0.256262
0.348614 0.227286 0.228476
0.494110 0.218882 0.217870
0.610279 0.212407 0.214313
0.718725 0.205278 0.208746
0.797247 0.197447 0.206644
0.857748 0.188063 0.209191
0.919429 0.176851 0.216495
0.971835 0.156508 0.209908
0.993269 0.129774 0.202987
0.999370 0.090868 0.195866
0.999922 -0.041655 0.188926
0.123792 0.297184 0.373089
0.128922 0.297231 0.371896
0.139277 0.297510 0.372181
0.155843 0.298744 0.370985
0.183680 0.302247 0.357635
0.302082 0.317124 0.243048
0.482373 0.318569 0.194391
0.619608 0.310919 0.178378
0.729265 0.305546 0.174525
0.800254 0.303190 0.175323
0.864081 0.300486 0.177046
0.929364 0.297668 0.180440
0.976325 0.289056 0.173412
0.994705 0.278619 0.165893
0.999542 0.265957 0.158128
1.004276 0.250216 0.150908
0.185721 0.385861 0.402529
0.188780 0.385885 0.401282
0.195764 0.386175 0.401607
0.210678 0.386840 0.401403
0.236339 0.388898 0.396705
0.285456 0.393421 0.367927
0.442463 0.408183 0.214727
0.583018 0.411246 0.127758
0.622825 0.411253 0.076776
0.746189 0.407084 0.058518
0.853951 0.402652 0.048748
0.940173 0.397477 0.028456
0.981262 0.391243 -0.040415
0.996341 0.383761 -0.060303
0.999775 0.374726 -0.072942
1.013896 0.363365 -0.079637
0.248413 0.473329 0.431951
0.250807 0.473312 0.430705
0.256702 0.473510 0.430901
0.270084 0.473940 0.430909
0.294282 0.475243 0.428738
0.334932 0.478488 0.416199
0.421963 0.483928 0.346521
0.566629 0.499075 0.150113
0.606695 0.506015 -0.165412
0.746874 0.501522 -0.209113
0.862880 0.495986 -0.216082
0.948394 0.490264 -0.215679
0.985283 0.483917 -0.213729
0.997659 0.476675 -0.211574
0.999965 0.468250 -0.209125
1.025030 0.457748 -0.205439
0.309605 0.557315 0.460219
0.311504 0.557333 0.459092
0.316536 0.557427 0.459173
0.328408 0.557775 0.459169
0.350700 0.558696 0.457974
0.388060 0.561023 0.451036
0.452241 0.566105 0.419674
0.563543 0.572338 0.224850
0.579699 0.589304 -0.154444
0.728037 0.590143 -0.262874
0.857689 0.584780 -0.296076
0.950744 0.577788 -0.304429
0.987467 0.570381 -0.303754
0.998409 0.562436 -0.300104
1.000025 0.553468 -0.295054
1.035714 0.542509 -0.288312
0.367183 0.635919 0.486580
0.368753 0.635931 0.485496
0.373135 0.636054 0.485534
0.383731 0.636305 0.485497
0.404297 0.637044 0.484681
0.439530 0.638829 0.480095
0.496160 0.643101 0.460875
0.586787 0.649789 0.389668
0.641984 0.656808 0.155738
0.701409 0.667550 -0.259793
0.836727 0.666131 -0.331792
0.944426 0.659819 -0.361588
0.987315 0.651483 -0.372427
0.998673 0.642419 -0.372518
1.000034 0.632483 -0.367961
1.043888 0.620637 -0.360322
0.420275 0.708211 0.510492
0.421617 0.708266 0.509500
0.425440 0.708263 0.509538
0.434985 0.708591 0.509427
0.454003 0.709192 0.508743
0.487176 0.710728 0.505335
0.539526 0.714411 0.491968
0.613893 0.720683 0.449791
0.693559 0.728045 0.234895
0.682570 0.733121 -0.164100
0.810806 0.737898 -0.329236
0.929487 0.734748 -0.388216
0.983702 0.727537 -0.415975
0.998357 0.717945 -0.428761
1.000034 0.707002 -0.429843
1.047705 0.694137 -0.424159
0.468407 0.773775 0.531808
0.469454 0.773789 0.530922
0.472945 0.773842 0.530902
0.481518 0.774134 0.530763
0.498789 0.774641 0.530136
0.528315 0.775940 0.527998
0.574641 0.779040 0.518913
0.638167 0.784657 0.490851
0.712106 0.792099 0.420957
0.745015 0.797997 0.175722
0.790365 0.800161 -0.268298
0.908973 0.801678 -0.384891
0.976851 0.797070 -0.436630
0.997244 0.788683 -0.463115
1.000025 0.777550 -0.476404
1.045701 0.763793 -0.477878
0.496912 0.833580 0.556097
0.497962 0.833603 0.555259
0.501467 0.833669 0.555143
0.510171 0.833778 0.554728
0.527826 0.834366 0.553605
0.560069 0.835661 0.550248
0.605536 0.838245 0.542592
0.661634 0.843279 0.522946
0.725029 0.850075 0.478598
0.763686 0.856275 0.378381
0.788736 0.858951 -0.125981
0.889066 0.860989 -0.337145
0.967268 0.859985 -0.432019
0.995069 0.853735 -0.479260
0.999931 0.843745 -0.504385
1.036875 0.830159 -0.516482
0.500003 0.887161 0.586231
0.500925 0.887180 0.585504
0.504021 0.887276 0.585435
0.511839 0.887499 0.585218
0.528024 0.887987 0.584481
0.557136 0.889059 0.582408
0.602412 0.891441 0.576305
0.658361 0.895832 0.561166
0.705368 0.901358 0.536220
0.751246 0.907117 0.483203
0.794395 0.911034 0.233392
0.881038 0.915080 -0.244311
0.957174 0.916344 -0.391420
0.991640 0.913200 -0.473436
0.999642 0.905038 -0.516984
1.023189 0.892297 -0.540118
0.491925 0.934778 0.618015
0.492701 0.934792 0.617375
0.495473 0.934889 0.617404
0.502534 0.935085 0.617377
0.517190 0.935458 0.617188
0.544094 0.936274 0.616242
0.586485 0.938010 0.612678
0.638222 0.941068 0.603420
0.685336 0.944746 0.586999
0.738552 0.949098 0.550445
0.804405 0.953747 0.464404
0.879784 0.957485 0.135896
0.949696 0.959732 -0.312925
0.987448 0.960260 -0.436913
0.999019 0.956256 -0.509968
1.007060 0.947510 -0.549891
0.521081 0.968913 0.636446
0.521739 0.968920 0.635922
0.524021 0.968974 0.635979
0.529894 0.968991 0.636198
0.541903 0.969284 0.636494
0.564385 0.969681 0.636682
0.600747 0.970515 0.635438
0.648268 0.972200 0.629770
0.700967 0.974532 0.615630
0.756305 0.977364 0.587792
0.816086 0.980223 0.535505
0.882896 0.982784 0.401734
0.945201 0.984730 -0.174096
0.982730 0.985801 -0.365805
0.997894 0.985981 -0.476197
1.000031 0.981943 -0.542004
0.550145 0.988716 0.652069
0.550729 0.988720 0.651591
0.552839 0.988717 0.651680
0.558164 0.988677 0.651881
0.569152 0.988842 0.652141
0.589768 0.989033 0.652388
0.623477 0.989497 0.651691
0.668545 0.990316 0.647692
0.718923 0.991484 0.637250
0.771359 0.992842 0.616882
0.826643 0.994305 0.580863
0.886775 0.995620 0.513819
0.942130 0.996642 0.236885
0.978191 0.997360 -0.256378
0.995676 0.997748 -0.407766
0.999946 0.997808 -0.509921
-0.048214 -0.047688 0.391623
0.014774 -0.049516 0.390737
0.056933 -0.049896 0.385055
0.095329 -0.042079 0.377154
0.141615 0.053899 0.368162
0.233148 0.066628 0.378544
0.323941 0.052216 0.389196
0.444879 -0.035708 0.391940
0.575163 -0.068792 0.389314
0.695978 -0.091305 0.383316
0.805114 -0.109678 0.373816
0.903867 -0.125563 0.360130
0.965084 -0.139611 0.339741
0.990881 -0.152271 0.296282
0.998836 -0.163698 0.254784
1.000028 -0.173915 0.248226
-0.058455 0.034922 0.391076
-0.033619 0.031700 0.390261
0.051749 0.026187 0.384909
0.095266 0.039782 0.376683
0.165688 0.077458 0.365309
0.253268 0.083528 0.374852
0.353396 0.072354 0.381848
0.446476 0.035627 0.387622
0.576376 -0.058004 0.383655
0.697063 -0.084670 0.376127
0.806064 -0.104743 0.364735
0.904624 -0.121563 0.348035
0.965384 -0.136194 0.319848
0.990958 -0.149246 0.257452
0.998874 -0.160941 0.251333
1.000029 -0.171336 0.244803
-0.097679 0.136967 0.385045
-0.086718 0.135398 0.384301
-0.058088 0.132408 0.382915
0.128026 0.123688 0.369608
0.203347 0.128001 0.360221
0.301285 0.123280 0.356870
0.419061 0.113691 0.349177
0.508410 0.096645 0.345786
0.584090 0.061368 0.340631
0.703540 -0.054090 0.311634
0.811646 -0.085322 0.257169
0.908814 -0.105675 0.251998
0.967118 -0.122124 0.246503
0.991583 -0.136211 0.240705
0.998926 -0.148495 0.234725
1.000031 -0.159137 0.228718
-0.072790 0.219361 0.371284
-0.059306 0.218923 0.370831
0.053802 0.215623 0.368570
0.135279 0.211405 0.372612
0.187365 0.221081 0.360611
0.311423 0.219090 0.299395
0.464447 0.211388 0.283253
0.597913 0.204480 0.237109
0.709323 0.196246 0.230897
0.784794 0.187040 0.230708
0.852962 0.174766 0.231937
0.915292 0.160872 0.240951
0.970074 0.137445 0.235148
0.992587 0.105471 0.229109
0.999184 0.046815 0.222925
1.000038 -0.070528 0.216893
0.091059 0.301516 0.392883
0.100902 0.301251 0.392492
0.124910 0.299432 0.390651
0.157597 0.298613 0.394780
0.190251 0.301060 0.392257
0.248998 0.315993 0.340880
0.489902 0.311809 0.214744
0.620265 0.303704 0.205783
0.730021 0.298281 0.201758
0.815527 0.293878 0.198106
0.865054 0.291999 0.205093
0.926060 0.289546 0.212891
0.974809 0.280575 0.206936
0.994245 0.269834 0.200670
0.999530 0.256928 0.194352
1.001778 0.241195 0.188435
0.173779 0.387788 0.419110
0.177972 0.387751 0.418646
0.188664 0.386849 0.415715
0.206815 0.386954 0.418243
0.233304 0.388470 0.417786
0.275610 0.393133 0.401084
0.441906 0.405996 0.231194
0.602806 0.405701 0.159854
0.693598 0.401394 0.139371
0.779374 0.398333 0.138803
0.865018 0.394791 0.138477
0.937991 0.391822 0.138960
0.980213 0.385518 0.133533
0.996018 0.378098 0.127129
0.999826 0.369112 0.120573
1.011650 0.358007 0.115469
0.240928 0.474407 0.446362
0.243884 0.474346 0.445665
0.251319 0.473864 0.441790
0.266054 0.474022 0.443056
0.291024 0.475013 0.442882
0.330940 0.478129 0.434711
0.409189 0.484031 0.385659
0.568630 0.497414 0.174374
0.607431 0.502810 -0.123302
0.746492 0.497648 -0.175255
0.861560 0.491897 -0.181265
0.947233 0.485977 -0.179932
0.984744 0.479708 -0.177752
0.997493 0.472570 -0.175595
0.999944 0.464257 -0.173232
1.023168 0.453965 -0.169379
0.304821 0.557906 0.472544
0.307049 0.557918 0.471763
0.312482 0.557635 0.467674
0.324950 0.557795 0.468295
0.347737 0.558500 0.468139
0.385289 0.560652 0.463437
0.447433 0.565779 0.438045
0.564412 0.572082 0.270430
0.579963 0.588150 -0.115106
0.728601 0.588001 -0.243998
0.857668 0.581962 -0.277761
0.950378 0.574727 -0.284946
0.987300 0.567222 -0.283472
0.998336 0.559293 -0.279327
1.000021 0.550443 -0.273899
1.034332 0.539690 -0.266884
0.363815 0.636389 0.497229
0.365570 0.636354 0.496427
0.369841 0.636134 0.492364
0.380613 0.636368 0.492682
0.401408 0.636916 0.492482
0.436876 0.638570 0.489251
0.492922 0.642759 0.473181
0.583376 0.649537 0.411835
0.662585 0.656200 0.177812
0.701634 0.666680 -0.243043
0.837225 0.664533 -0.318695
0.944630 0.657803 -0.348762
0.987223 0.649250 -0.358636
0.998623 0.640096 -0.358041
1.000033 0.630169 -0.352946
1.042976 0.618415 -0.344823
0.417814 0.708584 0.519818
0.419299 0.708549 0.519055
0.422687 0.708453 0.515159
0.432190 0.708606 0.515306
0.451147 0.709160 0.515034
0.484421 0.710484 0.512551
0.536630 0.713865 0.501165
0.610349 0.720258 0.463358
0.696216 0.727617 0.339484
0.682544 0.733010 -0.127676
0.811043 0.737256 -0.317363
0.929684 0.733577 -0.377995
0.983780 0.725965 -0.405777
0.998358 0.716183 -0.418074
1.000034 0.705175 -0.418527
1.047223 0.692292 -0.412307
0.466493 0.774011 0.540037
0.467709 0.773998 0.539350
0.470529 0.773884 0.535735
0.478976 0.774126 0.535764
0.496124 0.774572 0.535436
0.525619 0.775784 0.533849
0.571973 0.778601 0.526129
0.635445 0.784271 0.500647
0.710195 0.791717 0.436997
0.755053 0.798069 0.196936
0.790264 0.800117 -0.252085
0.909092 0.801190 -0.375365
0.977011 0.796122 -0.428083
0.997277 0.787564 -0.454627
1.000026 0.776135 -0.467627
1.045574 0.762365 -0.468525
0.495435 0.833682 0.563531
0.496577 0.833676 0.562801
0.499167 0.833658 0.559422
0.507677 0.833755 0.559085
0.525139 0.834363 0.558199
0.557217 0.835476 0.555324
0.603034 0.838022 0.548591
0.658913 0.842879 0.530805
0.725124 0.849824 0.488223
0.767603 0.856148 0.402576
0.788257 0.858854 -0.046648
0.889001 0.860905 -0.325578
0.967272 0.859533 -0.423964
0.995119 0.853111 -0.471870
0.999933 0.842924 -0.497065
1.036987 0.829036 -0.508952
0.499197 0.887296 0.592876
0.500192 0.887298 0.592187
0.502263 0.887304 0.589195
0.509827 0.887475 0.589034
0.525715 0.887905 0.588521
0.554688 0.888962 0.586732
0.600140 0.891249 0.581272
0.658180 0.895433 0.566652
0.705966 0.900998 0.543269
0.752447 0.906997 0.494428
0.793634 0.910907 0.253092
0.880474 0.915041 -0.224291
0.957164 0.916263 -0.382101
0.991642 0.912781 -0.466339
0.999645 0.904518 -0.510397
1.023318 0.891566 -0.533584
0.491696 0.934965 0.623941
0.492582 0.934969 0.623342
0.494277 0.934923 0.620696
0.501011 0.935077 0.620748
0.515335 0.935392 0.620661
0.541932 0.936102 0.619961
0.584610 0.937877 0.616846
0.637948 0.940913 0.608019
0.685732 0.944622 0.592759
0.737897 0.948926 0.559063
0.803782 0.953564 0.480634
0.879243 0.957337 0.172116
0.949459 0.959691 -0.299449
0.987445 0.960204 -0.428990
0.999022 0.956087 -0.503593
1.007146 0.947175 -0.543949
0.521109 0.969037 0.641769
0.521760 0.969036 0.641295
0.523030 0.969001 0.638994
0.528637 0.968997 0.639186
0.540406 0.969254 0.639559
0.562612 0.969603 0.639917
0.598997 0.970482 0.639092
0.646936 0.971990 0.634117
0.700112 0.974396 0.620891
0.755730 0.977263 0.594477
0.815559 0.980120 0.545173
0.882095 0.982678 0.429860
0.944752 0.984653 -0.137568
0.982707 0.985866 -0.355172
0.997887 0.986053 -0.469169
1.000031 0.981822 -0.536098
0.550200 0.988734 0.656865
0.550794 0.988735 0.656479
0.552000 0.988733 0.654433
0.557105 0.988683 0.654658
0.567787 0.988829 0.655031
0.588096 0.988984 0.655399
0.621831 0.989416 0.654988
0.667285 0.990218 0.651481
0.718117 0.991360 0.641792
0.770813 0.992844 0.622383
0.826115 0.994271 0.587967
0.886276 0.995570 0.524986
0.941785 0.996614 0.256013
0.978106 0.997355 -0.237769
0.995714 0.997751 -0.398460
0.999945 0.997796 -0.503531
-0.061433 -0.061062 0.462159
-0.038596 -0.062441 0.461656
0.054122 -0.063712 0.458730
0.103654 -0.064201 0.451435
0.157281 -0.054167 0.443139
0.238642 0.086735 0.421927
0.358766 0.121233 0.425734
0.487298 0.116272 0.436852
0.584564 0.097536 0.450225
0.679874 0.059224 0.460214
0.791208 -0.056336 0.459304
0.892074 -0.087319 0.456414
0.959770 -0.108729 0.451905
0.988977 -0.126104 0.445900
0.998384 -0.140978 0.438304
1.000008 -0.153917 0.428722
-0.069859 -0.029574 0.461993
-0.052053 -0.037309 0.461518
0.046009 -0.040504 0.458640
0.101330 -0.042807 0.451383
0.156980 -0.022516 0.442606
0.251661 0.102461 0.419244
0.367093 0.130303 0.423922
0.496887 0.124836 0.433569
0.594967 0.107634 0.445638
0.680942 0.076552 0.457907
0.792049 -0.041474 0.456610
0.892968 -0.080422 0.453376
0.960109 -0.103769 0.448576
0.989068 -0.122094 0.442326
0.998437 -0.137531 0.434497
1.000010 -0.150823 0.424701
-0.103132 0.135619 0.462658
-0.093215 0.133315 0.462323
-0.062235 0.121010 0.460807
0.111307 0.114982 0.451047
0.207937 0.116366 0.432666
0.271687 0.149370 0.413106
0.381782 0.159335 0.420372
0.521090 0.150512 0.422432
0.625849 0.135415 0.427884
0.707711 0.113569 0.436998
0.797557 0.077364 0.441754
0.897808 -0.046820 0.436858
0.962304 -0.084319 0.430456
0.989862 -0.107268 0.422632
0.998605 -0.125088 0.413090
1.000020 -0.139712 0.401438
-0.151475 0.232523 0.451887
-0.145864 0.231811 0.451531
-0.134617 0.230402 0.450937
-0.088597 0.226286 0.449011
0.185722 0.214633 0.435373
0.274813 0.219583 0.417683
0.406469 0.214550 0.413122
0.548600 0.205681 0.402936
0.678030 0.193116 0.390957
0.762317 0.179200 0.389251
0.835874 0.162181 0.389941
0.906915 0.142008 0.396793
0.966425 0.111390 0.385206
0.991378 0.062007 0.371173
0.998988 -0.062177 0.353315
1.000031 -0.091823 0.328149
-0.138313 0.317095 0.431565
-0.132378 0.316729 0.430884
-0.112105 0.314907 0.427607
0.040556 0.311170 0.424821
0.181667 0.304930 0.427052
0.260515 0.310408 0.423204
0.430740 0.305592 0.377405
0.595912 0.297483 0.361796
0.714715 0.292248 0.350031
0.810580 0.286487 0.336313
0.867205 0.282637 0.335747
0.918268 0.281366 0.345821
0.971356 0.272140 0.318206
0.993041 0.261380 0.257942
0.999313 0.248911 0.252972
1.000038 0.234427 0.248268
0.047515 0.397141 0.444476
0.068142 0.396758 0.443574
0.117524 0.394824 0.440320
0.175906 0.391817 0.438876
0.224085 0.389741 0.447517
0.268523 0.391891 0.449397
0.374296 0.405633 0.387450
0.613393 0.398137 0.215957
0.734440 0.390765 0.206738
0.824795 0.386086 0.204075
0.869976 0.385939 0.216194
0.932554 0.385040 0.225596
0.977741 0.378897 0.221736
0.995205 0.371719 0.217502
0.999654 0.363330 0.213302
1.006783 0.353096 0.209770
0.204570 0.479094 0.464462
0.209219 0.478925 0.464144
0.223303 0.477891 0.462784
0.247941 0.476302 0.461919
0.282185 0.475638 0.467287
0.324694 0.477389 0.467949
0.391247 0.483777 0.441802
0.571987 0.494712 0.220597
0.679830 0.494280 0.136713
0.750484 0.491332 0.098681
0.857886 0.485896 0.095385
