luts/1.cube
LUT_3D_SIZE 6
-0.039298 -0.038595 0.258806
0.096266 -0.041495 0.258608
0.336159 -0.064152 0.256128
0.704273 -0.111404 0.245178
0.967228 -0.150365 0.228150
1.000032 -0.179961 0.208073
0.077740 0.208256 0.333338
0.129795 0.211518 0.321574
0.497123 0.220902 0.212712
0.800065 0.200346 0.201365
0.972140 0.161564 0.204434
0.999922 -0.021920 0.182751
0.249192 0.473234 0.428049
0.270937 0.473906 0.428163
0.425478 0.483827 0.335997
0.746858 0.502447 -0.215097
0.985413 0.484900 -0.219837
1.025321 0.458718 -0.211485
0.420638 0.708221 0.508283
0.435606 0.708593 0.508199
0.540161 0.714364 0.490163
0.682585 0.733146 -0.170114
0.983701 0.727816 -0.418036
1.047770 0.694521 -0.426478
0.500006 0.887143 0.584748
0.512268 0.887506 0.584406
0.602961 0.891522 0.575275
0.751108 0.907143 0.480906
0.957157 0.916360 -0.393304
1.023173 0.892415 -0.541432
0.550119 0.988701 0.650992
0.558357 0.988677 0.651310
0.623977 0.989475 0.651027
0.771645 0.992865 0.615873
0.942195 0.996650 0.232854
0.999946 0.997811 -0.511220
-0.061433 -0.061062 0.462159
0.103654 -0.064201 0.451435
0.358766 0.121233 0.425734
0.679874 0.059224 0.460214
0.959770 -0.108729 0.451905
1.000008 -0.153917 0.428722
-0.151475 0.232523 0.451887
-0.088597 0.226286 0.449011
0.406469 0.214550 0.413122
0.762317 0.179200 0.389251
0.966425 0.111390 0.385206
1.000031 -0.091823 0.328149
0.204570 0.479094 0.464462
0.247941 0.476302 0.461919
0.391247 0.483777 0.441802
0.750484 0.491332 0.098681
0.983294 0.474116 0.101672
1.019066 0.449878 0.107485
0.408160 0.709819 0.534520
0.425186 0.708994 0.527506
0.532430 0.713207 0.520265
0.710352 0.732688 0.125209
0.983934 0.723512 -0.379724
1.045983 0.689837 -0.382628
0.494995 0.887803 0.604376
0.505774 0.887578 0.597654
0.597172 0.890733 0.592190
0.755666 0.906674 0.517021
0.957007 0.916180 -0.357850
1.023534 0.890450 -0.517139
0.549165 0.988817 0.665640
0.555272 0.988729 0.661086
0.619865 0.989309 0.662523
0.770759 0.992623 0.634435
0.941498 0.996544 0.416458
0.999943 0.997785 -0.487394
-0.115395 -0.115244 0.655324
0.087619 -0.118865 0.651312
0.344991 -0.102639 0.612401
0.686712 0.264740 0.556685
0.915099 0.265195 0.618114
0.999165 0.221844 0.618116
-0.178180 0.228920 0.657427
-0.117355 0.184380 0.654759
0.419122 0.178498 0.595426
0.698567 0.309160 0.554663
0.924483 0.303839 0.612813
0.999473 0.270748 0.610227
-0.337811 0.519769 0.620916
-0.323488 0.518570 0.620155
0.228740 0.502811 0.606176
0.788726 0.479283 0.537472
0.963380 0.475719 0.587253
1.000023 0.464454 0.580315
-0.132970 0.730435 0.609088
0.090201 0.728523 0.607037
0.475466 0.718068 0.598320
0.779881 0.730444 0.512844
0.983232 0.713244 0.309606
1.032991 0.686426 0.396324
0.391291 0.896650 0.654643
0.417793 0.895538 0.652096
0.564151 0.892082 0.650994
0.780590 0.904109 0.619070
0.956302 0.915235 0.236478
1.023737 0.886179 -0.343337
0.510965 0.990550 0.703386
0.523374 0.990342 0.702115
0.607346 0.989731 0.707568
0.780979 0.991882 0.705509
0.943044 0.996148 0.615278
0.999934 0.997618 -0.313653
-0.173487 -0.173413 0.822994
-0.098813 -0.176071 0.820679
0.401431 -0.183965 0.796661
0.711213 0.193509 0.691746
0.878455 0.371650 0.676189
0.991525 0.386525 0.727525
-0.219404 0.179394 0.824819
-0.173459 -0.052412 0.822968
0.379840 -0.098203 0.800086
0.730216 0.268417 0.682157
0.882860 0.400759 0.674429
0.992650 0.410381 0.727173
-0.383640 0.536224 0.821562
-0.362827 0.523980 0.821650
0.195999 0.480902 0.807357
0.745651 0.491862 0.687005
0.908925 0.540701 0.680101
0.997146 0.537683 0.732555
-0.514320 0.770514 0.764196
-0.506566 0.770004 0.763844
-0.398460 0.763255 0.759358
0.684648 0.732856 0.727363
0.963224 0.723251 0.730520
1.000017 0.718548 0.732207
-0.375817 0.926031 0.731227
-0.356356 0.924837 0.729531
0.145072 0.918054 0.730056
0.789937 0.901379 0.729916
0.956772 0.914176 0.690294
1.019532 0.886353 0.645877
0.242161 0.995644 0.748341
0.280167 0.995472 0.747776
0.471596 0.994303 0.754767
0.805997 0.991840 0.791225
0.954607 0.995361 0.767370
0.999912 0.997345 0.630545
-0.226214 -0.226156 0.960027
-0.180786 -0.228142 0.958451
0.401065 -0.239200 0.942313
0.742821 -0.203461 0.889877
0.907691 0.320484 0.821477
0.982752 0.447351 0.808116
-0.260927 -0.102328 0.961307
-0.225983 -0.169736 0.960014
0.367019 -0.188500 0.944949
0.738314 -0.146369 0.891890
0.910021 0.360600 0.819798
0.983264 0.470017 0.808579
-0.397629 0.520655 0.963664
-0.376394 0.503821 0.963131
0.088910 0.454379 0.954245
0.741196 0.441429 0.887003
0.923080 0.530993 0.813389
0.986867 0.590140 0.815965
-0.581258 0.776572 0.947170
-0.570991 0.771999 0.947395
-0.464947 0.755353 0.944742
0.653835 0.721275 0.909496
0.945817 0.740687 0.803184
0.995000 0.762730 0.838699
-0.674775 0.956731 0.889264
-0.669549 0.956434 0.889066
-0.602338 0.953197 0.886254
0.359418 0.937694 0.873855
0.966097 0.915048 0.791111
0.999973 0.906246 0.854711
-0.551656 0.999863 0.835826
-0.541682 0.999824 0.834725
-0.438184 0.999604 0.833378
0.619415 0.997731 0.843101
0.973747 0.994367 0.877191
0.999874 0.996910 0.825407
-0.270660 -0.270612 1.150322
-0.238947 -0.272113 1.148149
0.356008 -0.282164 1.127351
0.749870 -0.282174 1.058775
0.958096 -0.182134 0.966894
0.995279 0.384732 0.915840
-0.297142 -0.197825 1.152150
-0.270410 -0.229968 1.150266
0.314391 -0.243215 1.130837
0.740442 -0.247922 1.062117
0.957631 -0.110006 0.968028
0.995436 0.415054 0.916399
-0.408226 0.481557 1.157999
-0.389253 0.463210 1.156844
-0.151535 0.421201 1.142728
0.706590 0.395870 1.075344
0.958547 0.447955 0.973250
0.996288 0.560868 0.919943
-0.572348 0.747101 1.150978
-0.561118 0.741210 1.150919
-0.454281 0.725243 1.143350
0.620986 0.708160 1.094714
0.960856 0.706615 0.992448
0.997862 0.756170 0.928301
-0.734951 0.946779 1.107013
-0.728629 0.945064 1.107274
-0.661659 0.938320 1.103707
0.221473 0.919205 1.080294
0.944148 0.902853 1.018339
0.999153 0.920299 0.938979
-0.811522 1.027340 1.006597
-0.807458 1.027020 1.006274
-0.757155 1.023308 1.002462
-0.451905 1.007329 0.986054
0.789403 0.999555 0.967016
0.999734 0.996604 0.950967
