luts/10.cube
LUT_3D_SIZE 6
-0.014626 -0.014125 -0.009311
0.039848 0.027410 0.046001
0.153909 0.087327 0.134675
0.514051 0.074501 0.242156
0.800837 0.083546 0.317375
0.941395 0.177628 0.361145
-0.036347 0.066865 0.081057
0.032726 0.067646 0.089060
0.165280 0.129677 0.162027
0.527761 0.161443 0.262098
0.808338 0.191172 0.328655
0.946298 0.235628 0.366414
-0.111530 0.233984 0.228489
-0.074368 0.237260 0.235064
0.201711 0.243351 0.255038
0.586684 0.352345 0.314377
0.841286 0.395615 0.354094
0.966566 0.394987 0.381026
0.387808 0.534799 0.445454
0.418594 0.535935 0.457020
0.510331 0.549005 0.503906
0.627167 0.591342 0.405322
0.873972 0.627250 0.381147
0.995477 0.586998 0.397307
0.667841 0.761167 0.677556
0.680453 0.762882 0.685144
0.714866 0.777333 0.701741
0.760705 0.813667 0.677692
0.891339 0.851424 0.565096
1.008529 0.788095 0.467063
0.864930 0.956639 0.865002
0.870004 0.958421 0.867918
0.886502 0.966944 0.875472
0.908179 0.985464 0.876094
0.940100 1.017514 0.839821
1.047704 1.059052 0.759162
-0.289500 -0.476431 -0.278391
-0.278928 -0.475763 -0.275959
0.166424 -0.467274 -0.240371
0.463803 -0.441496 0.140083
0.764471 -0.395287 0.302870
0.896053 -0.352473 0.366200
-0.032887 0.065150 0.119150
0.035495 0.069223 0.127321
0.157666 0.103854 0.155381
0.515481 0.094524 0.253862
0.801314 0.102725 0.323636
0.941846 0.187960 0.365844
-0.126220 0.235337 0.265175
-0.115670 0.238541 0.244057
0.208214 0.247417 0.269131
0.580653 0.334627 0.321464
0.836179 0.372707 0.359300
0.963645 0.375679 0.384644
0.371021 0.540000 0.448808
0.390771 0.536842 0.448346
0.506790 0.547186 0.504381
0.629590 0.593306 0.410526
0.873766 0.618770 0.384257
0.994203 0.577692 0.401650
0.665241 0.763203 0.678351
0.669377 0.761880 0.678918
0.711928 0.775268 0.702097
0.758830 0.812503 0.682074
0.892014 0.851953 0.568122
1.008631 0.784310 0.468711
0.864832 0.957403 0.866277
0.865558 0.956870 0.865469
0.883911 0.965368 0.874484
0.906631 0.983957 0.876311
0.938987 1.016641 0.840735
1.047878 1.059153 0.758703
-0.284970 -0.474215 0.029966
-0.246886 -0.472053 0.096388
0.190110 -0.464634 0.153171
0.373316 -0.402427 0.281173
0.733915 -0.363179 0.426829
0.880071 -0.328352 0.447855
-0.058414 0.099621 0.290687
-0.036032 0.052891 0.279904
0.171907 0.100529 0.295358
0.476215 0.187814 0.381122
0.781699 0.189227 0.441421
0.931138 0.228401 0.449185
-0.116907 0.231879 0.353505
-0.108757 0.237438 0.359089
0.221976 0.251175 0.369164
0.543717 0.279413 0.383892
0.813864 0.298578 0.411914
0.951508 0.339829 0.434469
0.275137 0.560166 0.480309
0.301953 0.559223 0.476873
0.456925 0.557375 0.492168
0.642551 0.602003 0.454724
0.872981 0.595571 0.440153
0.989736 0.561613 0.456413
0.646226 0.773563 0.680149
0.653789 0.772317 0.681952
0.700071 0.772981 0.703480
0.758407 0.810625 0.707706
0.895262 0.854139 0.594874
1.010348 0.777233 0.506932
0.862155 0.960853 0.869770
0.863479 0.960102 0.869490
0.878813 0.962710 0.876009
0.906261 0.981189 0.883833
0.938790 1.015201 0.853146
1.049322 1.059854 0.771557
-0.268883 -0.466549 0.444700
-0.202569 -0.463325 0.449790
0.241641 -0.446355 0.459685
0.362054 -0.384306 0.413537
0.689252 -0.302698 0.520092
0.852688 -0.277102 0.538681
-0.093500 0.133180 0.505957
-0.078804 0.028675 0.495029
0.252762 0.113750 0.496009
0.468426 0.222058 0.478061
0.745010 0.272063 0.553674
0.907756 0.284874 0.556163
-0.160047 0.326890 0.557025
-0.140742 0.309498 0.553552
0.192310 0.221871 0.536321
0.510561 0.320972 0.505465
0.774858 0.352484 0.558742
0.928642 0.370104 0.554570
-0.216519 0.581407 0.601233
-0.197211 0.583818 0.602657
0.281264 0.598719 0.609936
0.644064 0.606466 0.615054
0.862064 0.616052 0.619795
0.983654 0.630499 0.630411
0.574474 0.799054 0.697329
0.584012 0.798138 0.697062
0.654835 0.796357 0.710222
0.778009 0.814341 0.767195
0.900671 0.854920 0.679373
1.015476 0.800000 0.653468
0.847398 0.970416 0.871682
0.849403 0.969412 0.871711
0.870760 0.968598 0.881384
0.925010 0.988206 0.914677
0.952447 1.019671 0.893774
1.053118 1.061752 0.829848
-0.243023 -0.455196 0.651010
-0.155320 -0.451732 0.653910
0.267453 -0.432222 0.655070
0.459755 -0.371415 0.611193
0.651888 -0.218108 0.608115
0.815121 -0.159375 0.624700
-0.116125 0.150324 0.686905
-0.105744 0.023868 0.678037
0.288725 0.119437 0.674839
0.520114 0.223928 0.644965
0.709451 0.346749 0.655165
0.868954 0.357629 0.662664
-0.157530 0.354918 0.727427
-0.137953 0.330237 0.722374
0.194353 0.224143 0.703868
0.527017 0.307848 0.669394
0.729827 0.419225 0.673342
0.888372 0.425747 0.673037
-0.156486 0.603637 0.776803
-0.130627 0.595565 0.775855
0.292394 0.571492 0.773352
0.623053 0.586021 0.747919
0.805406 0.640107 0.747828
0.950025 0.642923 0.740989
0.398992 0.833646 0.804979
0.408333 0.834368 0.805481
0.497837 0.838877 0.808638
0.717659 0.846699 0.816981
0.906439 0.858280 0.828033
1.020633 0.867267 0.835794
0.793619 0.992669 0.876413
0.796109 0.991803 0.876041
0.826239 0.990227 0.883516
0.920988 0.995807 0.930546
0.985834 1.037353 0.953964
1.056579 1.064253 0.926227
-0.222115 -0.446923 0.760118
-0.139805 -0.444029 0.761676
0.248881 -0.428530 0.762322
0.437694 -0.387084 0.735150
0.604930 -0.284416 0.696176
0.788921 0.221069 0.718949
-0.124306 0.146580 0.794688
-0.116781 0.052546 0.788785
0.268104 0.118781 0.785867
0.493064 0.197821 0.763060
0.667849 0.317425 0.737761
0.837020 0.430873 0.762062
-0.140604 0.329816 0.823184
-0.123847 0.306551 0.818951
0.204046 0.232637 0.806942
0.490764 0.288601 0.782852
0.681082 0.389169 0.753784
0.851564 0.489721 0.776149
-0.094412 0.551266 0.866276
-0.036174 0.540801 0.864359
0.285582 0.514168 0.857173
0.619209 0.581717 0.840341
0.761184 0.619733 0.812258
0.906095 0.671392 0.834232
0.289771 0.769788 0.902738
0.299273 0.766137 0.902272
0.411468 0.759123 0.901696
0.669166 0.779998 0.903421
0.896013 0.866930 0.906037
0.993069 0.876812 0.923431
0.550879 0.974540 0.928789
0.555880 0.974791 0.928725
0.607330 0.975620 0.928924
0.765801 0.978663 0.934052
0.958064 0.984114 0.965998
1.031552 1.000475 0.971153
