luts/10.cube
LUT_3D_SIZE 16
-0.014626 -0.014125 -0.009311
-0.022867 -0.016550 -0.011949
0.018619 0.011496 0.021001
0.039848 0.027410 0.046001
0.065811 0.044899 0.072208
0.099869 0.065679 0.100174
0.153909 0.087327 0.134675
0.248399 0.099991 0.175636
0.379902 0.097265 0.212855
0.514051 0.074501 0.242156
0.629929 0.034767 0.268412
0.724098 0.037520 0.294016
0.800837 0.083546 0.317375
0.863684 0.124473 0.337093
0.912507 0.157625 0.352333
0.941395 0.177628 0.361145
-0.018770 -0.023171 -0.014559
-0.026054 -0.025164 -0.016587
0.019576 0.016378 0.025963
0.040731 0.030927 0.049598
0.066635 0.047483 0.074682
0.100588 0.067845 0.101874
0.154314 0.089547 0.135840
0.248896 0.102422 0.176670
0.380503 0.100525 0.213640
0.514691 0.080136 0.242799
0.630361 0.050987 0.268991
0.724557 0.054646 0.294510
0.801265 0.091465 0.317810
0.863952 0.129370 0.337341
0.912805 0.161393 0.352575
0.941639 0.180240 0.361376
-0.017939 0.032086 0.039500
-0.016224 0.032171 0.040144
0.014161 0.031858 0.042770
0.040934 0.048376 0.069105
0.070562 0.063040 0.091653
0.105889 0.081667 0.114796
0.157130 0.104672 0.144600
0.252689 0.119396 0.185119
0.385160 0.122754 0.221213
0.518851 0.114285 0.249379
0.633716 0.106111 0.274692
0.727200 0.112867 0.299244
0.803461 0.134327 0.321531
0.865989 0.161155 0.340220
0.914564 0.186090 0.354691
0.943161 0.200256 0.363057
-0.036347 0.066865 0.081057
-0.035069 0.067006 0.081628
-0.022761 0.067765 0.085187
0.032726 0.067646 0.089060
0.069854 0.086820 0.117346
0.113912 0.104917 0.139889
0.165280 0.129677 0.162027
0.260920 0.148618 0.201517
0.394880 0.159006 0.235922
0.527761 0.161443 0.262098
0.640791 0.164500 0.285654
0.733039 0.174538 0.308280
0.808338 0.191172 0.328655
0.870089 0.210416 0.345664
0.918271 0.228192 0.358912
0.946298 0.235628 0.366414
-0.059082 0.109079 0.127260
-0.058063 0.109188 0.127650
-0.049327 0.110040 0.130705
0.015797 0.111339 0.136133
0.061964 0.111252 0.140837
0.116890 0.135476 0.170999
0.181462 0.161328 0.189555
0.275252 0.187000 0.225155
0.411081 0.205012 0.256682
0.542166 0.216780 0.279772
0.652296 0.227422 0.300536
0.742391 0.240168 0.320358
0.816417 0.254530 0.337840
0.877010 0.269119 0.352760
0.924119 0.281292 0.364462
0.951194 0.282219 0.370830
-0.087835 0.162979 0.177685
-0.086878 0.163070 0.177984
-0.079037 0.163912 0.180431
-0.054141 0.165572 0.185517
0.067942 0.167481 0.192417
0.112681 0.167343 0.197608
0.198510 0.199852 0.225753
0.297235 0.233529 0.254268
0.434579 0.260291 0.280264
0.562526 0.280233 0.298958
0.668527 0.296041 0.316171
0.755987 0.310165 0.332414
0.827816 0.322938 0.346961
0.886624 0.333829 0.359790
0.932573 0.341265 0.370227
0.958291 0.335982 0.375704
-0.111530 0.233984 0.228489
-0.110426 0.234110 0.228704
-0.101578 0.235150 0.230786
-0.074368 0.237260 0.235064
0.080495 0.240431 0.241632
0.146676 0.243515 0.249609
0.201711 0.243351 0.255038
0.325555 0.288076 0.281181
0.463334 0.326303 0.300152
0.586684 0.352345 0.314377
0.688068 0.370902 0.328066
0.771927 0.384918 0.341333
0.841286 0.395615 0.354094
0.898344 0.402905 0.365779
0.942386 0.405981 0.375724
0.966566 0.394987 0.381026
0.084519 0.325854 0.280727
0.088315 0.325950 0.280880
0.110790 0.326966 0.282644
0.147116 0.328988 0.286266
0.193348 0.331918 0.292253
0.248117 0.335424 0.301646
0.307302 0.338061 0.318043
0.339664 0.345788 0.323165
0.483309 0.402549 0.318953
0.607613 0.432781 0.325041
0.706532 0.450979 0.334420
0.787940 0.463066 0.346161
0.855492 0.470864 0.358104
0.910807 0.474377 0.369859
0.953808 0.473366 0.379911
0.976602 0.456570 0.385234
0.256236 0.434718 0.357146
0.257901 0.434798 0.357454
0.269656 0.435409 0.360038
0.293604 0.436725 0.365796
0.330011 0.438493 0.376386
0.376188 0.440866 0.394449
0.419995 0.446971 0.418975
0.442389 0.464315 0.413119
0.492927 0.475425 0.364898
0.619001 0.515520 0.348926
0.718409 0.534192 0.347364
0.799863 0.543973 0.353443
0.867138 0.548479 0.363474
0.921938 0.548381 0.374926
0.964285 0.543186 0.385214
0.986653 0.520850 0.389992
0.387808 0.534799 0.445454
0.389235 0.534871 0.445934
0.398889 0.535214 0.449384
0.418594 0.535935 0.457020
0.447996 0.537212 0.470131
0.483206 0.539978 0.489333
0.510331 0.549005 0.503906
0.529987 0.565935 0.497492
0.564794 0.583120 0.461363
0.627167 0.591342 0.405322
0.725142 0.615684 0.384628
0.806387 0.625164 0.378366
0.873972 0.627250 0.381147
0.929701 0.623790 0.387676
0.972646 0.614698 0.395066
0.995477 0.586998 0.397307
0.499525 0.620660 0.531589
0.500586 0.620666 0.532079
0.508260 0.620981 0.535772
0.523543 0.621719 0.543509
0.545635 0.623319 0.555728
0.569893 0.627253 0.570243
0.588146 0.636754 0.577724
0.604562 0.651058 0.573382
0.628551 0.667766 0.551412
0.670871 0.682576 0.507429
0.732812 0.690828 0.455049
0.810854 0.703154 0.430806
0.877728 0.704666 0.419169
0.933847 0.698963 0.415317
0.977865 0.686578 0.414834
1.002158 0.654116 0.409904
0.592698 0.695690 0.610239
0.593499 0.695682 0.610659
0.599153 0.696125 0.613823
0.610344 0.697109 0.620284
0.625953 0.699393 0.629727
0.642143 0.704181 0.638976
0.656165 0.712560 0.643713
0.670198 0.724526 0.641747
0.687958 0.739007 0.628851
0.715799 0.754284 0.601629
0.759534 0.767689 0.558012
0.819316 0.776959 0.510738
0.881585 0.779223 0.480561
0.936393 0.772378 0.461117
0.980861 0.758031 0.448707
1.006220 0.721519 0.432581
0.667841 0.761167 0.677556
0.668460 0.761279 0.677923
0.672566 0.761745 0.680353
0.680453 0.762882 0.685144
0.691567 0.765496 0.691889
0.703119 0.770143 0.697877
0.714866 0.777333 0.701741
0.727057 0.787459 0.701506
0.741124 0.799780 0.694315
0.760705 0.813667 0.677692
0.790267 0.827728 0.649089
0.833623 0.840595 0.607694
0.891339 0.851424 0.565096
0.940359 0.843441 0.526644
0.982911 0.827552 0.498697
1.008529 0.788095 0.467063
0.727557 0.817271 0.733070
0.727989 0.817299 0.733333
0.730978 0.817881 0.735127
0.736918 0.819175 0.738716
0.745174 0.821627 0.743411
0.754308 0.825872 0.748008
0.764372 0.832044 0.751478
0.775058 0.840445 0.752446
0.787030 0.850978 0.748858
0.802012 0.863272 0.738924
0.822773 0.876592 0.720607
0.852830 0.889870 0.692304
0.895021 0.902342 0.653407
0.952230 0.915251 0.614329
0.987297 0.896132 0.566774
1.010437 0.853461 0.515849
0.773384 0.862448 0.776495
0.773634 0.862507 0.776689
0.776096 0.863082 0.778098
0.780650 0.864308 0.780877
0.787185 0.866626 0.784518
0.794819 0.870257 0.788271
0.803651 0.875519 0.791536
0.813183 0.882683 0.793207
0.823615 0.891653 0.791997
0.835842 0.902380 0.786333
0.851598 0.914480 0.774792
0.873169 0.927252 0.755701
0.903070 0.939864 0.727936
0.944508 0.952333 0.691248
1.002513 0.968416 0.656072
1.015440 0.918709 0.580397
0.864930 0.956639 0.865002
0.865259 0.956739 0.865147
0.866908 0.957252 0.866137
0.870004 0.958421 0.867918
0.874469 0.960308 0.870189
0.880027 0.963153 0.872943
0.886502 0.966944 0.875472
0.893325 0.971810 0.877401
0.900622 0.977919 0.877978
0.908179 0.985464 0.876094
0.916660 0.994566 0.870696
0.926785 1.005310 0.859469
0.940100 1.017514 0.839821
0.959621 1.030903 0.807505
0.991020 1.046442 0.755492
1.047704 1.059052 0.759162
-0.289970 -0.476610 -0.289525
-0.290781 -0.476653 -0.289624
-0.289770 -0.476587 -0.289124
-0.281509 -0.476102 -0.287826
-0.257087 -0.474844 -0.284879
-0.194656 -0.472307 -0.279236
0.159585 -0.467914 -0.269538
0.299869 -0.466792 -0.223609
0.349363 -0.453887 -0.182332
0.462113 -0.442226 -0.131181
0.591813 -0.432859 -0.042519
0.698313 -0.421444 0.151453
0.772550 -0.402615 0.242529
0.831982 -0.384067 0.293484
0.875912 -0.367847 0.324191
0.900151 -0.357982 0.338768
-0.017446 -0.022778 0.015979
-0.024308 -0.023450 0.015909
0.018537 0.005749 0.023481
0.039501 0.025217 0.045497
0.065336 0.043028 0.070989
0.099375 0.063968 0.099010
0.153611 0.085546 0.133805
0.247864 0.098094 0.174863
0.379310 0.094793 0.212236
0.513480 0.069668 0.241658
0.629417 -0.015851 0.267933
0.723698 -0.019391 0.293490
0.800736 0.075378 0.316812
0.863462 0.119375 0.336527
0.912354 0.153973 0.351841
0.941294 0.174589 0.360757
-0.016943 0.031909 0.046708
-0.018579 0.031913 0.041908
0.014803 0.032581 0.046683
0.041269 0.046563 0.068682
0.070228 0.060703 0.090002
0.105046 0.079224 0.113018
0.156465 0.101902 0.143157
0.251819 0.116118 0.183648
0.384165 0.118371 0.219901
0.517982 0.107851 0.248224
0.632957 0.097231 0.273639
0.726558 0.103587 0.298434
0.802941 0.126449 0.320925
0.865520 0.154900 0.339815
0.914198 0.180990 0.354373
0.942841 0.195928 0.362878
-0.035675 0.066744 0.085840
-0.036952 0.066801 0.081634
-0.024689 0.067695 0.086062
0.033076 0.068034 0.090698
0.070078 0.085783 0.117030
0.113581 0.103354 0.138689
0.164543 0.127810 0.160900
0.259999 0.146232 0.200347
0.393969 0.155855 0.234837
0.526834 0.157430 0.261166
0.639999 0.159679 0.284848
0.732203 0.169468 0.307693
0.807776 0.186195 0.328152
0.869751 0.205872 0.345260
0.917861 0.224253 0.358572
0.945914 0.232387 0.366115
-0.058620 0.108991 0.131097
-0.059753 0.109029 0.127339
-0.050973 0.109935 0.130961
0.007787 0.111336 0.136576
0.062266 0.111545 0.141766
0.117012 0.134731 0.170710
0.180893 0.160157 0.188782
0.274410 0.185334 0.224283
0.410201 0.202783 0.255923
0.541350 0.213950 0.279107
0.651548 0.224155 0.299984
0.741784 0.236660 0.319866
0.816010 0.251082 0.337510
0.876666 0.265760 0.352407
0.923802 0.278324 0.364228
0.950864 0.279595 0.370741
-0.087698 0.162945 0.181143
-0.088575 0.162945 0.177608
-0.080694 0.163826 0.180515
-0.056653 0.165527 0.185651
0.066734 0.167519 0.192693
0.113010 0.167606 0.198258
0.198425 0.199258 0.225510
0.296540 0.232419 0.253793
0.433810 0.258668 0.279893
0.561756 0.278139 0.298641
0.667905 0.293754 0.315961
0.755309 0.307655 0.332241
0.827328 0.320375 0.346866
0.886315 0.331294 0.359755
0.932214 0.338911 0.370108
0.957963 0.333868 0.375658
-0.114904 0.234373 0.231936
-0.112444 0.233925 0.228384
-0.103995 0.235034 0.230758
-0.077952 0.237179 0.235082
0.077196 0.240381 0.241757
0.145806 0.243570 0.249815
0.201984 0.243573 0.255507
0.325341 0.287510 0.281252
0.462938 0.325136 0.300193
0.586296 0.350801 0.314326
0.687641 0.369182 0.328029
0.771464 0.383047 0.341408
0.840918 0.393685 0.354118
0.897857 0.401043 0.365864
0.942091 0.404201 0.375771
0.966217 0.393343 0.381023
0.072009 0.326541 0.282958
0.081373 0.325820 0.280671
0.105695 0.326853 0.282488
0.143584 0.328872 0.286134
0.190960 0.331834 0.292120
0.246715 0.335483 0.301514
0.306671 0.338147 0.317888
0.339909 0.346012 0.323374
0.483280 0.402017 0.318958
0.607420 0.431802 0.325017
0.706282 0.449751 0.334578
0.787862 0.461723 0.346085
0.855196 0.469392 0.358280
0.910595 0.472979 0.369920
0.953549 0.471909 0.379891
0.976430 0.455264 0.385305
0.253709 0.435346 0.358036
0.254846 0.434615 0.356892
0.266926 0.435384 0.359562
0.291193 0.436664 0.365292
0.327979 0.438466 0.375789
0.374768 0.440857 0.393818
0.419543 0.446777 0.418764
0.442242 0.464247 0.413420
0.493215 0.475577 0.364954
0.619044 0.515111 0.348903
0.718420 0.533446 0.347304
0.799894 0.543006 0.353438
0.866964 0.547400 0.363554
0.921868 0.547269 0.374986
0.964117 0.542083 0.385208
0.986480 0.519791 0.390072
0.386841 0.535289 0.445801
0.386790 0.534801 0.445084
0.396693 0.535153 0.448635
0.416644 0.535872 0.456245
0.446376 0.537163 0.469396
0.482126 0.539885 0.488693
0.509969 0.548725 0.503873
0.529777 0.565763 0.497841
0.564599 0.583086 0.461710
0.627287 0.591504 0.405477
0.725045 0.615314 0.384549
0.806295 0.624596 0.378358
0.874046 0.626534 0.380965
0.929610 0.623030 0.387730
0.972608 0.613831 0.394999
0.995289 0.586115 0.397212
0.499187 0.621042 0.531827
0.498573 0.620560 0.531149
0.506523 0.620915 0.534913
0.522021 0.621695 0.542687
0.544332 0.623170 0.554992
0.569193 0.627128 0.569874
0.587823 0.636503 0.577723
0.604333 0.650878 0.573648
0.628367 0.667736 0.551777
0.670735 0.682555 0.507720
0.732911 0.690845 0.455111
0.810885 0.702895 0.430758
0.877745 0.704191 0.418999
0.933881 0.698442 0.415030
0.977859 0.686018 0.414861
1.002074 0.653404 0.409997
0.592556 0.695820 0.610364
0.591934 0.695543 0.609747
0.597833 0.695993 0.613063
0.609207 0.697078 0.619651
0.625057 0.699173 0.629166
0.641513 0.703861 0.638590
0.655945 0.712417 0.643753
0.669980 0.724340 0.641936
0.687685 0.738783 0.629171
0.715493 0.754148 0.601987
0.759431 0.767674 0.558168
0.819257 0.776911 0.510939
0.881480 0.779101 0.480532
0.936378 0.771994 0.460912
0.980801 0.757634 0.448529
1.006198 0.721176 0.432381
0.667899 0.761406 0.677754
0.667347 0.761039 0.677225
0.671611 0.761639 0.679768
0.679703 0.762874 0.684735
0.690983 0.765378 0.691564
0.702779 0.769936 0.697716
0.714615 0.777229 0.701749
0.726837 0.787181 0.701621
0.741026 0.799647 0.694575
0.760546 0.813607 0.677936
0.790084 0.827729 0.649384
0.833482 0.840573 0.607940
0.891350 0.851472 0.565219
0.940379 0.843387 0.526599
0.982925 0.827263 0.498594
1.008532 0.787644 0.467012
0.727478 0.817378 0.733278
0.727143 0.817190 0.732722
0.730356 0.817758 0.734757
0.736292 0.819024 0.738438
0.744681 0.821488 0.743374
0.754044 0.825701 0.747886
0.764162 0.831842 0.751426
0.774810 0.840247 0.752433
0.786835 0.850799 0.749025
0.801833 0.863257 0.739148
0.822619 0.876606 0.720935
0.852665 0.889770 0.692478
0.894909 0.902319 0.653636
0.952326 0.915333 0.614346
0.987424 0.895929 0.566575
1.010387 0.853244 0.515793
0.773388 0.862513 0.776647
0.772997 0.862386 0.776240
0.775544 0.863013 0.777879
0.780209 0.864162 0.780569
0.786809 0.866398 0.784334
0.794601 0.870088 0.788123
0.803452 0.875362 0.791483
0.813011 0.882551 0.793292
0.823461 0.891537 0.792093
0.835812 0.902325 0.786512
0.851495 0.914343 0.774981
0.873085 0.927240 0.755934
0.902948 0.939754 0.728128
0.944471 0.952309 0.691293
1.002576 0.968398 0.656046
1.015416 0.918552 0.580308
0.864925 0.956698 0.865057
0.864784 0.956619 0.864798
0.866467 0.957143 0.865879
0.869697 0.958327 0.867735
0.874172 0.960194 0.869997
0.879808 0.963008 0.872673
0.886201 0.966801 0.875280
0.893127 0.971695 0.877292
0.900387 0.977787 0.877822
0.908036 0.985330 0.876025
0.916489 0.994479 0.870607
0.926636 1.005203 0.859235
0.939953 1.017420 0.839648
0.959482 1.030826 0.807356
0.990930 1.046408 0.755275
1.047702 1.059050 0.758787
-0.289804 -0.476572 -0.286829
-0.289732 -0.476540 -0.286625
-0.289235 -0.476523 -0.286667
-0.280836 -0.475997 -0.283743
-0.256264 -0.474703 -0.279325
-0.193396 -0.472131 -0.272038
0.161332 -0.467717 -0.260361
0.299589 -0.466573 -0.207622
0.349540 -0.453644 -0.156884
0.462530 -0.441994 -0.077128
0.592231 -0.432642 0.111847
0.694709 -0.419003 0.195785
0.769810 -0.400174 0.265702
0.829715 -0.381799 0.309452
0.874179 -0.365810 0.336362
0.898764 -0.356100 0.348489
-0.010779 0.013272 0.055292
-0.022116 -0.020986 0.052497
0.018844 0.007440 0.054098
0.041050 0.026364 0.073690
0.068093 0.043909 0.095772
0.103091 0.064686 0.120013
0.151694 0.090790 0.147376
0.241749 0.108418 0.189793
0.374962 0.107924 0.231372
0.510466 0.090164 0.262070
0.627151 0.066533 0.287359
0.721925 0.067462 0.310633
0.799244 0.097337 0.331438
0.862316 0.132158 0.348737
0.911537 0.162897 0.362230
0.940617 0.181489 0.369411
-0.016185 0.031290 0.062427
-0.017188 0.031379 0.063015
0.015314 0.033171 0.066305
0.041756 0.038790 0.074108
0.068655 0.049778 0.087183
0.101804 0.067559 0.106994
0.153582 0.089047 0.137404
0.247899 0.100814 0.177730
0.379523 0.096948 0.214444
0.513615 0.072212 0.243308
0.629445 0.018136 0.269155
0.723674 0.010098 0.294391
0.800739 0.076479 0.317479
0.863427 0.119949 0.337044
0.912352 0.154490 0.352332
0.941336 0.175449 0.361353
-0.034340 0.066343 0.100145
-0.034803 0.066333 0.098984
-0.030207 0.067383 0.094771
0.034737 0.069237 0.101889
0.070960 0.082322 0.120565
0.112585 0.097653 0.137761
0.162192 0.120732 0.158469
0.256452 0.137360 0.197345
0.389984 0.143581 0.232222
0.523116 0.140893 0.258944
0.637058 0.139130 0.282885
0.729839 0.147434 0.306153
0.805788 0.165170 0.326978
0.867834 0.187453 0.344605
0.916162 0.208301 0.358358
0.944602 0.219111 0.366268
-0.057594 0.108664 0.143523
-0.057953 0.108688 0.142189
-0.056975 0.109783 0.134767
-0.022126 0.111546 0.142262
0.063869 0.112774 0.148644
0.117679 0.132249 0.172561
0.179378 0.155738 0.187966
0.271089 0.179367 0.222440
0.406494 0.194227 0.254442
0.537964 0.202869 0.277916
0.648694 0.211120 0.299021
0.739401 0.222792 0.319234
0.813834 0.237304 0.337129
0.874671 0.252811 0.352348
0.922200 0.266437 0.364339
0.949617 0.269364 0.370920
-0.087482 0.162773 0.192771
-0.087714 0.162783 0.191365
-0.087522 0.163842 0.182135
-0.064693 0.165699 0.188952
0.062548 0.168064 0.196478
0.114839 0.168863 0.202905
0.198420 0.197239 0.226321
0.293783 0.228740 0.253383
0.430693 0.252606 0.279931
0.558791 0.270146 0.298783
0.665401 0.284448 0.316143
0.753123 0.297791 0.332478
0.825310 0.310483 0.347315
0.884612 0.321663 0.360103
0.930614 0.329879 0.370675
0.956763 0.325888 0.376319
-0.123512 0.235198 0.244082
-0.122933 0.235107 0.242580
-0.113962 0.234985 0.231455
-0.092334 0.237425 0.237438
0.060074 0.240766 0.244395
0.142526 0.244181 0.252813
0.203839 0.244835 0.258956
0.324513 0.285637 0.283305
0.461298 0.320965 0.301696
0.584374 0.345075 0.315767
0.685877 0.362429 0.329287
0.769789 0.375830 0.342585
0.839326 0.386305 0.355232
0.896446 0.393774 0.366726
0.940826 0.397279 0.376537
0.965189 0.387138 0.381887
-0.068105 0.328827 0.291676
-0.060137 0.328547 0.290498
0.078580 0.326698 0.282192
0.126739 0.329194 0.286833
0.180124 0.332361 0.292850
0.239934 0.336196 0.302070
0.303885 0.339168 0.317879
0.341320 0.347243 0.325315
0.483365 0.399990 0.320297
0.606969 0.428137 0.326517
0.705452 0.445085 0.336090
0.786693 0.456427 0.347632
0.854197 0.463883 0.359508
0.909486 0.467384 0.371022
0.952463 0.466460 0.380927
0.975592 0.450303 0.386188
0.242141 0.437505 0.361236
0.243556 0.437170 0.360727
0.254958 0.435282 0.357592
0.280935 0.436937 0.363807
0.319590 0.438834 0.374097
0.369025 0.441263 0.391888
0.417997 0.446533 0.418307
0.442070 0.464141 0.415368
0.494272 0.476481 0.366500
0.619199 0.513532 0.349657
0.718308 0.530567 0.348182
0.799451 0.539397 0.354450
0.866456 0.543431 0.364622
0.921273 0.543086 0.375908
0.963427 0.537822 0.386092
0.985909 0.515793 0.391037
0.381793 0.536841 0.446664
0.382344 0.536594 0.446499
0.387072 0.535138 0.445511
0.408552 0.536131 0.453564
0.439794 0.537352 0.466657
0.477806 0.539797 0.486450
0.508809 0.548038 0.503953
0.529109 0.565148 0.499454
0.563960 0.583177 0.463790
0.627943 0.592012 0.406689
0.725263 0.614216 0.384883
0.806233 0.622403 0.378626
0.873856 0.623774 0.381463
0.929451 0.619911 0.388160
0.972192 0.610562 0.395749
0.994978 0.582965 0.398155
0.496507 0.622056 0.531975
0.496852 0.621907 0.531973
0.498827 0.620835 0.531435
0.515964 0.621764 0.539863
0.539488 0.623056 0.552437
0.566285 0.626600 0.568315
0.586698 0.635733 0.577935
0.603590 0.650069 0.574875
0.627514 0.667320 0.553577
0.670245 0.682603 0.509324
0.733292 0.691213 0.456320
0.810842 0.702087 0.430941
0.877774 0.702561 0.418907
0.933845 0.696251 0.415284
0.977836 0.683517 0.415131
1.001882 0.651075 0.410444
0.591164 0.696787 0.610553
0.591261 0.696590 0.610464
0.592115 0.695739 0.609969
0.604838 0.696852 0.617265
0.621599 0.698707 0.627215
0.639680 0.703159 0.637893
0.654797 0.711596 0.643899
0.669187 0.723499 0.642691
0.686895 0.738208 0.630591
0.714702 0.753788 0.603549
0.758920 0.767719 0.559613
0.819533 0.777319 0.511880
0.881544 0.778380 0.480603
0.936428 0.770782 0.460723
0.980777 0.755999 0.448473
1.006237 0.719240 0.432704
0.666997 0.761936 0.677935
0.667110 0.761920 0.677928
0.667456 0.761196 0.677334
0.676477 0.762469 0.682924
0.688463 0.764801 0.690190
0.701174 0.769185 0.697117
0.713542 0.776332 0.701728
0.726111 0.786436 0.702122
0.740412 0.799046 0.695612
0.759896 0.813242 0.679152
0.789389 0.827452 0.650721
0.833102 0.840622 0.608934
0.891649 0.851595 0.565798
0.940327 0.842769 0.526731
0.982795 0.826160 0.498368
1.008578 0.786508 0.466963
0.727133 0.817824 0.733514
0.727183 0.817747 0.733476
0.727247 0.817314 0.732841
0.733908 0.818610 0.737138
0.742895 0.820906 0.742431
0.752699 0.825051 0.747545
0.763193 0.831178 0.751406
0.774191 0.839575 0.752820
0.786307 0.850303 0.749703
0.801247 0.862736 0.740027
0.821999 0.876135 0.721838
0.852092 0.889678 0.693606
0.894576 0.902338 0.654504
0.952406 0.915549 0.615155
0.987440 0.895635 0.566662
1.010400 0.852377 0.515876
0.773228 0.862958 0.777101
0.773205 0.862862 0.777006
0.773057 0.862384 0.776307
0.778434 0.863764 0.779670
0.785348 0.865888 0.783678
0.793540 0.869550 0.787731
0.802558 0.874757 0.791367
0.812329 0.881983 0.793449
0.822952 0.891003 0.792506
0.835234 0.901778 0.787189
0.850937 0.914021 0.775814
0.872551 0.926883 0.756763
0.902494 0.939666 0.728958
0.944238 0.952301 0.692186
1.002685 0.968429 0.656498
1.015451 0.918262 0.580624
0.864911 0.956915 0.865480
0.864866 0.956838 0.865411
0.864751 0.956542 0.864810
0.868294 0.957773 0.866945
0.873013 0.959628 0.869478
0.878795 0.962444 0.872199
0.885328 0.966189 0.874882
0.892340 0.971092 0.876960
0.899698 0.977293 0.877586
0.907383 0.984773 0.875953
0.915977 0.993964 0.870584
0.926182 1.004804 0.859512
0.939607 1.017137 0.839813
0.959200 1.030641 0.807443
0.990595 1.046321 0.755253
1.047744 1.059077 0.758575
-0.289500 -0.476431 -0.278391
-0.288581 -0.476337 -0.277736
-0.284490 -0.476074 -0.276433
-0.278928 -0.475763 -0.275959
-0.253651 -0.474375 -0.267683
-0.189362 -0.471762 -0.256670
0.166424 -0.467274 -0.240371
0.299212 -0.466083 -0.168684
0.350136 -0.453117 -0.065800
0.463803 -0.441496 0.140083
0.593349 -0.432153 0.182817
0.687638 -0.413779 0.252964
0.764471 -0.395287 0.302870
0.825671 -0.377262 0.336797
0.870943 -0.361686 0.357882
0.896053 -0.352473 0.366200
-0.017407 0.016505 0.097557
-0.021869 -0.019479 0.094744
0.023226 0.013114 0.098215
0.040154 0.026024 0.100816
0.068804 0.043291 0.125220
0.105907 0.063166 0.149249
0.155971 0.089443 0.173119
0.233190 0.118885 0.207366
0.366092 0.123598 0.256289
0.503899 0.110742 0.290581
0.622089 0.094659 0.315473
0.718013 0.094333 0.336020
0.796179 0.114355 0.353342
0.859972 0.143235 0.367676
0.909487 0.170670 0.378665
0.939046 0.187331 0.383344
-0.023515 0.043864 0.107523
-0.023528 0.041508 0.106235
0.005992 0.031181 0.102721
0.040494 0.039139 0.107445
0.069775 0.050733 0.125284
0.106818 0.067861 0.145247
0.155995 0.093119 0.167047
0.236815 0.118329 0.203172
0.370507 0.120480 0.248801
0.507355 0.106503 0.280908
0.624725 0.089623 0.305417
0.720008 0.090411 0.326677
0.797735 0.112300 0.345084
0.861092 0.142224 0.360407
0.910611 0.170242 0.372189
0.939865 0.187813 0.378061
-0.032887 0.065150 0.119150
-0.033382 0.065389 0.119620
-0.027862 0.066775 0.122439
0.035495 0.069223 0.127321
0.071703 0.074291 0.134217
0.110631 0.083742 0.140698
0.157666 0.103854 0.155381
0.248734 0.116523 0.191779
0.381571 0.112904 0.226879
0.515481 0.094524 0.253862
0.630715 0.072786 0.278096
0.724657 0.074345 0.301776
0.801314 0.102725 0.323636
0.863767 0.137111 0.342230
0.912840 0.167899 0.356916
0.941846 0.187960 0.365844
-0.055673 0.108176 0.163963
-0.055942 0.108161 0.163307
-0.053595 0.109181 0.161720
-0.037538 0.111730 0.157904
0.067217 0.114583 0.166565
0.118982 0.127853 0.182249
0.177844 0.147393 0.191771
0.264068 0.169110 0.221902
0.399172 0.178324 0.255033
0.531292 0.181281 0.278838
0.643137 0.185086 0.300009
0.734614 0.194823 0.320368
0.809763 0.209926 0.338601
0.871221 0.227255 0.353934
0.919137 0.243772 0.366304
0.947080 0.250902 0.373406
-0.085883 0.162330 0.212889
-0.086103 0.162318 0.211980
-0.085178 0.163483 0.208226
-0.079114 0.166481 0.198486
0.054684 0.169407 0.208652
0.119106 0.171398 0.215811
0.198849 0.193877 0.232546
0.287888 0.222836 0.255062
0.424523 0.241741 0.283150
0.553239 0.255325 0.302010
0.660481 0.267006 0.319177
0.748733 0.279176 0.335442
0.821503 0.291727 0.350116
0.881230 0.303600 0.362903
0.927820 0.313236 0.373324
0.954397 0.311873 0.379209
-0.126220 0.235337 0.265175
-0.126314 0.235324 0.264089
-0.125020 0.236277 0.258492
-0.115670 0.238541 0.244057
-0.047896 0.242101 0.253858
0.137436 0.245951 0.262563
0.208214 0.247417 0.269131
0.321404 0.283297 0.290372
0.457927 0.313680 0.308182
0.580653 0.334627 0.321464
0.682205 0.350109 0.334388
0.766488 0.362543 0.347179
0.836179 0.372707 0.359300
0.893594 0.380453 0.370394
0.938169 0.384749 0.379914
0.963645 0.375679 0.384644
-0.131008 0.332660 0.310598
