luts/11.cube
LUT_3D_SIZE 6
-0.015604 0.005575 0.010268
0.117094 0.046058 0.027509
0.318547 0.053131 -0.009381
0.581427 0.042054 -0.058602
0.806377 0.046920 -0.078510
1.026343 0.099875 -0.061441
0.035086 0.107081 -0.060622
0.123099 0.104826 0.054698
0.322075 0.107556 0.017365
0.583225 0.109584 -0.055961
0.807491 0.121086 -0.074628
1.027161 0.158281 -0.046891
-0.162366 0.288579 -0.181897
-0.089283 0.287423 -0.181923
0.329367 0.280014 0.133614
0.591757 0.288632 -0.042803
0.812789 0.307025 -0.048711
1.030740 0.339208 0.079381
-0.335774 0.560591 -0.354664
-0.309126 0.560597 -0.356469
0.303154 0.552282 -0.333009
0.589289 0.543518 0.347900
0.821411 0.557831 0.125376
1.037028 0.577682 0.155948
-0.478118 0.812945 -0.503466
-0.453223 0.812668 -0.504947
-0.156980 0.806977 -0.500831
0.621202 0.786071 -0.359032
0.812258 0.778760 0.557374
1.038617 0.796607 0.334902
-0.636616 1.177101 -0.648212
-0.612848 1.176322 -0.650257
-0.454336 1.172382 -0.646674
0.504115 1.159266 -0.584956
0.870710 1.129832 0.294104
1.086605 1.114526 0.803429
-0.180489 -0.627363 0.097930
0.123376 -0.625536 0.122212
0.254694 -0.616426 -0.136807
0.539538 -0.612721 -0.100687
0.783730 -0.606128 0.097571
1.011831 -0.591587 0.058601
0.033800 0.107273 0.054995
0.124918 0.104128 0.074376
0.323894 0.105940 0.070259
0.584331 0.105229 0.055341
0.807804 0.113627 0.046424
1.027368 0.149245 0.094255
-0.162564 0.288608 -0.166584
-0.104950 0.290673 -0.172077
0.333668 0.282144 0.140681
0.592791 0.287489 0.078715
0.813115 0.304043 0.088265
1.030955 0.335025 0.132018
-0.335818 0.560641 -0.343696
-0.313557 0.562551 -0.348207
0.299456 0.554299 -0.326134
0.591221 0.544792 0.352130
0.821888 0.556796 0.161725
1.037297 0.575627 0.194331
-0.478138 0.812942 -0.488930
-0.457135 0.813293 -0.493220
-0.176975 0.807913 -0.490030
0.619697 0.787091 -0.347639
0.813031 0.779277 0.562483
1.039968 0.795690 0.350802
-0.636732 1.176690 -0.631724
-0.618176 1.176312 -0.639996
-0.463349 1.172629 -0.637435
0.496105 1.159722 -0.577597
0.868568 1.130416 0.300436
1.086970 1.114703 0.806941
-0.168855 -0.625386 0.253975
0.136669 -0.624656 0.254517
0.275180 -0.617505 0.208015
0.543289 -0.612271 0.190602
0.785263 -0.605502 0.196663
1.012492 -0.590868 0.224596
0.062428 0.103563 0.213285
0.121390 0.097373 0.221488
0.328313 0.102399 0.218051
0.585842 0.104446 0.222983
0.808812 0.114189 0.240200
1.028239 0.150322 0.281279
-0.114602 0.281410 0.221602
0.038513 0.286328 0.223687
0.339569 0.280374 0.237640
0.595382 0.286045 0.240271
0.814425 0.295619 0.252616
1.031932 0.320916 0.287314
-0.329007 0.558799 -0.184861
-0.309648 0.561417 -0.198257
0.267284 0.561350 -0.230091
0.600417 0.548101 0.379131
0.823858 0.554350 0.308346
1.038420 0.569674 0.340893
-0.473182 0.810899 -0.354136
-0.454386 0.811684 -0.364457
-0.245842 0.810875 -0.395588
0.610909 0.791306 -0.228560
0.816752 0.781279 0.590382
1.045203 0.792857 0.438619
-0.629749 1.174375 -0.509967
-0.614214 1.174440 -0.524328
-0.497228 1.173321 -0.561444
0.455254 1.162370 -0.515948
0.856588 1.133903 0.352501
1.088470 1.115686 0.829677
-0.160912 -0.624184 0.477034
0.142290 -0.623893 0.479835
0.338200 -0.626282 0.509126
0.569738 -0.618167 0.488302
0.794804 -0.607974 0.488390
1.017510 -0.592364 0.514374
0.032958 0.094215 0.495071
0.113261 0.085406 0.499738
0.334330 0.055300 0.510583
0.596803 0.043746 0.503288
0.815138 0.084161 0.511704
1.032814 0.135114 0.537491
0.081950 0.276306 0.496521
0.135294 0.276205 0.501247
0.332276 0.262679 0.523827
0.606187 0.274746 0.515441
0.820285 0.289598 0.520520
1.035948 0.316154 0.540948
-0.073671 0.535527 0.527048
0.127091 0.538492 0.529925
0.350048 0.547223 0.536989
0.615513 0.546609 0.546484
0.826867 0.555045 0.552655
1.040532 0.566882 0.567965
-0.401407 0.796698 0.524988
-0.381779 0.797968 0.521501
-0.169034 0.802692 0.497555
0.578406 0.799216 0.461311
0.828355 0.784217 0.649898
1.049767 0.792002 0.615733
-0.587440 1.165937 0.363174
-0.573365 1.166505 0.341306
-0.482362 1.168551 0.200527
0.367746 1.166462 -0.228893
0.829068 1.141408 0.469565
1.091535 1.117841 0.877544
-0.160520 -0.624095 0.747915
0.141472 -0.623933 0.748757
0.322508 -0.624636 0.761012
0.596595 -0.627507 0.773520
0.816246 -0.617425 0.758666
1.028741 -0.597998 0.756833
-0.069082 0.068308 0.745646
0.094820 0.047872 0.747684
0.329490 -0.062977 0.757375
0.607214 -0.125944 0.760401
0.828030 -0.113212 0.752093
1.041873 0.077609 0.755773
-0.049654 0.276385 0.744128
0.113955 0.273597 0.746343
0.323055 0.254439 0.759885
0.612403 0.249737 0.767802
0.833038 0.271118 0.756745
1.044940 0.304859 0.757430
0.182287 0.535261 0.734532
0.214991 0.535756 0.736362
0.365510 0.537072 0.745903
0.614269 0.531115 0.775260
0.838244 0.546019 0.764270
1.048370 0.560539 0.765419
0.125848 0.774803 0.769268
0.197689 0.776001 0.770107
0.392758 0.780056 0.772742
0.627576 0.785137 0.775709
0.844462 0.786236 0.783722
1.053232 0.794772 0.789622
-0.466270 1.150184 0.727700
-0.447604 1.150627 0.723562
-0.321390 1.153324 0.702384
0.413323 1.158931 0.649702
0.784403 1.151934 0.644020
1.095546 1.120922 0.944583
-0.157359 -0.623634 0.932576
0.144589 -0.623450 0.932717
0.317062 -0.623533 0.939906
0.597913 -0.628208 0.954816
0.829555 -0.624446 0.948142
1.041530 -0.604856 0.934520
-0.093516 -0.020642 0.923196
0.071948 -0.062864 0.924069
0.327977 -0.090489 0.931667
0.607355 -0.148784 0.939939
0.837465 -0.167024 0.934759
1.052771 -0.116578 0.926834
-0.083381 0.277576 0.920313
0.098591 0.272395 0.921593
0.316421 0.246715 0.930349
0.606859 0.238594 0.942357
0.840501 0.246742 0.937675
1.055982 0.288226 0.928078
0.145406 0.540783 0.904653
0.187728 0.539178 0.905842
0.352358 0.532223 0.914343
0.602459 0.519991 0.939522
0.843177 0.526988 0.940202
1.060056 0.548574 0.929516
0.299937 0.770458 0.906143
0.326656 0.770404 0.906460
0.447947 0.771020 0.908569
0.637230 0.774099 0.916219
0.847386 0.778549 0.941695
1.064526 0.788538 0.934327
-0.113918 1.005530 0.940968
0.156950 1.005749 0.940817
0.388160 1.006789 0.939685
0.611637 1.009423 0.937917
0.829434 1.013452 0.932771
1.054080 1.015288 0.979302
