luts/11.cube
LUT_3D_SIZE 16
-0.015604 0.005575 0.010268
0.036382 0.030528 0.020485
0.073537 0.040051 0.024808
0.117094 0.046058 0.027509
0.170939 0.050000 0.027796
0.238176 0.052630 0.024363
0.318547 0.053131 -0.009381
0.406253 0.051251 -0.033138
0.495815 0.047152 -0.047328
0.581427 0.042054 -0.058602
0.660971 0.038429 -0.067453
0.735863 0.039430 -0.074175
0.806377 0.046920 -0.078510
0.874327 0.059524 -0.079950
0.939928 0.075417 -0.077213
1.026343 0.099875 -0.061441
0.040374 0.038226 0.029777
0.043084 0.038566 0.027218
0.074756 0.043076 0.025976
0.117442 0.047857 0.027909
0.171115 0.051418 0.027976
0.238273 0.053908 0.024492
0.318591 0.054414 -0.008968
0.406299 0.052653 -0.033082
0.495864 0.048798 -0.047295
0.581454 0.044128 -0.058560
0.661037 0.040932 -0.067409
0.735841 0.042093 -0.074113
0.806406 0.049220 -0.078450
0.874356 0.061404 -0.079876
0.939963 0.076957 -0.077089
1.026357 0.101105 -0.061232
0.050794 0.068720 -0.024572
0.053373 0.068472 -0.020891
0.079596 0.068788 0.040341
0.120529 0.070326 0.031223
0.173103 0.072133 0.030144
0.239743 0.073774 0.026499
0.319749 0.074527 0.009245
0.407216 0.074090 -0.031753
0.496560 0.072747 -0.046383
0.582039 0.071473 -0.057729
0.661499 0.071535 -0.066551
0.736269 0.073983 -0.073136
0.806718 0.079614 -0.077253
0.874648 0.088696 -0.078365
0.940097 0.101136 -0.074946
1.026611 0.121661 -0.057291
0.035086 0.107081 -0.060622
0.039735 0.106966 -0.060304
0.084896 0.104585 -0.038315
0.123099 0.104826 0.054698
0.176390 0.105364 0.034114
0.242541 0.106506 0.029614
0.322075 0.107556 0.017365
0.409150 0.108199 -0.028963
0.498122 0.108674 -0.044488
0.583225 0.109584 -0.055961
0.662534 0.111597 -0.064679
0.737093 0.115282 -0.070966
0.807491 0.121086 -0.074628
0.875269 0.129376 -0.074906
0.940818 0.140399 -0.069975
1.027161 0.158281 -0.046891
-0.062918 0.154703 -0.094124
-0.060540 0.154638 -0.094083
0.060753 0.153456 -0.091426
0.129428 0.149104 -0.033269
0.177861 0.150128 0.072394
0.246385 0.150502 0.035421
0.325503 0.151769 0.023467
0.412059 0.153182 -0.024535
0.500559 0.154894 -0.041590
0.585234 0.157242 -0.053188
0.664185 0.160609 -0.061610
0.738608 0.165414 -0.067323
0.808819 0.171971 -0.070039
0.876454 0.180529 -0.068681
0.941795 0.191386 -0.060526
1.028040 0.207951 0.006757
-0.110594 0.214427 -0.133708
-0.109503 0.214382 -0.133729
-0.082406 0.213892 -0.133724
0.102896 0.211706 -0.127484
0.186906 0.205209 0.063440
0.247202 0.207850 0.095860
0.329921 0.208871 0.036328
0.416158 0.210764 -0.015148
0.504041 0.213344 -0.037802
0.588043 0.216751 -0.049419
0.666474 0.221163 -0.057188
0.740437 0.226876 -0.061768
0.810506 0.234112 -0.062594
0.878015 0.243116 -0.057542
0.943126 0.253548 -0.041555
1.029241 0.268812 0.055187
-0.162366 0.288579 -0.181897
-0.161701 0.288578 -0.181956
-0.147043 0.288396 -0.182549
-0.089283 0.287423 -0.181923
0.161497 0.283888 -0.169055
0.259911 0.275093 0.127472
0.329367 0.280014 0.133614
0.420961 0.281816 0.044825
0.508480 0.284770 -0.024938
0.591757 0.288632 -0.042803
0.669545 0.293534 -0.050112
0.743183 0.299508 -0.052496
0.812789 0.307025 -0.048711
0.879942 0.315748 -0.032929
0.944845 0.325366 0.042017
1.030740 0.339208 0.079381
-0.218710 0.373877 -0.236775
-0.218238 0.373880 -0.236812
-0.208068 0.373843 -0.237490
-0.177008 0.373475 -0.238291
0.050974 0.371627 -0.235391
0.241672 0.366154 -0.209151
0.345205 0.355791 0.200213
0.417725 0.363301 0.189646
0.513145 0.366054 0.070032
0.596098 0.369980 0.036273
0.673381 0.374889 -0.019399
0.746522 0.380929 -0.020372
0.815603 0.387841 0.029531
0.882330 0.395659 0.052556
0.946912 0.404284 0.073483
1.032585 0.416466 0.101887
-0.277574 0.466224 -0.295507
-0.277188 0.466233 -0.295569
-0.269139 0.466260 -0.296204
-0.246400 0.466066 -0.297321
-0.183266 0.465102 -0.297338
0.185268 0.461653 -0.288315
0.337681 0.454223 -0.239340
0.436919 0.443716 0.273856
0.506092 0.453115 0.263192
0.599992 0.457236 0.115831
0.677401 0.461728 0.084925
0.750045 0.466878 0.074090
0.818672 0.472839 0.076116
0.885038 0.479517 0.086486
0.949250 0.486979 0.101456
1.034712 0.497233 0.126253
-0.335774 0.560591 -0.354664
-0.335405 0.560597 -0.354664
-0.328298 0.560667 -0.355288
-0.309126 0.560597 -0.356469
-0.262383 0.559972 -0.357392
-0.096691 0.557678 -0.353907
0.303154 0.552282 -0.333009
0.441204 0.543015 -0.241265
0.529125 0.533808 0.342722
0.589289 0.543518 0.347900
0.675820 0.549214 0.212289
0.753021 0.552927 0.136851
0.821411 0.557831 0.125376
0.887640 0.563318 0.126066
0.951629 0.569466 0.134894
1.037028 0.577682 0.155948
-0.389409 0.651397 -0.410183
-0.389056 0.651400 -0.410213
-0.382192 0.651352 -0.410703
-0.364345 0.651232 -0.411818
-0.324143 0.650559 -0.412920
-0.225155 0.648646 -0.411517
0.248237 0.644286 -0.400186
0.419252 0.636877 -0.361183
0.540845 0.626212 -0.186511
0.614974 0.618926 0.404293
0.667427 0.627885 0.426146
0.744738 0.635263 0.312662
0.822688 0.638578 0.203010
0.889877 0.642805 0.179289
0.953996 0.647653 0.178867
1.039249 0.654296 0.194560
-0.436791 0.735240 -0.459760
-0.436459 0.735240 -0.459772
-0.429486 0.735096 -0.460288
-0.412038 0.734992 -0.461348
-0.374962 0.734130 -0.462374
-0.295120 0.732538 -0.461852
0.157594 0.728948 -0.454834
0.388507 0.722720 -0.431278
0.525894 0.714455 -0.371047
0.630747 0.703268 0.149170
0.694492 0.697840 0.462466
0.741656 0.705952 0.494954
0.810448 0.714356 0.401959
0.886997 0.718329 0.292120
0.956074 0.721632 0.236110
1.041126 0.726912 0.245265
-0.478118 0.812945 -0.503466
-0.477789 0.812942 -0.503489
-0.470669 0.812924 -0.503981
-0.453223 0.812668 -0.504947
-0.417885 0.811865 -0.505978
-0.347304 0.810178 -0.505680
-0.156980 0.806977 -0.500831
0.350823 0.801794 -0.484847
0.505252 0.794623 -0.446913
0.621202 0.786071 -0.359032
0.712615 0.775079 0.286228
0.768818 0.771047 0.519956
0.812258 0.778760 0.557374
0.875348 0.787625 0.479221
0.949016 0.792256 0.376848
1.038617 0.796607 0.334902
-0.514707 0.886642 -0.541894
-0.514304 0.886638 -0.541945
-0.507008 0.886531 -0.542363
-0.489378 0.886087 -0.543171
-0.455081 0.885308 -0.544122
-0.390394 0.883797 -0.544072
-0.249367 0.880916 -0.540370
0.303742 0.876441 -0.528716
0.479110 0.870330 -0.502317
0.604972 0.862815 -0.449601
0.707531 0.853902 -0.316251
0.788344 0.843807 0.379043
0.839321 0.840932 0.575747
0.880694 0.848183 0.616503
0.939488 0.857235 0.550225
1.020879 0.865117 0.513753
-0.546821 0.956577 -0.574350
-0.546475 0.956569 -0.574393
-0.538985 0.956361 -0.574821
-0.521250 0.956004 -0.575569
-0.487688 0.955258 -0.576421
-0.427233 0.953782 -0.576389
-0.309369 0.951099 -0.573524
0.240579 0.947283 -0.564615
0.448211 0.941993 -0.544966
0.584317 0.935459 -0.507585
0.693548 0.928057 -0.438862
0.786992 0.918704 -0.220800
0.859530 0.909664 0.459114
0.907187 0.907576 0.633444
0.947244 0.914839 0.673738
1.010403 0.926183 0.671678
-0.636616 1.177101 -0.648212
-0.636448 1.177023 -0.648446
-0.629370 1.176797 -0.649244
-0.612848 1.176322 -0.650257
-0.583143 1.175657 -0.651010
-0.534194 1.174361 -0.650318
-0.454336 1.172382 -0.646674
-0.304834 1.169302 -0.637367
0.303109 1.165012 -0.618682
0.504115 1.159266 -0.584956
0.644613 1.151997 -0.526124
0.761604 1.143188 -0.416538
0.870710 1.129832 0.294104
0.965335 1.113913 0.622677
1.029482 1.105154 0.786824
1.086605 1.114526 0.803429
-0.189369 -0.628937 -0.180027
-0.183280 -0.628092 -0.175141
-0.141094 -0.626761 -0.166748
0.117409 -0.625706 -0.160108
0.139344 -0.618861 -0.226216
0.183285 -0.617723 -0.221476
0.253858 -0.616558 -0.216724
0.344509 -0.615468 -0.211799
0.442778 -0.614276 -0.206394
0.539070 -0.612866 -0.199905
0.627313 -0.611181 -0.191501
0.708491 -0.609012 -0.180095
0.783724 -0.606305 -0.164201
0.855010 -0.602877 -0.140725
0.922997 -0.598689 -0.101490
1.011702 -0.591820 -0.038713
0.040286 0.037987 0.030827
0.043366 0.038533 0.028981
0.074875 0.043244 0.029666
0.117579 0.047853 0.031508
0.171313 0.051193 0.031671
0.238484 0.053577 0.029039
0.318825 0.053965 0.017551
0.406476 0.052084 -0.028777
0.495974 0.048028 -0.044583
0.581538 0.043022 -0.056378
0.661053 0.039441 -0.065408
0.735881 0.040285 -0.072152
0.806410 0.047475 -0.076376
0.874366 0.059795 -0.077561
0.939938 0.075488 -0.074300
1.026370 0.099956 -0.056147
0.050761 0.068810 -0.018709
0.052921 0.068626 -0.014846
0.079953 0.068819 0.041423
0.120623 0.070350 0.034640
0.173277 0.072057 0.033768
0.239946 0.073621 0.030907
0.319894 0.074314 0.020770
0.407353 0.073806 -0.026775
0.496697 0.072403 -0.043392
0.582096 0.071018 -0.055324
0.661518 0.070987 -0.064338
0.736283 0.073341 -0.070947
0.806746 0.078905 -0.074940
0.874594 0.087948 -0.075725
0.940156 0.100336 -0.071688
1.026625 0.120951 -0.050890
0.035019 0.107090 -0.058577
0.037920 0.107170 -0.058726
0.084694 0.104780 -0.036596
0.123466 0.104924 0.055454
0.176558 0.105356 0.037531
0.242711 0.106440 0.033794
0.322178 0.107434 0.025103
0.409238 0.108021 -0.022620
0.498233 0.108442 -0.041089
0.583349 0.109296 -0.053293
0.662568 0.111248 -0.062234
0.737032 0.114882 -0.068528
0.807520 0.120629 -0.072054
0.875282 0.128864 -0.071948
0.940797 0.139779 -0.066174
1.027188 0.157735 -0.037412
-0.062841 0.154664 -0.092743
-0.061970 0.154952 -0.093144
0.059669 0.153718 -0.090560
0.129412 0.149372 -0.032123
0.178251 0.150318 0.073028
0.246577 0.150526 0.039125
0.325714 0.151724 0.029727
0.412212 0.153072 -0.014134
0.500729 0.154722 -0.037419
0.585331 0.157022 -0.050010
0.664249 0.160356 -0.058754
0.738615 0.165105 -0.064495
0.808813 0.171583 -0.066962
0.876469 0.180124 -0.065048
0.941777 0.190880 -0.055443
1.028055 0.207483 0.033613
-0.110504 0.214380 -0.132679
-0.110258 0.214727 -0.133080
-0.083296 0.214167 -0.133065
0.102347 0.211989 -0.126966
0.187043 0.205511 0.063856
0.247575 0.208060 0.096391
0.330107 0.208908 0.040535
0.416327 0.210727 0.018808
0.504121 0.213265 -0.032123
0.588151 0.216591 -0.045368
0.666502 0.220945 -0.053543
0.740540 0.226669 -0.058114
0.810509 0.233760 -0.058512
0.878031 0.242776 -0.052189
0.943109 0.253147 -0.030581
1.029256 0.268426 0.062022
-0.162275 0.288497 -0.181064
-0.162201 0.288889 -0.181439
-0.147508 0.288628 -0.182008
-0.090256 0.287664 -0.181449
0.161174 0.284226 -0.168761
0.260116 0.275308 0.128079
0.329582 0.280286 0.134409
0.421117 0.281869 0.048746
0.508611 0.284754 0.004300
0.591831 0.288541 -0.036731
0.669567 0.293388 -0.044862
0.743243 0.299394 -0.047047
0.812823 0.306822 -0.041614
0.879960 0.315448 -0.011954
0.944830 0.324989 0.050770
1.030755 0.338910 0.084223
-0.218630 0.373836 -0.236055
-0.218625 0.374147 -0.236391
-0.208408 0.374071 -0.237024
-0.177429 0.373669 -0.237829
0.048584 0.371834 -0.235009
0.241605 0.366415 -0.208790
0.345353 0.356053 0.200532
0.417887 0.363480 0.190014
0.513249 0.366089 0.072825
0.596160 0.369926 0.043399
0.673458 0.374776 0.024174
0.746541 0.380851 0.025234
0.815638 0.387730 0.041240
0.882348 0.395462 0.059457
0.946897 0.404008 0.078505
1.032601 0.416190 0.105776
-0.277515 0.466170 -0.294841
-0.277475 0.466397 -0.295077
-0.269394 0.466436 -0.295744
-0.246761 0.466282 -0.296891
-0.183787 0.465283 -0.296919
0.184785 0.461873 -0.287980
0.337638 0.454410 -0.238966
0.437104 0.443942 0.274139
0.506255 0.453198 0.263427
0.600133 0.457210 0.117357
0.677528 0.461695 0.088094
0.750009 0.466822 0.078383
0.818713 0.472749 0.080630
0.885060 0.479359 0.090697
0.949237 0.486818 0.105205
1.034728 0.497077 0.129591
-0.335701 0.560552 -0.353963
-0.335692 0.560803 -0.354241
-0.328546 0.560821 -0.354828
-0.309389 0.560702 -0.356013
-0.262766 0.560046 -0.356873
-0.098235 0.557804 -0.353518
0.302933 0.552414 -0.332604
0.441103 0.543235 -0.241098
0.529256 0.533977 0.343084
0.589449 0.543588 0.348175
0.676029 0.549223 0.212806
0.753090 0.552874 0.139022
0.821460 0.557778 0.128090
0.887670 0.563207 0.129010
0.951624 0.569278 0.137917
1.037048 0.577550 0.158889
-0.389339 0.651374 -0.409452
-0.389316 0.651484 -0.409634
-0.382405 0.651464 -0.410168
-0.364584 0.651338 -0.411233
-0.324406 0.650644 -0.412366
-0.225707 0.648717 -0.410948
0.247720 0.644380 -0.399746
0.419066 0.637055 -0.360848
0.540859 0.626287 -0.185555
0.615134 0.619081 0.404601
0.667496 0.627914 0.426404
0.744685 0.635263 0.313284
0.822670 0.638560 0.204420
0.889915 0.642750 0.181408
0.953994 0.647604 0.181270
1.039275 0.654130 0.197031
-0.436725 0.735207 -0.458937
-0.436693 0.735309 -0.459157
-0.429775 0.735327 -0.459698
-0.412242 0.734943 -0.460636
-0.375348 0.734328 -0.461769
-0.295674 0.732662 -0.461256
0.156662 0.728884 -0.454185
0.388151 0.722875 -0.430770
0.525831 0.714516 -0.370379
0.630743 0.703431 0.150042
0.694577 0.697944 0.462846
0.741784 0.706081 0.495276
0.810458 0.714328 0.402404
0.887046 0.718194 0.292834
0.956089 0.721476 0.237979
1.041140 0.726902 0.247245
-0.478076 0.812924 -0.502529
-0.478025 0.812988 -0.502785
-0.470878 0.812902 -0.503217
-0.453517 0.812734 -0.504203
-0.418307 0.811938 -0.505260
-0.347781 0.810156 -0.504939
-0.158710 0.807070 -0.500154
0.350267 0.801894 -0.484196
0.505034 0.794719 -0.446267
0.621119 0.786171 -0.358318
0.712534 0.775172 0.287032
0.768910 0.771146 0.520419
0.812330 0.778793 0.557696
0.875390 0.787608 0.479508
0.949127 0.792188 0.377456
1.038738 0.796515 0.335913
-0.514660 0.886624 -0.540778
-0.514611 0.886690 -0.541095
-0.507242 0.886570 -0.541456
-0.489627 0.886131 -0.542263
-0.455398 0.885358 -0.543233
-0.390853 0.883793 -0.543180
-0.250327 0.880988 -0.539519
0.303150 0.876518 -0.527897
0.478752 0.870415 -0.501534
0.604803 0.862898 -0.448795
0.707354 0.853940 -0.315354
0.788348 0.843889 0.379775
0.839329 0.840935 0.576365
0.880750 0.848215 0.616870
0.939490 0.857251 0.550501
1.021000 0.865064 0.514110
-0.546796 0.956557 -0.573029
-0.546753 0.956596 -0.573426
-0.539256 0.956381 -0.573770
-0.521537 0.956027 -0.574559
-0.488041 0.955229 -0.575386
-0.427732 0.953740 -0.575420
-0.310173 0.951153 -0.572556
0.239280 0.947349 -0.563683
0.447707 0.942065 -0.544084
0.584036 0.935458 -0.506675
0.693535 0.928055 -0.437609
0.786943 0.918785 -0.218953
0.859529 0.909730 0.459762
0.907169 0.907565 0.634089
0.947259 0.914891 0.674131
1.010462 0.926183 0.672007
-0.636747 1.177034 -0.648638
-0.636934 1.177001 -0.649331
-0.629730 1.176796 -0.649970
-0.613218 1.176332 -0.650942
-0.583520 1.175670 -0.651620
-0.534527 1.174369 -0.651018
-0.454778 1.172392 -0.647302
-0.305756 1.169315 -0.637998
0.302788 1.165009 -0.619301
0.503980 1.159263 -0.585599
0.644447 1.151994 -0.526880
0.761506 1.143186 -0.417381
0.870723 1.129821 0.292775
0.965296 1.113904 0.622295
1.029476 1.105150 0.786568
1.086609 1.114520 0.803200
-0.184639 -0.628069 -0.140358
-0.180736 -0.627693 -0.136803
-0.138973 -0.626583 -0.126957
0.118966 -0.625634 -0.117826
0.139429 -0.618759 -0.205098
0.183443 -0.617661 -0.199847
0.254078 -0.616502 -0.194400
0.344700 -0.615388 -0.188735
0.442919 -0.614223 -0.182350
0.539144 -0.612812 -0.174598
0.627408 -0.611125 -0.164342
0.708615 -0.608927 -0.149890
0.783784 -0.606216 -0.128478
0.855025 -0.602808 -0.091402
0.923068 -0.598615 0.062891
1.011750 -0.591743 -0.013453
0.042353 0.038789 0.040794
0.044754 0.039092 0.041093
0.075842 0.043688 0.042905
0.117999 0.048169 0.044740
0.171532 0.051486 0.045599
0.238555 0.053942 0.044973
0.318842 0.054429 0.041222
0.406467 0.052680 0.031684
0.495967 0.048824 -0.018685
0.581546 0.044177 -0.040058
0.661078 0.040986 -0.051191
0.735873 0.042143 -0.058129
0.806468 0.049238 -0.061271
0.874371 0.061433 -0.059655
0.939934 0.076913 -0.049835
1.026405 0.101110 0.042996
0.049893 0.069388 0.033079
0.052249 0.069257 0.034146
0.080531 0.068569 0.048256
0.120783 0.070442 0.047419
0.173785 0.071720 0.047037
0.240655 0.072854 0.045540
0.320681 0.073152 0.041167
0.408011 0.072265 0.030793
0.497254 0.070372 -0.021691
0.582498 0.068457 -0.041663
0.661825 0.067835 -0.052731
0.736509 0.069613 -0.059873
0.806795 0.074776 -0.063397
0.874638 0.083556 -0.062639
0.940054 0.095712 -0.054863
1.026680 0.116936 0.033529
0.032889 0.107302 -0.046317
0.036133 0.107393 -0.046459
0.082730 0.105537 -0.024482
0.124932 0.105032 0.059167
0.176933 0.105340 0.050590
0.243324 0.106197 0.048356
0.322819 0.106943 0.044221
0.409791 0.107304 0.035483
0.498655 0.107487 0.007697
0.583641 0.108107 -0.036496
0.662808 0.109806 -0.048315
0.737348 0.113186 -0.055212
0.807643 0.118655 -0.057950
0.875339 0.126650 -0.055342
0.940799 0.137253 -0.042603
1.027249 0.155382 0.052225
-0.063512 0.154746 -0.085670
-0.062438 0.154980 -0.085988
0.051885 0.154868 -0.086088
0.128973 0.150467 -0.024955
0.179908 0.150872 0.075786
0.247217 0.150542 0.052931
0.326362 0.151504 0.047822
0.412796 0.152654 0.040341
0.501102 0.154095 0.025317
0.585639 0.156164 -0.027709
0.664512 0.159293 -0.041402
0.738719 0.163845 -0.047940
0.808860 0.170091 -0.049145
0.876532 0.178397 -0.042415
0.941705 0.188864 0.018461
1.028118 0.205559 0.068095
-0.110713 0.214404 -0.127733
-0.110264 0.214698 -0.128033
-0.088210 0.215383 -0.129806
0.099556 0.213093 -0.124122
0.187371 0.206719 0.066175
0.249163 0.208770 0.098764
0.330927 0.208985 0.055532
0.416893 0.210569 0.046162
0.504607 0.212884 0.035420
0.588508 0.216004 0.015502
0.666725 0.220173 -0.027563
0.740726 0.225623 -0.033711
0.810531 0.232594 -0.029426
0.878101 0.241334 0.027070
0.943137 0.251451 0.053880
1.029321 0.266795 0.084698
-0.162406 0.288582 -0.177309
-0.162113 0.288794 -0.177544
-0.150054 0.289817 -0.179488
-0.094362 0.288653 -0.179000
0.159819 0.285235 -0.166709
0.260852 0.276510 0.129668
0.331034 0.281028 0.136236
0.421814 0.281953 0.063267
0.509059 0.284588 0.048034
0.592194 0.288174 0.037734
0.669922 0.292776 0.030765
0.743309 0.298548 0.031998
0.812886 0.305887 0.043180
0.880033 0.314271 0.058992
0.944764 0.323602 0.075993
1.030821 0.337589 0.102156
-0.218701 0.373866 -0.232865
-0.218507 0.374121 -0.233089
-0.210205 0.375075 -0.234855
-0.179362 0.374525 -0.235621
0.033440 0.372743 -0.233051
0.241011 0.367341 -0.207138
0.346190 0.357053 0.202215
0.418981 0.364140 0.191667
0.513841 0.366225 0.084170
0.596540 0.369840 0.064862
0.673737 0.374474 0.058419
0.746769 0.380228 0.061028
0.815728 0.386958 0.069589
0.882429 0.394476 0.081938
0.946835 0.402832 0.096856
1.032657 0.415064 0.121209
-0.277511 0.466176 -0.291853
-0.277359 0.466327 -0.292036
-0.270816 0.467273 -0.293680
-0.248168 0.466976 -0.294738
-0.186051 0.466038 -0.294915
0.182735 0.462634 -0.286221
0.337450 0.455188 -0.237147
0.437847 0.444831 0.275682
0.507117 0.453809 0.264838
0.600607 0.457367 0.124821
0.677724 0.461579 0.101001
0.750137 0.466515 0.094615
0.818852 0.472202 0.097818
0.885108 0.478673 0.107138
0.949190 0.485835 0.120228
1.034803 0.496193 0.143263
-0.335742 0.560587 -0.351011
-0.335609 0.560743 -0.351208
-0.329773 0.561475 -0.352646
-0.310581 0.561282 -0.353714
-0.264401 0.560649 -0.354719
-0.104641 0.558423 -0.351508
0.301863 0.553078 -0.330809
0.441051 0.543870 -0.239250
0.529862 0.534692 0.344774
0.590082 0.543998 0.349345
0.676466 0.549301 0.215817
0.753120 0.552691 0.148314
0.821633 0.557452 0.139475
0.887728 0.562700 0.141457
0.951707 0.568623 0.150244
1.037136 0.576870 0.170936
-0.389315 0.651379 -0.406195
-0.389208 0.651441 -0.406360
-0.383557 0.651923 -0.407703
-0.365624 0.651702 -0.408675
-0.325944 0.651072 -0.409853
-0.228360 0.649193 -0.408612
0.245569 0.644805 -0.397497
0.418401 0.637516 -0.358597
0.540841 0.626845 -0.182528
0.615580 0.619587 0.406441
0.668000 0.628308 0.427679
0.745221 0.635257 0.314903
0.823019 0.638365 0.210279
0.889980 0.642388 0.190641
0.954004 0.647087 0.191204
1.039386 0.653667 0.207489
-0.436754 0.735212 -0.455361
-0.436585 0.735246 -0.455513
-0.430875 0.735600 -0.456814
-0.413321 0.735306 -0.457733
-0.376707 0.734587 -0.458882
-0.297712 0.732840 -0.458471
0.151236 0.729257 -0.451595
0.386934 0.723094 -0.428228
0.525382 0.714924 -0.367635
0.630725 0.703674 0.156580
0.694943 0.698374 0.464657
0.742092 0.706303 0.496631
0.810887 0.714400 0.403853
0.887454 0.717939 0.296318
0.956137 0.721152 0.245900
1.041279 0.726497 0.256026
-0.478095 0.812909 -0.498422
-0.477929 0.812936 -0.498606
-0.472077 0.813193 -0.499996
-0.454502 0.812857 -0.500748
-0.419535 0.812082 -0.501870
-0.349855 0.810463 -0.501758
-0.164714 0.807290 -0.497047
0.348307 0.802132 -0.481238
0.504084 0.794996 -0.443321
0.620735 0.786444 -0.355088
0.712483 0.775461 0.289830
0.769161 0.771529 0.522527
0.812570 0.778961 0.559212
0.875740 0.787533 0.480852
0.949440 0.791878 0.380021
1.039128 0.796269 0.340714
-0.514675 0.886588 -0.535976
-0.514490 0.886628 -0.536145
-0.508513 0.886714 -0.537646
-0.490773 0.886313 -0.538333
-0.456842 0.885572 -0.539384
-0.392854 0.884001 -0.539394
-0.254224 0.881153 -0.535882
0.299861 0.876747 -0.524469
0.477402 0.870538 -0.497996
0.604007 0.863121 -0.445012
0.707027 0.854187 -0.310633
0.788270 0.844110 0.383034
0.839550 0.841192 0.578659
0.880953 0.848301 0.618537
0.939742 0.857080 0.551753
1.021509 0.864945 0.515819
-0.546789 0.956497 -0.567428
-0.546632 0.956521 -0.567632
-0.540610 0.956491 -0.569351
-0.522735 0.956038 -0.569860
-0.489490 0.955272 -0.570781
-0.429786 0.953919 -0.570969
-0.313626 0.951381 -0.568291
0.234279 0.947406 -0.559519
0.445652 0.942212 -0.540038
0.582803 0.935680 -0.502558
0.692736 0.928294 -0.433072
0.786530 0.919058 -0.210271
0.859524 0.909955 0.462666
0.907359 0.907825 0.636420
0.947366 0.914898 0.675823
1.010710 0.926223 0.673578
-0.636834 1.176984 -0.644067
-0.636941 1.176921 -0.644665
-0.631497 1.176778 -0.647368
-0.614765 1.176330 -0.648061
-0.585237 1.175640 -0.648857
-0.536586 1.174428 -0.648362
-0.457543 1.172431 -0.644813
-0.310541 1.169477 -0.635733
0.297650 1.165162 -0.617186
0.501891 1.159366 -0.583556
0.643141 1.152078 -0.524822
0.760539 1.143276 -0.415161
0.870061 1.129941 0.294609
0.965205 1.114044 0.623447
1.029514 1.105211 0.787702
1.086747 1.114570 0.804167
-0.180489 -0.627363 0.097930
-0.177207 -0.627155 0.101755
-0.135510 -0.626390 0.113000
0.123376 -0.625536 0.122212
0.139757 -0.618643 -0.152690
0.184011 -0.617520 -0.145175
0.254694 -0.616426 -0.136807
0.345257 -0.615318 -0.127504
0.443362 -0.614107 -0.116190
0.539538 -0.612721 -0.100687
0.627668 -0.611025 -0.075039
0.708807 -0.608828 0.045505
0.783730 -0.606128 0.097571
0.855188 -0.602687 0.086505
0.923145 -0.598484 0.074519
1.011831 -0.591587 0.058601
0.044833 0.040543 0.065678
0.046679 0.040278 0.066152
0.077404 0.043840 0.066235
0.119152 0.048577 0.067542
0.172039 0.051882 0.068690
0.238896 0.054307 0.069269
0.319067 0.054810 0.068532
0.406629 0.053133 0.066022
0.496177 0.049356 0.061664
0.581699 0.044838 0.056347
0.661164 0.041828 0.051519
0.735990 0.043085 0.049260
0.806469 0.050123 0.052212
0.874461 0.062172 0.061284
0.939992 0.077572 0.075467
1.026500 0.101617 0.099689
0.054648 0.068037 0.067994
0.055924 0.067920 0.068108
0.080361 0.067351 0.068875
0.122153 0.070076 0.069592
0.174465 0.071626 0.070011
0.241082 0.072925 0.070005
0.320874 0.073357 0.068846
0.408164 0.072591 0.065963
0.497335 0.070870 0.061338
0.582580 0.069145 0.055638
0.661885 0.068711 0.050299
0.736510 0.070703 0.047441
0.806931 0.075948 0.049845
0.874722 0.084822 0.058729
0.940140 0.096938 0.072744
1.026773 0.118037 0.097629
0.033800 0.107273 0.054995
0.036970 0.107461 0.054885
0.080199 0.106640 0.055590
0.124918 0.104128 0.074376
0.177108 0.105360 0.073486
0.244032 0.105809 0.072325
0.323894 0.105940 0.070259
0.410857 0.105703 0.066814
0.499594 0.105267 0.061642
0.584331 0.105229 0.055341
0.663225 0.106227 0.049179
0.737563 0.108864 0.045150
0.807804 0.113627 0.046424
0.875384 0.120929 0.054663
0.940674 0.130735 0.068323
1.027368 0.149245 0.094255
-0.064047 0.154753 -0.057268
-0.062631 0.154926 -0.057592
0.044404 0.155480 -0.062429
0.125629 0.152111 0.031478
0.182896 0.150862 0.083219
0.247766 0.150517 0.076971
0.327217 0.151230 0.074170
0.413696 0.151973 0.071082
0.501925 0.152994 0.066978
0.586217 0.154663 0.062463
0.664883 0.157353 0.058786
0.738978 0.161486 0.057698
0.808967 0.167261 0.060935
0.876592 0.175103 0.069475
0.941675 0.184922 0.082235
1.028261 0.201791 0.105942
-0.111031 0.214458 -0.112382
-0.110278 0.214608 -0.112569
-0.090693 0.215780 -0.115866
0.089356 0.215124 -0.115310
0.187268 0.208650 0.072871
0.252085 0.209579 0.104576
0.331786 0.209089 0.080824
0.417903 0.210309 0.076256
0.505441 0.212210 0.072774
0.589077 0.214922 0.069739
0.667158 0.218664 0.068096
0.740988 0.223766 0.069051
