luts/12.cube
LUT_3D_SIZE 6
0.010593 0.020314 0.026298
0.085039 0.018611 0.025518
0.298551 0.010188 0.021508
0.620466 -0.010862 0.019147
0.854460 -0.013544 0.015853
0.988067 -0.013746 0.012586
0.009518 0.139446 0.025508
0.084706 0.138973 0.025344
0.298560 0.204636 0.021096
0.620468 0.247228 0.018448
0.854461 0.239871 0.014587
0.988067 0.216148 0.010488
0.003667 0.403835 0.022118
0.132340 0.403864 0.020984
0.297627 0.402817 0.021000
0.620468 0.485919 0.018448
0.854461 0.472103 0.014587
0.988067 0.426883 0.010488
-0.007576 0.714330 0.019856
0.165138 0.714339 0.017886
0.377096 0.714339 0.017886
0.620018 0.713854 0.017916
0.854461 0.694003 0.014587
0.988067 0.627785 0.010488
-0.008606 0.923146 0.016782
0.159373 0.923148 0.013117
0.363477 0.923148 0.013117
0.597796 0.923148 0.013117
0.855415 0.923990 0.013126
0.988067 0.828781 0.010488
-0.007337 1.054052 0.012958
0.142035 1.054053 -0.009494
0.320437 1.054053 -0.016241
0.522396 1.054053 -0.020123
0.747064 1.054053 -0.019481
0.988380 1.054491 -0.017341
0.010002 -0.217113 0.172868
0.084077 -0.217102 0.174032
0.298496 -0.217193 0.251384
0.622467 -0.217249 0.301173
0.856621 -0.217306 0.292708
0.988262 -0.217337 0.265024
0.010174 0.139269 0.172239
0.083674 0.139489 0.174301
0.304217 0.110250 0.142323
0.622509 0.091526 0.123239
0.855140 0.068429 0.100515
0.988009 0.043791 0.079554
0.008375 0.403830 0.249017
0.060826 0.408626 0.142188
0.302231 0.408924 0.134742
0.622683 0.464539 0.124138
0.855218 0.442858 0.099536
0.988018 0.396612 0.073991
0.007090 0.714328 0.298388
0.047757 0.715522 0.126795
0.354332 0.715827 0.118803
0.621456 0.715620 0.118974
0.855217 0.684914 0.099279
0.988018 0.615254 0.073991
0.005154 0.923146 0.289972
0.026810 0.923484 0.105992
0.333048 0.923452 0.088650
0.586171 0.923452 0.088650
0.855319 0.924426 0.088696
0.988018 0.823940 0.072989
-0.000403 1.054052 0.262486
-0.013813 1.054313 0.087526
0.289746 1.054404 0.018305
0.507278 1.054404 -0.049291
0.740604 1.054404 -0.045415
0.988265 1.054861 -0.027063
0.006763 -0.217263 0.472373
0.133869 -0.217259 0.473211
0.300177 -0.217608 0.474586
0.623298 -0.217680 0.560301
0.856974 -0.217731 0.546216
0.988325 -0.217776 0.499285
0.008346 0.204770 0.471312
0.060198 0.109406 0.475980
0.301583 0.108289 0.475709
0.622450 0.098447 0.534418
0.855103 0.078718 0.512718
0.988001 0.057938 0.464728
0.008358 0.403295 0.470354
0.064254 0.407540 0.475241
0.232325 0.390496 0.483741
0.639883 0.336312 0.408034
0.862070 0.285236 0.355961
0.988734 0.243466 0.314601
0.007090 0.714328 0.555349
0.055217 0.715520 0.534052
0.194147 0.727178 0.381896
0.628209 0.729385 0.349346
0.862513 0.651930 0.349121
0.988806 0.567466 0.301437
0.005154 0.923146 0.541397
0.039581 0.923468 0.512702
0.155047 0.926617 0.339883
0.525940 0.927248 0.296700
0.853117 0.928480 0.296754
0.988795 0.807792 0.287647
-0.003871 1.054052 0.492612
-0.015468 1.054308 0.462455
0.120878 1.057658 0.307953
0.432638 1.058416 0.244193
0.710375 1.058416 0.245296
0.987003 1.058881 0.248834
-0.002920 -0.217372 0.772744
0.166938 -0.217309 0.772965
0.380203 -0.218028 0.773819
0.623876 -0.219370 0.773990
0.857405 -0.219467 0.755987
0.988366 -0.219528 0.694943
0.006963 0.247236 0.769861
0.044022 0.091471 0.770989
0.354262 0.093162 0.771020
0.620815 0.093224 0.770990
0.855103 0.078356 0.744280
0.988001 0.057699 0.680867
0.006963 0.485692 0.769861
0.054097 0.463979 0.770939
0.190027 0.305220 0.780235
0.622450 0.286607 0.781280
0.862000 0.272515 0.716620
0.988707 0.237186 0.641646
0.006983 0.713824 0.769806
0.054217 0.714916 0.770927
0.194715 0.723004 0.780574
0.575582 0.709654 0.780335
0.868664 0.681954 0.747948
0.989744 0.646962 0.717824
0.005154 0.923146 0.751927
0.039581 0.923468 0.743925
0.157213 0.926576 0.711549
0.497174 0.931114 0.709144
0.842037 0.931859 0.703456
0.989586 0.844282 0.720626
-0.004645 1.054053 0.687721
-0.024836 1.054308 0.676753
0.116418 1.057636 0.636952
0.462604 1.065869 0.681579
0.715833 1.066543 0.675769
0.984178 1.066794 0.677371
-0.005939 -0.217433 0.959214
0.161190 -0.217377 0.959236
0.366680 -0.218073 0.959569
0.600167 -0.219614 0.959078
0.856048 -0.219304 0.958362
0.988216 -0.218979 0.871020
0.004731 0.240012 0.956122
0.010034 0.067017 0.956335
0.333327 0.065070 0.956373
0.586027 0.065070 0.956373
0.854447 0.064863 0.957046
0.988001 0.057317 0.867324
0.004731 0.472069 0.956122
0.036395 0.443132 0.956326
0.144223 0.259266 0.958113
0.524753 0.231905 0.958325
0.847616 0.231582 0.958995
0.988693 0.226405 0.856216
0.004731 0.693888 0.956122
0.036395 0.684354 0.956326
0.149009 0.641810 0.958069
0.486281 0.623113 0.960889
0.828184 0.616794 0.961331
0.989620 0.621625 0.884120
0.004741 0.923627 0.956840
0.036454 0.923683 0.957020
0.149138 0.923251 0.958953
0.485544 0.919860 0.961582
0.834356 0.919456 0.959255
0.988917 0.916857 0.953564
-0.003949 1.054053 0.867968
-0.018865 1.054309 0.864034
0.120206 1.057636 0.852367
0.463063 1.065869 0.874930
0.818495 1.063369 0.945466
0.986663 1.058080 0.952077
-0.005571 -0.217411 1.075707
0.142816 -0.217403 1.075699
0.323174 -0.218099 1.075719
0.526399 -0.219623 1.075312
0.748692 -0.219197 1.074928
0.988583 -0.217733 1.075039
0.003839 0.216481 1.074108
-0.013418 0.062077 1.074582
0.291454 0.054002 1.074597
0.511171 0.054002 1.074597
0.744053 0.054002 1.074597
0.988584 0.054002 1.074597
0.003839 0.427227 1.074108
0.029684 0.398799 1.074562
0.129682 0.245573 1.080052
0.443848 0.211678 1.080744
0.716618 0.211678 1.080744
0.987497 0.211678 1.080744
0.003839 0.628170 1.074108
0.029684 0.616361 1.074562
0.132778 0.570712 1.079936
0.467895 0.607301 1.093440
0.720076 0.599504 1.094295
0.984676 0.599503 1.094295
0.003839 0.829369 1.074108
0.029684 0.824723 1.074562
0.132778 0.809160 1.079936
0.465726 0.826656 1.093386
0.819089 0.905930 1.089228
0.986020 0.911634 1.084222
0.003839 1.044648 1.074108
0.029684 1.044954 1.074562
0.132778 1.048259 1.079936
0.465726 1.056185 1.093386
0.818469 1.053237 1.089276
0.987749 1.045095 1.075801
