luts/12.cube
LUT_3D_SIZE 16
0.010593 0.020314 0.026298
0.018357 0.020210 0.026289
0.044438 0.019728 0.026123
0.085039 0.018611 0.025518
0.140434 0.016440 0.024135
0.211500 0.012937 0.022143
0.298551 0.010188 0.021508
0.401488 0.005707 0.020965
0.514303 -0.007817 0.020128
0.620466 -0.010862 0.019147
0.714401 -0.012446 0.018052
0.792672 -0.013270 0.016903
0.854460 -0.013544 0.015853
0.902715 -0.013523 0.014849
0.938443 -0.013342 0.014004
0.988067 -0.013746 0.012586
0.010523 0.034517 0.026275
0.018302 0.034431 0.026270
0.044431 0.041233 0.026110
0.085045 0.048073 0.025456
0.140439 0.054676 0.023953
0.211511 0.061177 0.021774
0.298560 0.067691 0.021084
0.401494 0.073841 0.020472
0.514306 0.078825 0.019551
0.620468 0.081353 0.018432
0.714403 0.081892 0.017152
0.792673 0.080848 0.015813
0.854461 0.078680 0.014556
0.902716 0.075888 0.013357
0.938444 0.072700 0.012282
0.988067 0.070637 0.010434
0.010220 0.078102 0.026105
0.022219 0.078092 0.026055
0.044268 0.077839 0.026070
0.085016 0.093790 0.025465
0.140442 0.108694 0.023959
0.211511 0.122933 0.021783
0.298560 0.136577 0.021096
0.401494 0.149339 0.020483
0.514306 0.159648 0.019563
0.620468 0.164973 0.018448
0.714403 0.166251 0.017172
0.792673 0.164280 0.015838
0.854461 0.160000 0.014587
0.902716 0.154449 0.013392
0.938444 0.148088 0.012324
0.988067 0.144056 0.010488
0.009518 0.139446 0.025508
0.026158 0.139461 0.025304
0.054471 0.139418 0.025314
0.084706 0.138973 0.025344
0.140393 0.162367 0.023965
0.211511 0.184135 0.021785
0.298560 0.204636 0.021096
0.401494 0.223774 0.020483
0.514306 0.239214 0.019563
0.620468 0.247228 0.018448
0.714403 0.249167 0.017172
0.792673 0.246251 0.015838
0.854461 0.239871 0.014587
0.902716 0.231605 0.013392
0.938444 0.222120 0.012324
0.988067 0.216148 0.010488
0.008119 0.215420 0.024173
0.029980 0.215433 0.023632
0.064205 0.215433 0.023647
0.101274 0.215336 0.023653
0.139912 0.214725 0.023703
0.211431 0.244662 0.021789
0.298560 0.272159 0.021097
0.401494 0.297550 0.020483
0.514306 0.318021 0.019563
0.620468 0.328607 0.018448
0.714403 0.331168 0.017172
0.792673 0.327339 0.015838
0.854461 0.318979 0.014587
0.902716 0.307998 0.013392
0.938444 0.295479 0.012324
0.988067 0.287527 0.010488
0.005867 0.304525 0.022490
0.033831 0.304527 0.021452
0.073714 0.304527 0.021473
0.117075 0.304527 0.021473
0.163185 0.304394 0.021486
0.210774 0.303634 0.021516
0.298429 0.338776 0.021089
0.401494 0.370233 0.020484
0.514306 0.395182 0.019563
0.620468 0.408128 0.018448
0.714403 0.411286 0.017172
0.792673 0.406590 0.015838
0.854461 0.396423 0.014587
0.902716 0.383004 0.013392
0.938444 0.367687 0.012324
0.988067 0.357984 0.010488
0.003667 0.403835 0.022118
0.037784 0.403865 0.020956
0.083037 0.403864 0.020984
0.132340 0.403864 0.020984
0.185118 0.403864 0.020984
0.240611 0.403748 0.020986
0.297627 0.402817 0.021000
0.401393 0.440986 0.020484
0.514306 0.470716 0.019566
0.620468 0.485919 0.018448
0.714403 0.489645 0.017172
0.792673 0.484141 0.015838
0.854461 0.472103 0.014587
0.902716 0.456358 0.013392
0.938444 0.438320 0.012324
0.988067 0.426883 0.010488
-0.004156 0.510518 0.021581
0.041543 0.510531 0.020239
0.091918 0.510530 0.020271
0.146887 0.510530 0.020271
0.205823 0.510530 0.020271
0.268214 0.510530 0.020271
0.333387 0.510353 0.020274
0.400501 0.509484 0.020293
0.514147 0.544663 0.019578
0.620468 0.562530 0.018450
0.714403 0.566808 0.017172
0.792673 0.560415 0.015838
0.854461 0.546574 0.014587
0.902716 0.528493 0.013392
0.938444 0.507756 0.012324
0.988067 0.494586 0.010488
-0.006360 0.618106 0.020815
0.044615 0.618111 0.019169
0.099207 0.618111 0.019208
0.158876 0.618111 0.019208
0.222905 0.618111 0.019208
0.290758 0.618111 0.019208
0.362101 0.618111 0.019208
0.436650 0.617951 0.019212
0.513482 0.617333 0.019235
0.620310 0.638345 0.018469
0.714403 0.643340 0.017176
0.792673 0.636138 0.015838
0.854461 0.620350 0.014587
0.902716 0.599816 0.013392
0.938444 0.576339 0.012324
0.988067 0.561446 0.010488
-0.007576 0.714330 0.019856
0.046175 0.714339 0.017838
0.103009 0.714339 0.017886
0.165138 0.714339 0.017886
0.231896 0.714339 0.017886
0.302586 0.714339 0.017886
0.377096 0.714339 0.017886
0.455189 0.714339 0.017886
0.536342 0.714178 0.017891
0.620018 0.713854 0.017916
0.714352 0.719818 0.017202
0.792673 0.711790 0.015844
0.854461 0.694003 0.014587
0.902716 0.670777 0.013392
0.938444 0.644452 0.012324
0.988067 0.627785 0.010488
-0.008238 0.797605 0.018825
0.046491 0.797608 0.016285
0.103913 0.797608 0.016346
0.166665 0.797608 0.016346
0.234084 0.797608 0.016346
0.305503 0.797608 0.016346
0.380766 0.797608 0.016346
0.459604 0.797608 0.016346
0.541836 0.797608 0.016346
0.626817 0.797575 0.016350
0.714340 0.797684 0.016373
0.792735 0.788396 0.015874
0.854461 0.768270 0.014593
0.902716 0.742179 0.013392
0.938444 0.712638 0.012324
0.988067 0.693974 0.010488
-0.008559 0.867307 0.017730
0.045818 0.867309 0.014677
0.102490 0.867309 0.014755
0.164363 0.867309 0.014755
0.230828 0.867309 0.014755
0.301223 0.867309 0.014755
0.375337 0.867309 0.014755
0.453023 0.867309 0.014755
0.533912 0.867309 0.014755
0.617722 0.867309 0.014755
0.704027 0.867370 0.014758
0.793216 0.867799 0.014775
0.854567 0.844461 0.014631
0.902716 0.814873 0.013401
0.938444 0.781629 0.012324
0.988067 0.760834 0.010488
-0.008606 0.923146 0.016782
0.044441 0.923148 0.013018
0.099435 0.923148 0.013117
0.159373 0.923148 0.013117
0.223714 0.923148 0.013117
0.291821 0.923148 0.013117
0.363477 0.923148 0.013117
0.438590 0.923148 0.013117
0.516800 0.923148 0.013117
0.597796 0.923148 0.013117
0.681208 0.923148 0.013117
0.767013 0.923312 0.013119
0.855415 0.923990 0.013126
0.902975 0.889727 0.013447
0.938444 0.852029 0.012335
0.988067 0.828781 0.010488
-0.008514 0.967727 0.015874
0.042698 0.967728 0.011348
0.095474 0.967728 0.011477
0.152909 0.967728 0.011477
0.214513 0.967728 0.011477
0.279700 0.967728 0.011477
0.348188 0.967728 0.011477
0.419914 0.967728 0.011477
0.494672 0.967728 0.011477
0.572083 0.967728 0.011477
0.651820 0.967728 0.011477
0.733696 0.967728 0.011477
0.817546 0.967970 0.011474
0.903989 0.968947 0.011468
0.938665 0.925536 0.012390
0.988067 0.899097 0.010503
-0.008363 1.000188 0.015087
0.040704 1.000188 0.009671
0.090985 1.000188 0.009837
0.145604 1.000188 0.009837
0.204110 1.000188 0.009837
0.265997 1.000188 0.009837
0.330946 1.000188 0.009837
0.398888 1.000188 0.009837
0.469730 1.000188 0.009837
0.543012 1.000188 0.009837
0.618657 1.000188 0.009837
0.696383 1.000188 0.009837
0.775614 1.000188 0.009837
0.856947 1.000412 0.009830
0.939677 1.001308 0.009823
0.988257 0.972010 0.010544
-0.007337 1.054052 0.012958
0.040189 1.054053 -0.001945
0.089023 1.054053 -0.006340
0.142035 1.054053 -0.009494
0.198619 1.054053 -0.012003
0.258213 1.054053 -0.014218
0.320437 1.054053 -0.016241
0.385206 1.054053 -0.018020
0.452508 1.054053 -0.019365
0.522396 1.054053 -0.020123
0.594826 1.054053 -0.020314
0.669910 1.054053 -0.020060
0.747064 1.054053 -0.019481
0.826228 1.054053 -0.018696
0.906455 1.054178 -0.017880
0.988380 1.054491 -0.017341
0.010072 -0.217056 0.045935
0.016066 -0.217056 0.045845
0.042142 -0.217063 0.054047
0.082965 -0.217072 0.062885
0.138771 -0.217128 0.071626
0.210445 -0.217164 0.080189
0.298225 -0.217169 0.088643
0.402079 -0.217187 0.096558
0.515617 -0.217213 0.102932
0.622392 -0.217225 0.106217
0.716649 -0.217254 0.106962
0.795007 -0.217283 0.105666
0.856566 -0.217282 0.102942
0.904215 -0.217303 0.099391
0.939176 -0.217305 0.095377
0.988256 -0.217329 0.092786
0.010581 0.034515 0.045369
0.018339 0.034505 0.045434
0.044498 0.034027 0.045072
0.085183 0.032133 0.043706
0.140652 0.028073 0.040805
0.211772 0.021389 0.036585
0.298710 0.015565 0.034741
0.401644 -0.006206 0.032950
0.514354 -0.017015 0.030612
0.620471 -0.021470 0.027999
0.714414 -0.023898 0.025311
0.792719 -0.025096 0.022739
0.854437 -0.025428 0.020499
0.902741 -0.025247 0.018595
0.938460 -0.024814 0.017104
0.988075 -0.025338 0.013410
0.010492 0.078095 0.053524
0.017943 0.078186 0.044967
0.044380 0.078050 0.045117
0.085172 0.090708 0.044177
0.140676 0.102954 0.041542
0.211777 0.114901 0.037724
0.298739 0.126831 0.036520
0.401625 0.138128 0.035463
0.514363 0.147280 0.033876
0.620477 0.151920 0.031935
0.714333 0.152893 0.029733
0.792723 0.150943 0.027446
0.854441 0.146909 0.025254
0.902744 0.141711 0.023176
0.938461 0.135802 0.021356
0.988075 0.132002 0.018145
0.010191 0.139444 0.062282
0.016608 0.139621 0.043596
0.052393 0.139639 0.043799
0.084883 0.139263 0.043858
0.140632 0.160641 0.041545
0.211777 0.180812 0.037743
0.298739 0.200116 0.036536
0.401624 0.218268 0.035483
0.514363 0.232975 0.033900
0.620477 0.240516 0.031963
0.714333 0.242247 0.029768
0.792723 0.239280 0.027489
0.854441 0.233030 0.025304
0.902744 0.224898 0.023238
0.938461 0.215632 0.021432
0.988075 0.209737 0.018240
0.009486 0.215413 0.070953
0.013676 0.215653 0.040793
0.060243 0.215702 0.040860
0.099952 0.215629 0.040898
0.140164 0.215056 0.040984
0.211691 0.243572 0.037688
0.298739 0.269970 0.036542
0.401624 0.294542 0.035481
0.514363 0.314381 0.033900
0.620477 0.324572 0.031963
0.714333 0.326949 0.029768
0.792723 0.323028 0.027489
0.854441 0.314636 0.025304
0.902744 0.303753 0.023238
0.938461 0.291315 0.021432
0.988075 0.283439 0.018240
0.008567 0.304519 0.079484
0.008380 0.304757 0.037180
0.068103 0.304830 0.037087
0.114526 0.304828 0.037124
0.162240 0.304716 0.037147
0.211026 0.303961 0.037202
0.298613 0.338025 0.036484
0.401624 0.368626 0.035484
0.514363 0.393077 0.033900
0.620477 0.405639 0.031963
0.714333 0.408523 0.029768
0.792723 0.403749 0.027489
0.854441 0.393491 0.025304
0.902744 0.380149 0.023238
0.938461 0.364869 0.021432
0.988075 0.355176 0.018240
0.008375 0.403830 0.087886
-0.005643 0.404060 0.035870
0.076170 0.404108 0.036252
0.128854 0.404107 0.036300
0.183270 0.404107 0.036300
0.239904 0.403931 0.036303
0.297794 0.403065 0.036327
0.401486 0.440383 0.035453
0.514363 0.469546 0.033894
0.620477 0.484387 0.031963
0.714333 0.487832 0.029768
0.792723 0.482210 0.027489
0.854441 0.470091 0.025304
0.902744 0.454304 0.023238
0.938461 0.436295 0.021432
0.988075 0.424828 0.018240
0.008084 0.510515 0.095735
-0.011061 0.510600 0.034178
0.083900 0.510645 0.035046
0.142597 0.510644 0.035102
0.203290 0.510644 0.035102
0.266768 0.510644 0.035102
0.332838 0.510471 0.035107
0.400631 0.509625 0.035139
0.514225 0.544274 0.033891
0.620477 0.561642 0.031957
0.714333 0.565604 0.029769
0.792723 0.559109 0.027489
0.854441 0.545170 0.025304
0.902744 0.527007 0.023238
0.938461 0.506244 0.021432
0.988075 0.493072 0.018240
0.007643 0.618104 0.102045
-0.014139 0.618173 0.031980
0.090229 0.618191 0.033216
0.153904 0.618191 0.033283
0.219772 0.618191 0.033283
0.288799 0.618191 0.033283
0.360928 0.618191 0.033283
0.436133 0.618056 0.033291
0.513572 0.617429 0.033331
0.620322 0.637996 0.031975
0.714333 0.642665 0.029771
0.792723 0.635251 0.027490
0.854441 0.619321 0.025304
0.902744 0.598752 0.023238
0.938461 0.575201 0.021432
0.988075 0.560315 0.018240
0.007090 0.714328 0.105294
-0.016020 0.714365 0.029558
0.093461 0.714343 0.030910
0.159773 0.714344 0.030992
0.228411 0.714344 0.030992
0.300282 0.714344 0.030992
0.375539 0.714344 0.030992
0.454238 0.714344 0.030992
0.535885 0.714187 0.031003
0.620006 0.713878 0.031044
0.714375 0.719529 0.029808
0.792723 0.711224 0.027491
0.854441 0.693388 0.025297
0.902744 0.670072 0.023238
0.938461 0.643616 0.021432
0.988075 0.626895 0.018240
0.006480 0.797604 0.106029
-0.017040 0.797643 0.027095
0.094131 0.797654 0.028254
0.161107 0.797654 0.028359
0.230377 0.797654 0.028359
0.302981 0.797654 0.028359
0.379001 0.797654 0.028359
0.458393 0.797654 0.028359
0.541048 0.797654 0.028359
0.626444 0.797622 0.028368
0.714394 0.797741 0.028407
0.792788 0.788213 0.027545
0.854441 0.767898 0.025292
0.902744 0.741626 0.023220
0.938461 0.712017 0.021432
0.988075 0.693359 0.018240
0.005799 0.867307 0.104746
-0.017432 0.867334 0.024817
0.092705 0.867342 0.025404
0.158743 0.867341 0.025541
0.227043 0.867341 0.025541
0.298529 0.867341 0.025541
0.373347 0.867341 0.025541
0.451583 0.867341 0.025541
0.532929 0.867341 0.025541
0.617128 0.867341 0.025541
0.703634 0.867404 0.025548
0.793236 0.867842 0.025574
0.854494 0.844231 0.025360
0.902744 0.814436 0.023237
0.938461 0.781151 0.021411
0.988075 0.760392 0.018241
0.005154 0.923146 0.102043
-0.017368 0.923163 0.022864
0.089848 0.923170 0.022504
0.153879 0.923169 0.022681
0.219962 0.923169 0.022681
0.289131 0.923169 0.022681
0.361439 0.923169 0.022681
0.437045 0.923169 0.022681
0.515707 0.923169 0.022681
0.597032 0.923169 0.022681
0.680724 0.923169 0.022681
0.766826 0.923233 0.022680
0.855418 0.924019 0.022690
0.903004 0.889539 0.023319
0.938461 0.851795 0.021432
0.988075 0.828470 0.018241
0.004475 0.967727 0.098538
-0.017029 0.967735 0.021279
0.086199 0.967737 0.019638
0.147565 0.967737 0.019862
0.210840 0.967737 0.019862
0.277011 0.967737 0.019862
0.346150 0.967737 0.019862
0.418353 0.967737 0.019862
0.493479 0.967737 0.019862
0.571158 0.967737 0.019862
0.651129 0.967737 0.019862
0.733380 0.967737 0.019862
0.817255 0.967981 0.019859
0.903978 0.968963 0.019845
0.938684 0.925370 0.021524
0.988075 0.898814 0.018242
0.003808 1.000188 0.094552
-0.016603 1.000188 0.020010
0.082084 1.000188 0.016814
0.140480 1.000188 0.017101
0.200569 1.000188 0.017101
0.263394 1.000188 0.017101
0.328921 1.000188 0.017101
0.397314 1.000188 0.017101
0.468474 1.000188 0.017101
0.542025 1.000188 0.017101
0.617847 1.000188 0.017101
0.695749 1.000188 0.017101
0.775300 1.000188 0.017101
0.856741 1.000412 0.017090
0.939653 1.001311 0.017075
0.988262 0.971945 0.018313
0.002627 1.054052 0.091676
-0.014792 1.054060 0.010798
0.080305 1.054063 -0.015305
0.136965 1.054063 -0.019513
0.195145 1.054063 -0.024320
0.255630 1.054063 -0.028590
0.318411 1.054063 -0.032456
0.383585 1.054063 -0.035843
0.451187 1.054063 -0.038417
0.521369 1.054063 -0.039877
0.594061 1.054063 -0.040271
0.669255 1.054063 -0.039822
0.746576 1.054063 -0.038762
0.825922 1.054063 -0.037311
0.906317 1.054189 -0.035807
0.988375 1.054502 -0.034821
0.010529 -0.217064 0.099406
0.021674 -0.217057 0.099790
0.042632 -0.217068 0.099659
0.083203 -0.217075 0.118588
0.138899 -0.217117 0.136771
0.210520 -0.217167 0.154290
0.298266 -0.217172 0.170947
0.402090 -0.217189 0.186433
0.515648 -0.217215 0.198860
0.622411 -0.217228 0.205277
0.716672 -0.217257 0.206847
0.794999 -0.217286 0.204510
0.856578 -0.217285 0.199368
0.904224 -0.217306 0.192670
0.939180 -0.217307 0.185043
0.988257 -0.217316 0.180174
0.010414 0.041557 0.099045
0.018050 0.034054 0.099180
0.044460 0.034122 0.098884
0.085156 0.033384 0.113987
0.140618 0.031406 0.129097
0.211739 0.028445 0.143983
0.298695 0.027625 0.158638
0.401611 0.026846 0.172396
0.514334 0.025636 0.183484
0.620459 0.024152 0.189163
0.714400 0.022475 0.190400
0.792712 0.020729 0.188082
0.854432 0.019074 0.183251
0.902738 0.017487 0.177022
0.938457 0.016172 0.169940
0.988069 0.013611 0.165384
0.010488 0.078053 0.098588
0.018157 0.078154 0.098872
0.044263 0.078089 0.099108
0.085899 0.076462 0.097333
0.142143 0.070599 0.091162
0.213575 0.061464 0.081980
0.300107 0.057361 0.078399
0.402620 0.053362 0.075189
0.515039 0.048072 0.070933
0.620980 0.042002 0.066109
0.714816 0.035451 0.061055
0.792931 0.028620 0.056157
0.854589 0.021691 0.051755
0.902875 0.013800 0.047940
0.938591 -0.008581 0.044795
0.988102 -0.022368 0.038569
0.010191 0.139444 0.117441
0.017641 0.139597 0.113950
0.042230 0.140588 0.096073
0.085591 0.140582 0.095647
0.142197 0.153606 0.091809
0.213682 0.165779 0.082746
0.300144 0.179050 0.079925
0.402656 0.192421 0.077582
0.515092 0.203283 0.074142
0.621044 0.208462 0.069925
0.714858 0.208923 0.065184
0.792954 0.205619 0.060258
0.854606 0.199672 0.055505
0.902888 0.192271 0.051016
0.938600 0.184002 0.047079
0.988104 0.178437 0.040219
0.009486 0.215413 0.135463
0.016403 0.215630 0.129060
0.037817 0.217325 0.089797
0.093954 0.217663 0.088350
0.141570 0.217243 0.088578
0.213629 0.239564 0.081995
0.300144 0.260765 0.079993
0.402654 0.281424 0.077632
0.515091 0.298354 0.074190
0.621043 0.306691 0.069982
0.714857 0.307943 0.065258
0.792953 0.303554 0.060347
0.854606 0.295145 0.055611
0.902888 0.284510 0.051149
0.938599 0.272576 0.047237
0.988103 0.264792 0.040422
0.008567 0.304519 0.152823
0.014769 0.304714 0.144005
0.031965 0.306530 0.082221
0.102462 0.306915 0.079692
0.158372 0.306824 0.079835
0.212659 0.306228 0.079933
0.300063 0.335290 0.079103
0.402656 0.362333 0.077650
0.515091 0.384097 0.074197
0.621043 0.394844 0.069983
0.714857 0.396691 0.065258
0.792953 0.391226 0.060347
0.854606 0.380787 0.055611
0.902888 0.367401 0.051149
0.938599 0.352348 0.047237
0.988103 0.342589 0.040422
0.008375 0.403830 0.169352
0.014475 0.404022 0.158710
0.029786 0.405102 0.080209
0.112387 0.405399 0.078526
0.175291 0.405389 0.078636
0.237057 0.405245 0.078641
0.298995 0.404502 0.078679
0.402545 0.438388 0.077030
0.515092 0.464867 0.074130
0.621043 0.477929 0.069989
0.714857 0.480224 0.065259
0.792953 0.473836 0.060347
0.854606 0.461353 0.055611
0.902888 0.445424 0.051149
0.938599 0.427453 0.047237
0.988103 0.415883 0.040422
0.008084 0.510515 0.184672
0.013964 0.510581 0.172474
0.026510 0.511334 0.077372
0.122258 0.511476 0.076219
0.192019 0.511471 0.076340
0.260697 0.511471 0.076340
0.330456 0.511334 0.076348
0.401427 0.510538 0.076413
0.514951 0.542644 0.073842
0.621044 0.558156 0.069867
0.714857 0.560834 0.065264
0.792953 0.553510 0.060349
0.854606 0.539031 0.055611
0.902888 0.520605 0.051149
0.938599 0.499734 0.047237
0.988103 0.486445 0.040422
0.007643 0.618104 0.197037
0.013190 0.618163 0.183571
0.021692 0.618623 0.073454
0.130337 0.618717 0.072403
0.205916 0.618715 0.072545
0.280193 0.618715 0.072545
0.356046 0.618715 0.072545
0.434112 0.618569 0.072561
0.514086 0.618006 0.072646
0.620932 0.636698 0.069763
0.714859 0.639927 0.065112
0.792953 0.631597 0.060330
0.854606 0.615136 0.055614
0.902888 0.594127 0.051150
0.938599 0.570401 0.047237
0.988103 0.555256 0.040422
0.007090 0.714328 0.203401
0.012237 0.714354 0.189229
0.015074 0.714562 0.068971
0.134126 0.714651 0.067494
0.212755 0.714650 0.067678
0.289970 0.714650 0.067678
0.368752 0.714650 0.067678
0.450216 0.714650 0.067678
0.534199 0.714506 0.067696
0.620419 0.714352 0.067789
0.714836 0.718577 0.065113
0.792955 0.709106 0.060187
0.854606 0.690470 0.055557
0.902888 0.666740 0.051149
0.938599 0.640053 0.047238
0.988103 0.623067 0.040422
0.006480 0.797604 0.204940
0.011139 0.797638 0.190473
-0.006696 0.797880 0.064307
0.134346 0.797843 0.061790
0.213753 0.797842 0.062020
0.291545 0.797842 0.062020
0.370979 0.797842 0.062020
0.453051 0.797842 0.062020
0.537785 0.797842 0.062020
0.624949 0.797841 0.062036
0.714680 0.797972 0.062121
0.793033 0.787442 0.060258
0.854607 0.766098 0.055444
0.902888 0.739418 0.051064
0.938599 0.709395 0.047242
0.988103 0.690493 0.040424
0.005799 0.867307 0.202608
0.009980 0.867331 0.188158
-0.014925 0.867452 0.059831
0.131711 0.867506 0.055644
0.210014 0.867506 0.055936
0.286610 0.867506 0.055936
0.364732 0.867506 0.055936
0.445397 0.867506 0.055936
0.528622 0.867506 0.055936
0.614386 0.867506 0.055936
0.702487 0.867534 0.055949
0.793348 0.867980 0.056006
0.854753 0.843581 0.055568
0.902889 0.813118 0.050967
0.938599 0.779365 0.047121
0.988103 0.758274 0.040388
0.005154 0.923146 0.197524
0.008831 0.923162 0.183352
-0.017864 0.923237 0.055898
0.127085 0.923163 0.049434
0.202976 0.923163 0.049805
0.277055 0.923163 0.049805
0.352499 0.923163 0.049805
0.430357 0.923163 0.049805
0.510756 0.923163 0.049805
0.593547 0.923163 0.049805
0.678512 0.923163 0.049805
0.765739 0.923233 0.049810
0.855409 0.924043 0.049834
0.903074 0.888996 0.051145
0.938601 0.850713 0.047065
0.988103 0.826944 0.040259
0.004475 0.967727 0.190888
0.007681 0.967734 0.177106
-0.019298 0.967775 0.052526
0.121425 0.967791 0.043200
0.194191 0.967791 0.043677
0.265054 0.967791 0.043677
0.337159 0.967791 0.043677
0.411461 0.967791 0.043677
0.488116 0.967791 0.043677
0.567182 0.967791 0.043677
0.648388 0.967791 0.043677
0.731540 0.967791 0.043677
0.816311 0.967947 0.043670
0.903971 0.969040 0.043642
0.938835 0.924853 0.047265
0.988105 0.897836 0.040228
0.003808 1.000188 0.183297
0.006532 1.000187 0.170016
-0.020026 1.000187 0.049802
0.115168 1.000186 0.037153
0.184381 1.000186 0.037769
0.251703 1.000186 0.037769
0.320006 1.000186 0.037769
0.390391 1.000186 0.037769
0.462998 1.000186 0.037769
0.537830 1.000186 0.037769
0.614649 1.000186 0.037769
0.693520 1.000186 0.037769
0.773717 1.000186 0.037769
0.855921 1.000413 0.037744
0.939589 1.001323 0.037714
0.988295 0.971507 0.040385
0.002024 1.054052 0.178560
-0.003692 1.054060 0.165109
-0.018703 1.054095 0.042632
0.112062 1.054111 0.007225
0.179108 1.054111 -0.020817
0.243978 1.054111 -0.031692
0.309454 1.054111 -0.039510
0.376475 1.054111 -0.045713
0.445570 1.054111 -0.050186
0.516884 1.054111 -0.052672
0.590492 1.054111 -0.053341
0.666687 1.054111 -0.052595
0.744698 1.054111 -0.050808
0.824705 1.054111 -0.048335
0.905800 1.054267 -0.045720
0.988328 1.054584 -0.043979
0.010002 -0.217113 0.172868
0.026813 -0.217100 0.173378
0.054659 -0.217098 0.174143
0.084077 -0.217102 0.174032
0.139447 -0.217128 0.201354
0.210850 -0.217172 0.227080
0.298496 -0.217193 0.251384
0.402242 -0.217210 0.273840
0.515749 -0.217220 0.291849
0.622467 -0.217249 0.301173
0.716685 -0.217278 0.303442
0.795055 -0.217283 0.300075
0.856621 -0.217306 0.292708
0.904254 -0.217313 0.283073
0.939197 -0.217328 0.272046
0.988262 -0.217337 0.265024
0.009990 0.048310 0.172913
0.016618 0.031973 0.173125
0.052640 0.032721 0.173134
0.085061 0.033153 0.172568
0.140619 0.031431 0.197514
0.211739 0.028450 0.221312
0.298695 0.027630 0.244095
0.401611 0.026849 0.265390
0.514334 0.025638 0.282474
0.620459 0.024154 0.291219
0.714400 0.022476 0.293236
0.792712 0.020730 0.289835
0.854432 0.019074 0.282644
0.902738 0.017488 0.273197
0.938457 0.016172 0.262476
0.988069 0.013611 0.255642
0.010146 0.094129 0.172912
0.017314 0.090977 0.173104
0.042085 0.075059 0.174327
0.085566 0.074761 0.174153
0.142052 0.071127 0.189491
0.213463 0.064364 0.204461
0.300014 0.062570 0.220529
0.402552 0.060849 0.236434
0.514968 0.058148 0.249327
0.620945 0.054813 0.255554
0.714776 0.051049 0.256245
0.792910 0.047149 0.252524
0.854573 0.043395 0.245664
0.902864 0.039857 0.237101
0.938585 0.036794 0.227500
0.988102 0.031291 0.221066
0.010174 0.139269 0.172239
0.017630 0.139473 0.172544
0.042448 0.140441 0.174056
0.083674 0.139489 0.174301
0.144792 0.133240 0.167298
0.218459 0.116907 0.149654
0.304217 0.110250 0.142323
0.405717 0.105308 0.137144
0.517288 0.098904 0.130633
0.622509 0.091526 0.123239
0.715863 0.083647 0.115378
0.793737 0.075770 0.107615
0.855140 0.068429 0.100515
0.903236 0.061733 0.094195
0.938770 0.055951 0.088928
0.988009 0.043791 0.079554
0.009487 0.215413 0.199417
0.016407 0.215631 0.197430
0.039213 0.217260 0.189043
0.072941 0.220776 0.159747
0.142996 0.221164 0.154151
0.218786 0.230079 0.149444
0.304532 0.239121 0.142125
0.405894 0.250596 0.137427
0.517437 0.260319 0.131321
0.622687 0.263941 0.124008
0.715966 0.262400 0.115867
0.793719 0.256735 0.107445
0.855218 0.248189 0.099358
0.903177 0.238121 0.091755
0.938810 0.227296 0.085129
0.988019 0.219309 0.073659
0.008567 0.304519 0.224918
0.014769 0.304714 0.221275
0.035118 0.306427 0.204208
0.061307 0.311403 0.143775
0.145954 0.312418 0.133427
0.216345 0.312103 0.133742
0.304431 0.330116 0.137852
0.405895 0.348974 0.137612
0.517431 0.364666 0.131431
0.622683 0.371391 0.124118
0.716036 0.370620 0.115999
0.793717 0.363773 0.107599
0.855218 0.352766 0.099536
0.903178 0.339336 0.091969
0.938810 0.324593 0.085383
0.988018 0.314532 0.073991
0.008375 0.403830 0.249017
0.014475 0.404022 0.244091
0.034561 0.405072 0.220621
0.060826 0.408626 0.142188
0.154788 0.409528 0.134543
0.230517 0.409464 0.134768
0.302231 0.408924 0.134742
0.405762 0.434979 0.133473
0.517437 0.455538 0.131367
0.622683 0.464539 0.124138
0.716036 0.464194 0.115996
0.793717 0.456195 0.107599
0.855218 0.442858 0.099536
0.903178 0.426596 0.091969
0.938810 0.408556 0.085383
0.988018 0.396612 0.073991
0.008084 0.510515 0.271271
0.013964 0.510581 0.265390
0.033384 0.511271 0.236601
