luts/2.cube
LUT_3D_SIZE 6
0.032475 0.032475 0.032475
0.071433 0.056398 0.057798
0.264751 0.093792 0.096266
0.548249 0.138291 0.141131
0.792402 0.186114 0.188371
0.941490 0.220529 0.222111
0.077114 0.077114 0.077114
0.070497 0.070497 0.070497
0.206909 0.179396 0.172194
0.510694 0.248107 0.210904
0.769778 0.282190 0.239298
0.928175 0.289357 0.254538
0.241983 0.241983 0.241983
0.247124 0.247124 0.247124
0.251236 0.251236 0.251236
0.423924 0.423924 0.423924
0.606634 0.511338 0.486044
0.830168 0.490462 0.426853
0.497201 0.497201 0.497201
0.501320 0.501320 0.501320
0.520178 0.520178 0.520179
0.538407 0.538407 0.538407
0.655474 0.655474 0.655474
0.678927 0.677292 0.676609
0.721162 0.721162 0.721162
0.724012 0.724012 0.724012
0.737500 0.737500 0.737500
0.763904 0.763904 0.763904
0.804855 0.804855 0.804855
0.798135 0.798135 0.798135
0.973608 0.973608 0.973608
0.975618 0.975618 0.975618
0.983981 0.983981 0.983981
0.997326 0.997326 0.997326
1.017829 1.017829 1.017829
1.063087 1.063087 1.063087
-0.557791 -0.557791 -0.557791
-0.557881 -0.557881 -0.557881
-0.115209 -0.629078 -0.184101
0.541663 -0.631446 0.162855
0.811301 -0.626142 0.200209
0.945161 -0.618941 0.197885
0.076249 0.076249 0.076249
0.082731 0.082731 0.082731
0.269069 0.078647 0.098800
0.550607 0.102970 0.125582
0.792574 0.162450 0.176928
0.941270 0.206891 0.216031
0.244172 0.244172 0.244172
0.241635 0.241635 0.241635
0.256439 0.256439 0.256439
0.412402 0.412402 0.412402
0.638550 0.482724 0.445809
0.854901 0.458863 0.393178
0.498910 0.498910 0.498910
0.496220 0.496220 0.496220
0.517717 0.517717 0.517717
0.540809 0.540809 0.540809
0.649585 0.649585 0.649585
0.678025 0.669630 0.666691
0.722346 0.722346 0.722346
0.720351 0.720351 0.720351
0.735134 0.735134 0.735134
0.762539 0.762539 0.762539
0.806077 0.806077 0.806077
0.794928 0.794928 0.794928
0.974241 0.974241 0.974241
0.973071 0.973071 0.973071
0.981828 0.981828 0.981828
0.995552 0.995552 0.995552
1.016530 1.016530 1.016530
1.063051 1.063051 1.063051
-0.553475 -0.553475 -0.553475
-0.550414 -0.550414 -0.550414
-0.544208 -0.544208 -0.544208
-0.487033 -0.487033 -0.487033
0.818341 -0.627183 0.439973
0.955261 -0.623732 0.412617
0.158373 0.158373 0.158373
0.101104 0.101104 0.101104
0.174003 0.174003 0.174003
0.448778 0.258870 0.343346
0.808831 0.157736 0.397346
0.960737 0.182167 0.376999
0.244217 0.244217 0.244217
0.247508 0.247508 0.247508
0.276266 0.276266 0.276266
0.557582 0.271985 0.284985
0.796918 0.294407 0.304882
0.943447 0.324438 0.331518
0.505538 0.505538 0.505538
0.504879 0.504879 0.504879
0.509704 0.509704 0.509704
0.551762 0.551762 0.551762
0.632953 0.632953 0.632953
0.736025 0.637386 0.611538
0.726932 0.726932 0.726932
0.726351 0.726351 0.726351
0.728387 0.728387 0.728387
0.760139 0.760139 0.760139
0.811095 0.811095 0.811095
0.789212 0.789212 0.789212
0.976610 0.976610 0.976610
0.975669 0.975669 0.975669
0.977591 0.977591 0.977591
0.992666 0.992666 0.992666
1.014894 1.014894 1.014894
1.064262 1.064262 1.064262
-0.535583 -0.535583 -0.535583
-0.529902 -0.529902 -0.529902
-0.508939 -0.508939 -0.508939
-0.475713 -0.475713 -0.475713
-0.341870 -0.341870 -0.341870
0.860978 -0.566276 0.530613
0.243822 0.243822 0.243822
0.180387 0.180387 0.180387
0.263251 0.263251 0.263251
0.337590 0.337590 0.337590
0.464678 0.464678 0.464678
0.961128 0.186298 0.563874
0.367409 0.367409 0.367409
0.354821 0.354821 0.354821
0.295805 0.295805 0.295805
0.391165 0.391165 0.391165
0.544155 0.480224 0.506672
0.962099 0.307483 0.537571
0.507444 0.507444 0.507444
0.509060 0.509060 0.509060
0.523363 0.523363 0.523363
0.572502 0.572502 0.572502
0.810819 0.584103 0.587942
0.954378 0.600590 0.602967
0.736310 0.736310 0.736310
0.735939 0.735939 0.735939
0.740038 0.740038 0.740038
0.769104 0.769104 0.769104
0.819938 0.819938 0.819938
0.808815 0.808815 0.808815
0.980359 0.980359 0.980359
0.979234 0.979234 0.979234
0.980461 0.980461 0.980461
1.004012 1.004012 1.004012
1.024006 1.024006 1.024006
1.069695 1.069695 1.069695
-0.505036 -0.505036 -0.505036
-0.497953 -0.497953 -0.497953
-0.470155 -0.470155 -0.470155
-0.420088 -0.420088 -0.420088
-0.309919 -0.309919 -0.309919
-0.068851 -0.068852 -0.068851
0.314041 0.314041 0.314041
0.264773 0.264773 0.264773
0.328922 0.328922 0.328922
0.401314 0.401314 0.401314
0.492246 0.492246 0.492246
0.555253 0.555253 0.555253
0.427064 0.427064 0.427064
0.411245 0.411245 0.411245
0.345623 0.345623 0.345623
0.433248 0.433248 0.433248
0.526006 0.526006 0.526006
0.581775 0.581775 0.581775
0.579994 0.579994 0.579994
0.573714 0.573714 0.573714
0.559045 0.559045 0.559045
0.600097 0.600097 0.600097
0.661185 0.661185 0.661185
0.769739 0.681390 0.716672
0.749927 0.749927 0.749927
0.750733 0.750733 0.750733
0.758483 0.758483 0.758483
0.786560 0.786560 0.786560
0.829298 0.829298 0.829298
0.971311 0.838953 0.839127
0.987427 0.987427 0.987427
0.986560 0.986560 0.986560
0.988154 0.988154 0.988154
1.009386 1.009386 1.009386
1.047993 1.047993 1.047993
1.077166 1.077166 1.077166
-0.482907 -0.482907 -0.482907
-0.476591 -0.476591 -0.476591
-0.452192 -0.452192 -0.452192
-0.409492 -0.409492 -0.409493
-0.326099 -0.326099 -0.326099
0.235962 0.235962 0.235962
0.351531 0.351531 0.351531
0.317652 0.317652 0.317652
0.362320 0.362320 0.362320
0.418616 0.418616 0.418616
0.491842 0.491842 0.491842
0.587128 0.587128 0.587128
0.440627 0.440627 0.440627
0.426543 0.426543 0.426543
0.389945 0.389945 0.389945
0.449242 0.449242 0.449242
0.520011 0.520011 0.520011
0.613332 0.613332 0.613332
0.571670 0.571670 0.571670
0.563925 0.563925 0.563925
0.549730 0.549730 0.549730
0.628142 0.628142 0.628142
0.659920 0.659920 0.659920
0.726935 0.726935 0.726935
0.720944 0.720944 0.720944
0.717743 0.717743 0.717743
0.714357 0.714357 0.714357
0.753260 0.753260 0.753260
0.849046 0.849046 0.849046
0.877908 0.877908 0.877908
0.899145 0.899145 0.899145
0.899592 0.899592 0.899592
0.904658 0.904658 0.904658
0.925590 0.925590 0.925590
0.957905 0.957905 0.957905
0.984549 0.984549 0.984549
