luts/2.cube
LUT_3D_SIZE 16
0.032475 0.032475 0.032475
0.033841 0.033841 0.033841
0.042894 0.042894 0.042894
0.071433 0.056398 0.057798
0.125070 0.068970 0.070793
0.190384 0.081436 0.083607
0.264751 0.093792 0.096266
0.347817 0.106580 0.109288
0.442181 0.120877 0.123735
0.548249 0.138291 0.141131
0.640924 0.155089 0.157822
0.722264 0.171226 0.173725
0.792402 0.186114 0.188371
0.851854 0.199378 0.201400
0.899008 0.210369 0.212159
0.941490 0.220529 0.222111
0.033185 0.033185 0.033185
0.028335 0.028335 0.028335
0.043390 0.043390 0.043390
0.072213 0.057520 0.058836
0.125007 0.070148 0.071452
0.190039 0.082851 0.084221
0.264531 0.095176 0.096689
0.347838 0.107733 0.109395
0.442199 0.122184 0.123828
0.548273 0.139926 0.141251
0.640941 0.156624 0.157930
0.722290 0.172578 0.173833
0.792419 0.187314 0.188470
0.851871 0.200440 0.201513
0.899024 0.211276 0.212236
0.941500 0.221048 0.222171
0.047377 0.047377 0.047377
0.046580 0.046580 0.046580
0.039274 0.039274 0.039274
0.071557 0.071557 0.071557
0.105362 0.096496 0.094292
0.172542 0.114328 0.105602
0.250467 0.129985 0.116723
0.336039 0.145368 0.128871
0.431913 0.162279 0.143259
0.539006 0.181731 0.160771
0.632887 0.197148 0.176157
0.715323 0.210442 0.190332
0.786325 0.222055 0.203327
0.846539 0.231849 0.214708
0.894436 0.239369 0.223870
0.937771 0.244641 0.231673
0.077114 0.077114 0.077114
0.077164 0.077164 0.077164
0.078219 0.078219 0.078219
0.070497 0.070497 0.070497
0.114983 0.114983 0.114983
0.149192 0.149192 0.149192
0.206909 0.179396 0.172194
0.296609 0.202731 0.183672
0.398537 0.224985 0.195856
0.510694 0.248107 0.210904
0.609327 0.263288 0.221733
0.695622 0.274232 0.231067
0.769778 0.282190 0.239298
0.832543 0.287676 0.246313
0.882433 0.290610 0.251600
0.928175 0.289357 0.254538
0.121360 0.121360 0.121360
0.121416 0.121416 0.121416
0.123474 0.123474 0.123474
0.126019 0.126019 0.126019
0.118745 0.118745 0.118745
0.171359 0.171359 0.171359
0.211334 0.211334 0.211334
0.253581 0.252103 0.251566
0.338440 0.289242 0.276100
0.453534 0.321792 0.292448
0.560519 0.340272 0.298098
0.655029 0.351003 0.300201
0.736059 0.356650 0.300902
0.804438 0.358495 0.300618
0.858932 0.356945 0.299179
0.909652 0.348807 0.293817
0.177079 0.177079 0.177079
0.177152 0.177152 0.177152
0.178950 0.178950 0.178950
0.182791 0.182791 0.182791
0.186697 0.186697 0.186697
0.179948 0.179948 0.179948
0.238527 0.238527 0.238527
0.284037 0.284037 0.284037
0.331945 0.331945 0.331945
0.395453 0.383911 0.380087
0.489981 0.414053 0.393834
0.589355 0.429787 0.393056
0.679151 0.436415 0.386841
0.756412 0.436622 0.378222
0.818677 0.431744 0.368148
0.878118 0.417455 0.351458
0.241983 0.241983 0.241983
0.242040 0.242040 0.242040
0.243659 0.243659 0.243659
0.247124 0.247124 0.247124
0.252629 0.252629 0.252629
0.257789 0.257789 0.257789
0.251236 0.251236 0.251236
0.315954 0.315954 0.315954
0.368960 0.368960 0.368960
0.423924 0.423924 0.423924
0.467149 0.467149 0.467149
0.524748 0.497391 0.488835
0.606634 0.511338 0.486044
0.688446 0.514093 0.473045
0.758937 0.508645 0.455438
0.830168 0.490462 0.426853
0.315642 0.315642 0.315642
0.315689 0.315689 0.315689
0.317157 0.317157 0.317157
0.320345 0.320345 0.320345
0.325400 0.325400 0.325400
0.332470 0.332470 0.332470
0.338795 0.338795 0.338795
0.331974 0.331974 0.331974
0.405445 0.405445 0.405445
0.466059 0.466059 0.466059
0.508723 0.508723 0.508723
0.542614 0.542614 0.542614
0.570803 0.568926 0.568228
0.623356 0.581267 0.568536
0.688446 0.580241 0.551514
0.766668 0.562489 0.515194
0.400407 0.400407 0.400407
0.400447 0.400447 0.400447
0.401808 0.401808 0.401808
0.404749 0.404749 0.404749
0.409510 0.409510 0.409510
0.416132 0.416132 0.416132
0.424687 0.424687 0.424687
0.432124 0.432124 0.432124
0.426018 0.426018 0.426018
0.507570 0.507570 0.507570
0.554156 0.554156 0.554156
0.586354 0.586354 0.586354
0.610703 0.610703 0.610703
0.628375 0.628375 0.628375
0.646547 0.637692 0.634596
0.701954 0.627197 0.605969
0.497201 0.497201 0.497201
0.497280 0.497280 0.497280
0.498548 0.498548 0.498548
0.501320 0.501320 0.501320
0.505746 0.505746 0.505746
0.511991 0.511991 0.511991
0.520178 0.520178 0.520179
0.530236 0.530236 0.530236
0.539011 0.539011 0.539011
0.538407 0.538407 0.538407
0.599403 0.599403 0.599403
0.633204 0.633204 0.633204
0.655474 0.655474 0.655474
0.670552 0.670552 0.670552
0.678581 0.678581 0.678581
0.678927 0.677292 0.676609
0.582489 0.582489 0.582489
0.582542 0.582542 0.582542
0.583674 0.583674 0.583674
0.586126 0.586126 0.586126
0.590117 0.590117 0.590117
0.595745 0.595745 0.595745
0.603086 0.603086 0.603086
0.612223 0.612223 0.612223
0.623125 0.623125 0.623125
0.633576 0.633576 0.633576
0.639299 0.639299 0.639299
0.680823 0.680823 0.680823
0.702825 0.702825 0.702825
0.715471 0.715471 0.715471
0.720642 0.720642 0.720642
0.715344 0.715344 0.715344
0.657039 0.657039 0.657039
0.657089 0.657089 0.657089
0.658066 0.658066 0.658066
0.660229 0.660229 0.660229
0.663825 0.663825 0.663825
0.668799 0.668799 0.668799
0.675405 0.675405 0.675405
0.683572 0.683572 0.683572
0.693413 0.693413 0.693413
0.704921 0.704921 0.704921
0.716732 0.716732 0.716732
0.728036 0.728036 0.728036
0.752110 0.752110 0.752110
0.762936 0.762936 0.762936
0.765367 0.765367 0.765367
0.755807 0.755807 0.755807
0.721162 0.721162 0.721162
0.721152 0.721152 0.721152
0.722047 0.722047 0.722047
0.724012 0.724012 0.724012
0.727088 0.727088 0.727088
0.731623 0.731623 0.731623
0.737500 0.737500 0.737500
0.744642 0.744642 0.744642
0.753576 0.753576 0.753576
0.763904 0.763904 0.763904
0.775677 0.775677 0.775677
0.788760 0.788760 0.788760
0.804855 0.804855 0.804855
0.812717 0.812717 0.812717
0.811885 0.811885 0.811885
0.798135 0.798135 0.798135
0.775370 0.775370 0.775370
0.775401 0.775401 0.775401
0.776111 0.776111 0.776111
0.777896 0.777896 0.777896
0.780591 0.780591 0.780591
0.784550 0.784550 0.784550
0.789712 0.789712 0.789712
0.796227 0.796227 0.796227
0.804148 0.804148 0.804148
0.813331 0.813331 0.813331
0.823877 0.823877 0.823877
0.835891 0.835891 0.835891
0.849832 0.849832 0.849832
0.870578 0.870578 0.870578
0.862224 0.862224 0.862224
0.842507 0.842507 0.842507
0.818385 0.818385 0.818385
0.818345 0.818345 0.818345
0.819018 0.819018 0.819018
0.820518 0.820518 0.820518
0.823000 0.823000 0.823000
0.826483 0.826483 0.826483
0.831026 0.831026 0.831026
0.836789 0.836789 0.836789
0.843723 0.843723 0.843723
0.851958 0.851958 0.851958
0.861389 0.861389 0.861389
0.872130 0.872130 0.872130
0.883975 0.883975 0.883975
0.898752 0.898752 0.898752
0.923762 0.923762 0.923762
0.891106 0.891106 0.891106
0.973608 0.973608 0.973608
0.973713 0.973713 0.973713
0.974338 0.974338 0.974338
0.975618 0.975618 0.975618
0.977702 0.977702 0.977702
0.980455 0.980455 0.980455
0.983981 0.983981 0.983981
0.987906 0.987906 0.987906
0.992449 0.992449 0.992449
0.997326 0.997326 0.997326
1.002975 1.002975 1.002975
1.009746 1.009746 1.009746
1.017829 1.017829 1.017829
1.027558 1.027558 1.027558
1.041245 1.041245 1.041245
1.063087 1.063087 1.063087
-0.558386 -0.558386 -0.558386
-0.558552 -0.558552 -0.558552
-0.558676 -0.558676 -0.558676
-0.558584 -0.558584 -0.558584
-0.557815 -0.557815 -0.557815
-0.555596 -0.555596 -0.555596
-0.132456 -0.629213 -0.224194
0.233809 -0.628178 -0.218623
0.378833 -0.626793 -0.210858
0.513962 -0.624661 -0.199333
0.623387 -0.622217 -0.185753
0.714582 -0.619568 -0.169955
0.789467 -0.616875 -0.152147
0.849112 -0.614350 -0.132846
0.891827 -0.612283 -0.114363
0.928895 -0.610300 -0.092331
0.033034 0.033034 0.033034
0.029807 0.029807 0.029807
0.036912 0.036912 0.036912
0.070143 0.049390 0.055040
0.125446 0.060090 0.067394
0.192123 0.070083 0.078837
0.266738 0.080709 0.090506
0.349658 0.092522 0.103030
0.443462 0.107002 0.117773
0.548839 0.125888 0.136190
0.640970 0.144457 0.154027
0.722158 0.161798 0.170482
0.792281 0.177654 0.185408
0.851737 0.191905 0.198759
0.898952 0.203762 0.209810
0.941383 0.214666 0.219995
0.047950 0.047950 0.047950
0.045680 0.045680 0.045680
0.041803 0.041803 0.041803
0.069964 0.069964 0.069964
0.110239 0.091917 0.088435
0.178044 0.107635 0.099409
0.254921 0.122172 0.110851
0.339695 0.136778 0.123258
0.434990 0.153053 0.137783
0.541658 0.172107 0.155444
0.635176 0.187651 0.171193
0.717222 0.201503 0.185936
0.788113 0.213679 0.199325
0.848031 0.224147 0.211114
0.895680 0.232481 0.220784
0.938828 0.238754 0.229148
0.077650 0.077650 0.077650
0.076183 0.076183 0.076183
0.077958 0.077958 0.077958
0.071809 0.071809 0.071809
0.114020 0.114020 0.114020
0.147653 0.147653 0.147653
0.210716 0.175865 0.167224
0.301176 0.197864 0.177900
0.402655 0.219226 0.189954
0.514264 0.241758 0.205159
0.612298 0.256755 0.216404
0.698183 0.267782 0.226270
0.771946 0.276005 0.235010
0.834385 0.281805 0.242517
0.883966 0.285216 0.248320
0.929389 0.284578 0.251870
0.121814 0.121814 0.121814
0.120604 0.120604 0.120604
0.123027 0.123027 0.123027
0.125849 0.125849 0.125849
0.119514 0.119514 0.119514
0.170689 0.170689 0.170689
0.210215 0.210215 0.210215
0.253488 0.250482 0.249434
0.341485 0.286341 0.271919
0.457246 0.317969 0.287592
0.563944 0.336000 0.293196
0.658009 0.346551 0.295587
0.738598 0.352171 0.296646
0.806589 0.354124 0.296795
0.860760 0.352831 0.295848
0.911102 0.344976 0.290984
0.177465 0.177465 0.177465
0.176440 0.176440 0.176440
0.178523 0.178523 0.178523
0.182453 0.182453 0.182453
0.186592 0.186592 0.186592
0.180445 0.180445 0.180445
0.238050 0.238050 0.238050
0.283201 0.283201 0.283201
0.330890 0.330890 0.330890
0.396252 0.382204 0.377689
0.492479 0.411587 0.390356
0.592187 0.426906 0.389259
0.681843 0.433287 0.383083
0.758759 0.433449 0.374723
0.820681 0.428621 0.364911
0.879801 0.414484 0.348749
0.242338 0.242338 0.242338
0.241411 0.241411 0.241411
0.243268 0.243268 0.243268
0.246789 0.246789 0.246789
0.252377 0.252377 0.252377
0.257698 0.257698 0.257698
0.251605 0.251605 0.251605
0.315593 0.315593 0.315593
0.368264 0.368264 0.368264
0.423043 0.423043 0.423043
0.466193 0.466193 0.466193
0.525796 0.495851 0.486580
0.608568 0.509433 0.483305
0.690623 0.511942 0.470154
0.761017 0.506386 0.452623
0.831877 0.488190 0.424296
0.315960 0.315960 0.315960
0.315132 0.315132 0.315132
0.316802 0.316802 0.316802
0.320005 0.320005 0.320005
0.325127 0.325127 0.325127
0.332269 0.332269 0.332269
0.338731 0.338731 0.338731
0.332263 0.332263 0.332263
0.405142 0.405142 0.405142
0.465490 0.465490 0.465490
0.508033 0.508033 0.508033
0.541834 0.541834 0.541834
0.570530 0.568018 0.567083
0.624363 0.580016 0.566656
0.689976 0.578765 0.549378
0.768255 0.560876 0.513050
0.400705 0.400705 0.400705
0.399906 0.399906 0.399906
0.401424 0.401424 0.401424
0.404415 0.404415 0.404415
0.409196 0.409196 0.409196
0.415882 0.415882 0.415882
0.424538 0.424538 0.424538
0.432063 0.432063 0.432063
0.426228 0.426228 0.426228
0.507292 0.507292 0.507292
0.553684 0.553684 0.553684
0.585793 0.585793 0.585793
0.610087 0.610087 0.610087
0.627759 0.627759 0.627759
0.646625 0.636869 0.633534
0.702954 0.626142 0.604348
0.497469 0.497469 0.497469
0.496780 0.496780 0.496780
0.498240 0.498240 0.498240
0.501006 0.501006 0.501006
0.505465 0.505465 0.505465
0.511762 0.511762 0.511762
0.519978 0.519978 0.519978
0.530155 0.530155 0.530155
0.538946 0.538946 0.538946
0.538544 0.538544 0.538544
0.599195 0.599195 0.599195
0.632845 0.632845 0.632845
0.655056 0.655056 0.655056
0.670076 0.670076 0.670076
0.678049 0.678049 0.678049
0.678614 0.676754 0.675976
0.582732 0.582732 0.582732
0.582099 0.582099 0.582099
0.583393 0.583393 0.583393
0.585848 0.585848 0.585848
0.589867 0.589867 0.589867
0.595528 0.595528 0.595528
0.602877 0.602877 0.602877
0.612079 0.612079 0.612079
0.623032 0.623032 0.623032
0.633535 0.633535 0.633535
0.639405 0.639405 0.639405
0.680691 0.680691 0.680691
0.702525 0.702525 0.702525
0.715079 0.715079 0.715079
0.720322 0.720322 0.720322
0.714994 0.714994 0.714994
0.657228 0.657228 0.657228
0.656672 0.656672 0.656672
0.657824 0.657824 0.657824
0.659968 0.659968 0.659968
0.663577 0.663577 0.663577
0.668571 0.668571 0.668571
0.675202 0.675202 0.675202
0.683401 0.683401 0.683401
0.693262 0.693262 0.693262
0.704766 0.704766 0.704766
0.716678 0.716678 0.716678
0.728130 0.728130 0.728130
0.751951 0.751951 0.751951
0.762655 0.762655 0.762655
0.765088 0.765088 0.765088
0.755489 0.755489 0.755489
0.721239 0.721239 0.721239
0.720814 0.720814 0.720814
0.721745 0.721745 0.721745
0.723720 0.723720 0.723720
0.726937 0.726937 0.726937
0.731369 0.731369 0.731369
0.737277 0.737277 0.737277
0.744576 0.744576 0.744576
0.753415 0.753415 0.753415
0.763775 0.763775 0.763775
0.775601 0.775601 0.775601
0.788727 0.788727 0.788727
0.804956 0.804956 0.804956
0.812619 0.812619 0.812619
0.811638 0.811638 0.811638
0.797854 0.797854 0.797854
0.775459 0.775459 0.775459
0.775054 0.775054 0.775054
0.775971 0.775971 0.775971
0.777661 0.777661 0.777661
0.780480 0.780480 0.780480
0.784413 0.784413 0.784413
0.789627 0.789627 0.789627
0.796130 0.796130 0.796130
0.803984 0.803984 0.803984
0.813221 0.813221 0.813221
0.823816 0.823816 0.823816
0.835810 0.835810 0.835810
0.849804 0.849804 0.849804
0.870664 0.870664 0.870664
0.862106 0.862106 0.862106
0.842327 0.842327 0.842327
0.818457 0.818457 0.818457
0.818128 0.818128 0.818128
0.818910 0.818910 0.818910
0.820414 0.820414 0.820414
0.822826 0.822826 0.822826
0.826319 0.826319 0.826319
0.830874 0.830874 0.830874
0.836669 0.836669 0.836669
0.843608 0.843608 0.843608
0.851867 0.851867 0.851867
0.861267 0.861267 0.861267
0.872033 0.872033 0.872033
0.883905 0.883905 0.883905
0.898727 0.898727 0.898727
0.923835 0.923835 0.923835
0.890981 0.890981 0.890981
0.973720 0.973720 0.973720
0.973454 0.973454 0.973454
0.974069 0.974069 0.974069
0.975404 0.975404 0.975404
0.977446 0.977446 0.977446
0.980285 0.980285 0.980285
0.983766 0.983766 0.983766
0.987737 0.987736 0.987737
0.992284 0.992284 0.992284
0.997163 0.997163 0.997163
1.002798 1.002798 1.002798
1.009586 1.009586 1.009586
1.017683 1.017683 1.017683
1.027445 1.027445 1.027445
1.041152 1.041152 1.041152
1.063068 1.063068 1.063068
-0.558191 -0.558191 -0.558191
-0.558200 -0.558200 -0.558200
-0.558479 -0.558479 -0.558479
-0.558357 -0.558357 -0.558357
-0.557584 -0.557584 -0.557584
-0.555228 -0.555228 -0.555228
-0.129196 -0.629166 -0.212038
0.235186 -0.628157 -0.201775
0.379489 -0.626740 -0.187795
0.514382 -0.624599 -0.167455
0.623720 -0.622166 -0.144483
0.715124 -0.619634 -0.116496
0.791688 -0.617740 -0.073634
0.852131 -0.615683 0.055320
0.894968 -0.613822 0.086643
0.931816 -0.611809 0.101682
0.047364 0.047364 0.047364
0.035304 0.035304 0.035304
0.040505 0.040505 0.040505
0.061144 0.061144 0.061144
0.122828 0.071501 0.091451
0.193307 0.080390 0.108562
0.269659 0.089977 0.123154
0.354730 0.098648 0.136548
0.450318 0.109110 0.150736
0.556398 0.124904 0.167740
0.648416 0.142282 0.183041
0.728743 0.160081 0.197319
0.797936 0.176900 0.210278
0.856338 0.192143 0.221673
0.902531 0.204904 0.230883
0.943891 0.217222 0.239147
0.046874 0.046874 0.046874
0.046413 0.046413 0.046413
0.046221 0.046221 0.046221
0.056586 0.056586 0.056586
0.125483 0.055839 0.068621
0.192667 0.060221 0.075860
0.267731 0.066596 0.084182
0.350648 0.075876 0.094451
0.444407 0.089301 0.107774
0.549707 0.108915 0.125827
0.641681 0.128944 0.144055
0.722339 0.148887 0.162058
0.792246 0.167177 0.178600
0.851650 0.182814 0.192744
0.898822 0.195960 0.204590
0.941286 0.207893 0.215436
0.078526 0.078526 0.078526
0.078052 0.078052 0.078052
0.076039 0.076039 0.076039
0.077342 0.077342 0.077342
0.110152 0.110152 0.110152
0.152028 0.138302 0.134634
0.231705 0.157121 0.143506
0.321245 0.173891 0.152948
0.419934 0.191829 0.165432
0.528955 0.211998 0.181452
0.624587 0.226575 0.194727
0.708392 0.238353 0.206901
0.780582 0.247968 0.217883
0.841594 0.255686 0.227601
0.890165 0.261055 0.235229
0.934379 0.263455 0.241225
0.122575 0.122575 0.122575
0.122369 0.122369 0.122369
0.120231 0.120231 0.120231
0.125332 0.125332 0.125332
0.122787 0.122787 0.122787
0.168058 0.168058 0.168058
0.205579 0.205579 0.205579
0.258332 0.242246 0.237396
0.356871 0.272592 0.252750
0.473829 0.300470 0.266167
0.578859 0.316626 0.272205
0.670658 0.326543 0.276070
0.749302 0.332334 0.279013
0.815549 0.334964 0.281163
0.868269 0.334636 0.282099
0.917055 0.328552 0.279698
0.178166 0.178166 0.178166
0.178045 0.178045 0.178045
0.175901 0.175901 0.175901
0.181176 0.181176 0.181176
0.186182 0.186182 0.186182
0.182627 0.182627 0.182627
0.236100 0.236100 0.236100
0.279666 0.279666 0.279666
0.326465 0.326465 0.326465
0.401899 0.374433 0.366137
0.504379 0.400660 0.374761
0.604879 0.414091 0.372790
0.693504 0.419614 0.367115
0.768955 0.419612 0.359855
0.829429 0.415055 0.351522
0.886699 0.401742 0.337364
0.242942 0.242942 0.242942
0.242853 0.242853 0.242853
0.240833 0.240833 0.240833
0.245446 0.245446 0.245446
0.251385 0.251385 0.251385
0.257399 0.257399 0.257399
0.253192 0.253192 0.253192
0.314060 0.314060 0.314060
0.365477 0.365477 0.365477
0.419436 0.419436 0.419436
0.462564 0.462059 0.461872
0.531272 0.489112 0.476607
0.617611 0.500997 0.471264
0.700168 0.502551 0.457767
0.769901 0.496612 0.440694
0.839357 0.478534 0.413628
0.316516 0.316516 0.316516
0.316456 0.316456 0.316456
0.314523 0.314523 0.314523
0.318676 0.318676 0.318676
0.324015 0.324015 0.324015
0.331462 0.331462 0.331462
0.338481 0.338481 0.338481
0.333477 0.333477 0.333477
0.403970 0.403970 0.403970
0.463157 0.463157 0.463157
0.505077 0.505077 0.505077
0.538594 0.538594 0.538594
0.569939 0.564079 0.561998
0.629126 0.574575 0.558555
0.696814 0.572366 0.540193
0.775359 0.553891 0.503887
0.401165 0.401165 0.401165
0.401136 0.401136 0.401136
0.399378 0.399378 0.399378
0.403123 0.403123 0.403123
0.408030 0.408030 0.408030
0.414937 0.414937 0.414937
0.423869 0.423869 0.423869
0.431872 0.431872 0.431872
0.427218 0.427218 0.427218
0.506260 0.506260 0.506260
0.551781 0.551781 0.551781
0.583439 0.583439 0.583439
0.607514 0.607514 0.607514
0.625076 0.625076 0.625076
0.647404 0.633457 0.628741
0.707561 0.621609 0.597699
0.497962 0.497962 0.497962
0.497901 0.497901 0.497901
0.496255 0.496255 0.496255
0.499745 0.499745 0.499745
0.504332 0.504332 0.504332
0.510782 0.510782 0.510782
0.519190 0.519190 0.519190
0.529537 0.529537 0.529537
0.538796 0.538796 0.538796
0.539290 0.539290 0.539290
0.598349 0.598349 0.598349
0.631293 0.631293 0.631293
0.653142 0.653142 0.653142
0.667982 0.667982 0.667982
0.675929 0.675929 0.675929
0.677882 0.674343 0.673000
0.583150 0.583150 0.583150
0.583110 0.583110 0.583110
0.581631 0.581631 0.581631
0.584739 0.584739 0.584739
0.588822 0.588822 0.588822
0.594549 0.594549 0.594549
0.602081 0.602081 0.602081
0.611427 0.611427 0.611427
0.622546 0.622546 0.622546
0.633377 0.633377 0.633377
0.639964 0.639964 0.639964
0.679968 0.679968 0.679968
0.701309 0.701309 0.701309
0.713592 0.713592 0.713592
0.718590 0.718590 0.718590
0.713215 0.713215 0.713215
0.657640 0.657640 0.657640
0.657566 0.657566 0.657566
0.656203 0.656203 0.656203
0.658984 0.658984 0.658984
0.662571 0.662571 0.662571
0.667707 0.667707 0.667707
0.674376 0.674376 0.674376
0.682730 0.682730 0.682730
0.692754 0.692754 0.692754
0.704424 0.704424 0.704424
0.716636 0.716636 0.716636
0.728674 0.728674 0.728674
0.751417 0.751417 0.751417
0.761668 0.761668 0.761668
0.763885 0.763885 0.763885
0.754117 0.754117 0.754117
0.721644 0.721644 0.721644
0.721671 0.721671 0.721671
0.720454 0.720454 0.720454
0.722882 0.722882 0.722882
0.726042 0.726042 0.726042
0.730491 0.730491 0.730491
0.736521 0.736521 0.736521
0.743939 0.743939 0.743939
0.752878 0.752878 0.752878
0.763334 0.763334 0.763334
0.775342 0.775342 0.775342
0.788607 0.788607 0.788607
0.805328 0.805328 0.805328
0.812172 0.812172 0.812172
0.810882 0.810882 0.810882
0.796863 0.796863 0.796863
0.775797 0.775797 0.775797
0.775763 0.775763 0.775763
0.774782 0.774782 0.774782
0.776849 0.776849 0.776849
0.779701 0.779701 0.779701
0.783683 0.783683 0.783683
0.788936 0.788936 0.788936
0.795514 0.795514 0.795514
0.803432 0.803432 0.803432
0.812765 0.812765 0.812765
0.823448 0.823448 0.823448
0.835603 0.835603 0.835603
0.849699 0.849699 0.849699
0.870917 0.870917 0.870917
0.861746 0.861746 0.861746
0.841617 0.841617 0.841617
0.818737 0.818737 0.818737
0.818705 0.818705 0.818705
0.817797 0.817797 0.817797
0.819729 0.819729 0.819729
0.822120 0.822120 0.822120
0.825648 0.825648 0.825648
0.830263 0.830263 0.830263
0.836103 0.836103 0.836103
0.843113 0.843113 0.843113
0.851403 0.851403 0.851403
0.860933 0.860933 0.860933
0.871710 0.871710 0.871710
0.883680 0.883680 0.883680
0.898723 0.898723 0.898723
0.924018 0.924018 0.924018
0.890610 0.890610 0.890610
0.973893 0.973893 0.973893
0.973812 0.973812 0.973812
0.973176 0.973176 0.973176
0.974756 0.974756 0.974756
0.976820 0.976820 0.976820
0.979532 0.979532 0.979532
0.983076 0.983076 0.983076
0.987083 0.987083 0.987083
0.991610 0.991610 0.991610
0.996593 0.996593 0.996593
1.002233 1.002233 1.002233
1.009075 1.009075 1.009075
1.017249 1.017249 1.017249
1.027088 1.027088 1.027088
1.040944 1.040944 1.040944
1.063032 1.063032 1.063032
-0.557791 -0.557791 -0.557791
-0.557682 -0.557682 -0.557682
-0.557433 -0.557433 -0.557433
-0.557881 -0.557881 -0.557881
-0.556864 -0.556864 -0.556864
-0.554437 -0.554437 -0.554437
-0.115209 -0.629078 -0.184101
0.278591 -0.632244 -0.051663
0.412620 -0.632447 0.126110
0.541663 -0.631446 0.162855
0.648768 -0.630169 0.182877
0.738106 -0.628370 0.193976
0.811301 -0.626142 0.200209
0.869212 -0.623743 0.203100
0.910282 -0.621553 0.202530
0.945161 -0.618941 0.197885
0.057856 0.057856 0.057856
0.044298 0.044298 0.044298
0.058336 0.058336 0.058336
0.062097 0.062097 0.062097
0.090382 0.090382 0.090382
0.148165 0.112625 0.127395
0.269770 0.090456 0.158167
0.354799 0.099032 0.176296
0.451126 0.107950 0.194334
0.559408 0.118565 0.212659
0.653956 0.129265 0.224813
0.736475 0.141504 0.233871
0.806353 0.156739 0.241907
0.864835 0.172270 0.248829
0.910763 0.186318 0.254177
0.951369 0.200846 0.257910
0.073792 0.073792 0.073792
0.071290 0.071290 0.071290
0.050205 0.050205 0.050205
0.062334 0.062334 0.062334
0.088471 0.088471 0.088471
0.186409 0.085689 0.128870
0.269695 0.088597 0.146740
0.354741 0.097448 0.162394
0.451093 0.106545 0.178160
0.559372 0.117323 0.194346
0.653172 0.130117 0.206447
0.734317 0.146219 0.217338
0.803521 0.163229 0.227376
0.861751 0.179281 0.236198
0.907599 0.193291 0.243323
0.948394 0.207051 0.249105
0.076249 0.076249 0.076249
0.076894 0.076894 0.076894
0.078036 0.078036 0.078036
0.082731 0.082731 0.082731
0.128355 0.082892 0.097690
0.193561 0.081517 0.097776
0.269069 0.078647 0.098800
0.351939 0.079772 0.102831
0.445520 0.086733 0.111014
0.550607 0.102970 0.125582
0.642425 0.122186 0.142176
0.723003 0.142751 0.159819
0.792574 0.162450 0.176928
0.851608 0.180053 0.192317
0.898794 0.194189 0.204714
0.941270 0.206891 0.216031
0.124115 0.124115 0.124115
0.123916 0.123916 0.123916
0.123292 0.123292 0.123292
0.123556 0.123556 0.123556
0.129439 0.129439 0.129439
0.163394 0.163394 0.163394
0.203972 0.194911 0.192141
0.291455 0.216743 0.200817
0.395374 0.236691 0.209568
0.508893 0.257744 0.222022
0.608453 0.271255 0.230995
0.695309 0.281000 0.239082
0.769790 0.288160 0.246493
0.832667 0.293056 0.252959
0.882679 0.295649 0.257898
0.928464 0.294113 0.260572
0.179523 0.179523 0.179523
0.179400 0.179400 0.179400
0.178821 0.178821 0.178821
0.177598 0.177598 0.177598
0.185849 0.185849 0.185849
0.187083 0.187083 0.187083
0.232645 0.232645 0.232645
0.272976 0.272976 0.272976
0.322162 0.316878 0.315061
0.423952 0.355169 0.337222
0.533184 0.375204 0.340563
0.632336 0.385526 0.338573
0.717688 0.389940 0.335075
0.789621 0.390031 0.330930
0.846849 0.386587 0.326040
0.900469 0.375624 0.316611
0.244172 0.244172 0.244172
0.244087 0.244087 0.244087
0.243552 0.243552 0.243552
0.241635 0.241635 0.241635
0.249747 0.249747 0.249747
0.257089 0.257089 0.257089
0.256439 0.256439 0.256439
0.311386 0.311386 0.311386
0.360085 0.360085 0.360085
0.412402 0.412402 0.412402
0.462724 0.452377 0.448903
0.547633 0.474076 0.454019
0.638550 0.482724 0.445809
0.720864 0.482695 0.432470
0.788668 0.476342 0.417005
0.854901 0.458863 0.393178
0.317624 0.317624 0.317624
0.317566 0.317566 0.317566
0.317078 0.317078 0.317078
0.314860 0.314860 0.314860
