luts/3.cube
LUT_3D_SIZE 6
-0.089660 -0.089660 0.021218
0.282068 -0.133473 -0.126239
0.544725 -0.158038 -0.151608
0.689719 -0.176044 -0.171578
0.887837 -0.218396 -0.215514
1.061106 -0.297787 -0.296534
-0.128639 0.145036 -0.125063
0.283699 0.195592 -0.233684
0.558463 0.198272 -0.209124
0.697948 0.168591 -0.207103
0.890426 -0.025851 -0.237675
1.063228 -0.257223 -0.309862
-0.180068 0.473214 -0.176093
0.233704 0.472980 -0.197733
0.498910 0.512113 -0.354743
0.687261 0.467299 -0.323842
0.895997 0.422105 -0.328199
1.071568 0.258584 -0.370522
-0.225691 0.746063 -0.222734
0.213903 0.746041 -0.233948
0.513964 0.746265 -0.282645
0.662358 0.766627 -0.381318
0.873168 0.687367 -0.419759
1.075494 0.520648 -0.476170
-0.276266 0.909362 -0.274534
-0.088333 0.909377 -0.281553
0.463359 0.909306 -0.307360
0.587803 0.909322 -0.334721
0.812166 0.914926 -0.485109
1.046746 0.754888 -0.563145
-0.382960 1.112480 -0.385941
-0.383983 1.112487 -0.384371
0.135149 1.112767 -0.400657
0.411029 1.113022 -0.419487
0.613311 1.114291 -0.468842
0.958318 1.122046 -0.741317
0.484904 -0.668213 0.642551
0.258553 -0.613386 0.140791
0.576336 -0.629717 0.335683
0.743397 -0.639789 0.422744
0.908166 -0.650585 0.419612
1.075698 -0.672518 0.137604
-0.028449 0.148572 0.151043
0.263857 0.141132 0.165647
0.541801 0.098035 0.145927
0.697924 0.077966 0.128921
0.894187 0.045529 0.108065
1.059330 -0.251493 -0.243156
-0.169658 0.467484 0.192047
0.176672 0.519167 0.059813
0.523819 0.549535 -0.272190
0.699496 0.489418 -0.156140
0.900670 0.429034 -0.219173
1.068043 0.257850 -0.322554
-0.222905 0.744107 0.149951
0.218338 0.769629 0.036959
0.519250 0.767011 -0.153263
0.675091 0.785640 -0.306147
0.881455 0.693394 -0.355379
1.073791 0.519046 -0.443169
-0.274581 0.908926 -0.169208
0.078287 0.915006 -0.185378
0.461155 0.914376 -0.232632
0.586028 0.914365 -0.267772
0.820113 0.919902 -0.448587
1.046528 0.753035 -0.542059
-0.383599 1.112487 -0.405155
-0.374875 1.112048 -0.405313
0.134309 1.112289 -0.398087
0.410551 1.112368 -0.406962
0.611884 1.113533 -0.453528
0.958212 1.121898 -0.731929
0.542598 -0.673463 0.886145
0.690191 -0.701237 0.921723
0.749737 -0.663038 0.790927
0.603987 -0.611498 0.471849
0.871457 -0.630081 0.557679
1.050958 -0.658378 0.409915
-0.181885 0.242364 0.584553
0.286973 0.052575 0.744680
0.590371 0.051998 0.614776
0.622068 0.085978 0.452667
0.870161 0.057068 0.452654
1.041978 -0.220865 0.339994
0.023713 0.482885 0.484056
0.117379 0.532672 0.533164
0.473806 0.474664 0.485472
0.664344 0.398488 0.408666
0.890175 0.278036 0.293029
1.053289 0.092987 0.128611
-0.184828 0.739266 0.479997
0.078486 0.763807 0.460969
0.368714 0.771023 0.220158
0.655588 0.784430 0.142283
0.887001 0.672027 0.140268
1.066552 0.517846 -0.202683
-0.255467 0.907632 0.414027
0.029045 0.913441 0.402649
0.326357 0.917723 0.127586
0.534692 0.917339 0.114022
0.825195 0.923295 -0.248287
1.047348 0.749554 -0.416923
-0.373868 1.111590 -0.236501
-0.347463 1.111229 -0.251733
-0.230496 1.111337 -0.349941
0.397773 1.111406 -0.342383
0.600595 1.112308 -0.377260
0.957994 1.121477 -0.692518
0.466175 -0.679305 0.968409
0.553591 -0.697179 0.983896
0.741573 -0.716401 0.983449
0.837435 -0.696586 0.951268
0.829806 -0.608417 0.724664
1.002500 -0.627765 0.611534
-0.221483 0.206146 0.880583
0.282497 0.041158 0.919342
0.623437 -0.195378 0.919366
0.765716 -0.175796 0.879897
0.833578 0.079721 0.681968
1.006563 -0.074861 0.580453
-0.123489 0.488104 0.747643
0.081730 0.474237 0.797176
0.429305 0.202662 0.904821
0.729315 0.179576 0.878105
0.847212 0.288696 0.662775
1.016757 0.128946 0.524856
0.035371 0.744622 0.746409
0.117662 0.768167 0.769746
0.378991 0.775434 0.776775
0.622971 0.739412 0.744581
0.871785 0.686807 0.691009
1.041239 0.476359 0.481928
-0.194632 0.904793 0.672437
0.062475 0.910605 0.666373
0.266084 0.914977 0.605070
0.460210 0.915870 0.538328
0.811967 0.920850 0.449576
1.046897 0.714002 0.244396
-0.337807 1.108510 0.478845
-0.299522 1.108123 0.472024
0.045427 1.108699 0.411029
0.310790 1.110088 0.080422
0.554114 1.110302 0.082255
0.958025 1.121059 -0.571004
0.368369 -0.687371 1.061169
0.457487 -0.698756 1.081944
0.677623 -0.730787 1.120212
0.772305 -0.738215 1.108889
0.891805 -0.706699 0.999387
0.992245 -0.600966 0.810291
-0.256249 -0.111466 0.989951
0.197757 -0.138262 0.998770
0.513811 -0.268120 1.019630
0.642423 -0.302791 1.005078
0.872664 -0.262341 0.967535
0.993693 0.068622 0.776652
-0.271362 0.426143 0.953734
-0.079311 0.415779 0.967550
0.362483 0.124523 0.998532
0.583559 0.089218 1.000170
0.867408 0.095650 0.967910
0.994471 0.182551 0.756808
0.048789 0.669899 0.897442
0.104841 0.658719 0.904619
0.286525 0.608970 0.924162
0.454372 0.532087 0.963022
0.850170 0.507758 0.964071
0.997639 0.517598 0.758565
0.045543 0.903581 0.905573
0.109007 0.909317 0.911401
0.346577 0.913489 0.915914
0.541727 0.915256 0.917229
0.844662 0.904095 0.906105
1.019424 0.865240 0.866671
-0.248893 1.103297 0.738983
-0.175958 1.102969 0.736834
0.116034 1.103159 0.700237
0.305807 1.104289 0.644485
0.629951 1.106189 0.693850
0.945735 1.118222 0.312501
0.331596 -0.699949 1.253600
0.417641 -0.708837 1.268879
0.642420 -0.741154 1.311646
0.753132 -0.756790 1.318343
0.913848 -0.765309 1.277140
1.052387 -0.670100 1.054219
-0.300019 -0.220222 1.174669
-0.208382 -0.253568 1.187562
0.466419 -0.334067 1.226098
0.614351 -0.374991 1.233544
0.818443 -0.415230 1.202165
1.036778 -0.253819 1.016530
-0.334104 0.343701 1.116560
-0.274606 0.329290 1.129710
0.321747 0.043465 1.190010
0.572248 -0.186414 1.218076
0.793215 -0.292675 1.200704
1.034444 0.062573 1.013395
-0.264558 0.577964 1.009192
-0.208155 0.575071 1.017986
0.106220 0.510574 1.066710
0.361056 0.345233 1.149296
0.682527 0.249826 1.186602
1.029185 0.361254 1.005409
0.064392 0.790704 0.989570
0.096117 0.784360 0.989665
0.279002 0.761633 0.989739
0.464234 0.748093 0.992600
0.707401 0.788936 1.019040
1.015137 0.838398 0.999882
0.055979 0.997951 0.977543
0.087262 0.997961 0.977197
0.270548 0.998130 0.975437
0.490042 0.998427 0.975539
0.761238 0.998662 0.981098
0.998290 0.998780 0.990018
