luts/3.cube
LUT_3D_SIZE 16
-0.089660 -0.089660 0.021218
0.023994 -0.090232 -0.056536
0.114031 -0.110856 -0.105760
0.282068 -0.133473 -0.126239
0.413875 -0.146189 -0.138082
0.492101 -0.153091 -0.145659
0.544725 -0.158038 -0.151608
0.589666 -0.162856 -0.157255
0.635981 -0.168542 -0.163594
0.689719 -0.176044 -0.171578
0.753536 -0.186429 -0.182421
0.823691 -0.200555 -0.197170
0.887837 -0.218396 -0.215514
0.940040 -0.239939 -0.237719
0.983102 -0.264651 -0.263005
1.061106 -0.297787 -0.296534
-0.090450 0.015507 -0.049634
0.021922 -0.022279 -0.039692
0.113724 -0.082056 -0.083084
0.281392 -0.120426 -0.118896
0.413420 -0.138273 -0.136114
0.491775 -0.147352 -0.145415
0.544527 -0.153520 -0.152016
0.589463 -0.159149 -0.157976
0.635856 -0.165447 -0.164502
0.689630 -0.173384 -0.172649
0.753424 -0.184147 -0.183569
0.823686 -0.198655 -0.198176
0.887867 -0.216749 -0.216365
0.939975 -0.238544 -0.238285
0.983154 -0.263443 -0.263260
1.061116 -0.296769 -0.296607
-0.107422 0.071582 -0.102072
-0.074670 0.071626 -0.076240
0.114321 -0.070087 -0.159763
0.293480 -0.063789 -0.166440
0.422608 0.016500 -0.166774
0.499141 -0.036146 -0.168970
0.550388 -0.067623 -0.170915
0.594196 -0.087578 -0.173619
0.639543 -0.103297 -0.177694
0.692647 -0.118358 -0.183891
0.755604 -0.135956 -0.193152
0.825113 -0.158380 -0.206287
0.888705 -0.185297 -0.223206
0.940513 -0.215610 -0.244055
0.983475 -0.247152 -0.268193
1.061826 -0.285091 -0.300836
-0.128639 0.145036 -0.125063
-0.114645 0.144981 -0.113905
0.005542 0.146506 -0.143827
0.283699 0.195592 -0.233684
0.428475 0.209273 -0.228563
0.506743 0.206066 -0.215601
0.558463 0.198272 -0.209124
0.601565 0.188196 -0.205534
0.646196 0.178478 -0.204785
0.697948 0.168591 -0.207103
0.759861 0.154686 -0.213046
0.828070 0.126283 -0.223260
0.890426 -0.025851 -0.237675
0.941496 -0.148113 -0.256346
0.984134 -0.205797 -0.278723
1.063228 -0.257223 -0.309862
-0.147744 0.249634 -0.143996
-0.139860 0.249572 -0.138860
-0.038572 0.249434 -0.150909
0.196647 0.255300 -0.227358
0.397696 0.333719 -0.285555
0.493434 0.318221 -0.272303
0.556066 0.306021 -0.259797
0.604219 0.297018 -0.250689
0.650707 0.288571 -0.244593
0.703042 0.281350 -0.242087
0.764390 0.272819 -0.243563
0.831359 0.257013 -0.249629
0.892797 0.226491 -0.260365
0.942984 0.169637 -0.275836
0.985034 -0.079363 -0.295578
1.065618 -0.199219 -0.324351
-0.164560 0.361751 -0.160604
-0.159355 0.361683 -0.158323
-0.041551 0.361613 -0.166664
0.215783 0.361703 -0.193571
0.323610 0.370609 -0.283236
0.453077 0.426557 -0.329255
0.522630 0.399062 -0.295244
0.588049 0.389892 -0.295390
0.644548 0.384349 -0.289880
0.702438 0.378690 -0.284822
0.766320 0.371359 -0.282641
0.834304 0.357087 -0.284518
0.895009 0.329691 -0.291023
0.944535 0.285554 -0.302583
0.986248 0.221269 -0.318846
1.068401 0.105467 -0.344535
-0.180068 0.473214 -0.176093
-0.176267 0.473123 -0.175319
-0.061495 0.473075 -0.181804
0.233704 0.472980 -0.197733
0.343045 0.473762 -0.236411
0.423083 0.483258 -0.308696
0.498910 0.512113 -0.354743
0.551060 0.471972 -0.326503
0.614935 0.466190 -0.317299
0.687261 0.467299 -0.323842
0.760597 0.463485 -0.324348
0.833572 0.450217 -0.324879
0.895997 0.422105 -0.328199
0.945867 0.378458 -0.335961
0.987359 0.322132 -0.348440
1.071568 0.258584 -0.370522
-0.195065 0.575534 -0.191344
-0.192191 0.575616 -0.191397
-0.092185 0.575630 -0.196570
0.238119 0.575525 -0.207890
0.358645 0.575556 -0.230769
0.440246 0.576632 -0.268988
0.497784 0.584544 -0.319285
0.561413 0.610993 -0.363174
0.583949 0.544290 -0.363691
0.656091 0.544281 -0.345519
0.740247 0.548332 -0.351628
0.825959 0.540006 -0.363518
0.894244 0.511486 -0.368298
0.946013 0.465262 -0.374056
0.988086 0.408679 -0.383361
1.074440 0.355344 -0.401881
-0.210173 0.666700 -0.206840
-0.207859 0.666678 -0.207233
-0.123879 0.666698 -0.211484
0.231119 0.666675 -0.220269
0.360960 0.666466 -0.235916
0.451814 0.666842 -0.260316
0.509481 0.667672 -0.288396
0.554384 0.673578 -0.323954
0.614050 0.694725 -0.369441
0.626432 0.619614 -0.396080
0.715042 0.626151 -0.382318
0.806655 0.625132 -0.382893
0.887408 0.600111 -0.403744
0.944127 0.551082 -0.413508
0.987896 0.491142 -0.422008
1.076108 0.440317 -0.437671
-0.225691 0.746063 -0.222734
-0.223812 0.746122 -0.223301
-0.154230 0.746075 -0.226787
0.213903 0.746041 -0.233948
0.352783 0.745971 -0.245855
0.450859 0.746057 -0.263219
0.513964 0.746265 -0.282645
0.557460 0.746575 -0.301916
0.598537 0.750817 -0.329694
0.662358 0.766627 -0.381318
0.695432 0.709595 -0.423461
0.788149 0.705872 -0.420368
0.873168 0.687367 -0.419759
0.938893 0.638155 -0.446744
0.986284 0.573641 -0.460721
1.075494 0.520648 -0.476170
-0.241716 0.812922 -0.239209
-0.240123 0.812878 -0.239770
-0.183293 0.812947 -0.242683
0.184406 0.812863 -0.248731
0.335321 0.812765 -0.258419
0.439140 0.812813 -0.271752
0.506888 0.812768 -0.286259
0.552414 0.812957 -0.300285
0.590279 0.813181 -0.315544
0.635394 0.815821 -0.341102
0.710072 0.826669 -0.403373
0.770447 0.789425 -0.457034
0.860477 0.770734 -0.458747
0.929521 0.726057 -0.461748
0.982271 0.658180 -0.493317
1.071477 0.599168 -0.514312
-0.258602 0.867039 -0.256502
-0.257246 0.867025 -0.256938
-0.211271 0.867051 -0.259457
0.133134 0.867043 -0.264636
0.308966 0.866992 -0.272855
0.417862 0.866992 -0.283706
0.489412 0.866970 -0.295134
0.536804 0.867117 -0.305780
0.574364 0.867106 -0.316774
0.614339 0.867226 -0.331626
0.670431 0.869019 -0.360921
0.760088 0.876021 -0.438265
0.843964 0.853182 -0.498442
0.921278 0.810613 -0.498069
0.975165 0.745297 -0.508198
1.062384 0.677537 -0.547133
-0.276266 0.909362 -0.274534
-0.275086 0.909351 -0.274836
-0.238229 0.909372 -0.277021
-0.088333 0.909377 -0.281553
0.272990 0.909350 -0.288732
0.388574 0.909242 -0.297934
0.463359 0.909306 -0.307360
0.512265 0.909313 -0.315863
0.549707 0.909237 -0.324176
0.587803 0.909322 -0.334721
0.637503 0.909474 -0.352535
0.710368 0.910823 -0.392628
0.812166 0.914926 -0.485109
0.911564 0.895768 -0.543815
0.968967 0.828755 -0.539239
1.046746 0.754888 -0.563145
-0.295119 0.943222 -0.293707
-0.294076 0.943210 -0.293880
-0.264524 0.943236 -0.295777
-0.173805 0.943250 -0.299840
0.224201 0.943182 -0.306145
0.352000 0.943200 -0.314202
0.430502 0.943203 -0.322313
0.480808 0.943199 -0.329322
0.518385 0.943200 -0.335866
0.555338 0.943184 -0.343773
0.602162 0.943179 -0.356362
0.668355 0.943463 -0.381093
0.755709 0.944428 -0.437857
0.868713 0.946505 -0.542735
0.962607 0.912652 -0.587450
1.032310 0.829893 -0.586537
-0.315042 0.972267 -0.313845
-0.314063 0.972256 -0.313940
-0.290225 0.972211 -0.315633
-0.224956 0.972231 -0.319253
0.150309 0.972259 -0.324992
0.308741 0.972186 -0.332171
0.392712 0.972159 -0.339212
0.444892 0.972165 -0.345228
0.483094 0.972226 -0.350650
0.519686 0.972214 -0.356918
0.564938 0.972181 -0.366432
0.628415 0.972278 -0.384523
0.711217 0.972477 -0.419750
0.809668 0.973459 -0.500329
0.931162 0.974075 -0.606136
1.020115 0.903073 -0.631987
-0.382960 1.112480 -0.385941
-0.387739 1.112503 -0.385820
-0.390201 1.112515 -0.385382
-0.383983 1.112487 -0.384371
-0.350151 1.112535 -0.386500
-0.268322 1.112631 -0.392500
0.135149 1.112767 -0.400657
0.296924 1.112868 -0.408140
0.363616 1.112888 -0.413881
0.411029 1.113022 -0.419487
0.461397 1.113207 -0.427108
0.528083 1.113474 -0.441217
0.613311 1.114291 -0.468842
0.709272 1.116263 -0.523644
0.807965 1.121720 -0.637252
0.958318 1.122046 -0.741317
0.333755 -0.665980 0.359984
0.281050 -0.658043 0.288297
0.216705 -0.631709 -0.213799
0.449499 -0.638330 0.141754
0.565642 -0.641095 0.275819
0.623773 -0.642708 0.319797
0.663586 -0.643752 0.344894
0.698386 -0.644785 0.363879
0.734256 -0.645779 0.380311
0.774704 -0.647129 0.394628
0.820826 -0.648999 0.403346
0.869737 -0.651450 0.398510
0.915268 -0.654817 0.370231
0.955768 -0.659467 0.306989
0.992395 -0.665648 0.170393
1.080668 -0.675180 -0.186745
-0.099821 -0.077952 0.043054
0.020259 0.006758 0.047927
0.122930 -0.106225 -0.090529
0.293082 -0.126132 -0.099108
0.418712 -0.130126 -0.097860
0.494409 -0.135640 -0.105455
0.546241 -0.140407 -0.114135
0.591173 -0.145853 -0.123144
0.637864 -0.152903 -0.133071
0.691902 -0.162272 -0.144911
0.755879 -0.174970 -0.159871
0.825680 -0.191633 -0.179024
0.889120 -0.211624 -0.201665
0.940619 -0.235242 -0.227647
0.983311 -0.261745 -0.256188
1.061007 -0.296721 -0.292546
-0.096678 0.070461 -0.077288
-0.128897 0.076568 -0.112236
0.127267 -0.028916 -0.144983
0.304552 0.067843 -0.132551
0.427056 0.068720 -0.137423
0.500926 0.050485 -0.143240
0.551393 -0.044439 -0.147702
0.594964 -0.074947 -0.152644
0.640634 -0.095006 -0.158943
0.693632 -0.113311 -0.167476
0.756871 -0.133354 -0.179187
0.826218 -0.157415 -0.194865
0.889372 -0.185037 -0.214152
0.940877 -0.215523 -0.237148
0.983563 -0.247296 -0.263107
1.061462 -0.285949 -0.297700
-0.122998 0.142530 -0.109937
-0.132223 0.154558 -0.120334
0.068930 0.154133 -0.113229
0.297177 0.212757 -0.225243
0.435584 0.218575 -0.211727
0.509935 0.211840 -0.198176
0.560190 0.203169 -0.192203
0.602870 0.192754 -0.189307
0.647384 0.182700 -0.189577
0.699386 0.172124 -0.193286
0.761167 0.157178 -0.200861
0.829236 0.127849 -0.212977
0.891173 -0.019895 -0.229328
0.941881 -0.148076 -0.249862
0.984215 -0.205926 -0.273869
1.062970 -0.258230 -0.306830
-0.146555 0.246687 -0.132447
-0.136899 0.261026 -0.123786
0.065153 0.258252 -0.127019
0.205858 0.264388 -0.211714
0.403820 0.343223 -0.278853
0.497652 0.323927 -0.261899
0.558677 0.310308 -0.248084
0.606068 0.300499 -0.238906
0.652352 0.291512 -0.232988
0.704763 0.283733 -0.231045
0.765891 0.274299 -0.233402
0.832670 0.257849 -0.240800
0.893475 0.226798 -0.252978
0.943457 0.169673 -0.269930
0.985186 -0.079961 -0.291023
1.065249 -0.200655 -0.321441
-0.165569 0.358519 -0.150277
-0.149172 0.373418 -0.136848
0.059123 0.370547 -0.147903
0.224976 0.370584 -0.178010
0.330827 0.379668 -0.272903
0.456146 0.433093 -0.323650
0.525237 0.403746 -0.286956
0.590259 0.393596 -0.286742
0.646536 0.387229 -0.281207
0.704178 0.380846 -0.276313
0.767990 0.372770 -0.274537
0.835526 0.357748 -0.277186
0.895848 0.329918 -0.284700
0.944990 0.285522 -0.297369
0.986370 0.221206 -0.314727
1.068117 0.101732 -0.341815
-0.182072 0.470477 -0.166340
-0.163453 0.483641 -0.153227
0.022772 0.481218 -0.166306
0.241173 0.480901 -0.184052
0.349732 0.481744 -0.225177
0.428689 0.491215 -0.299525
0.504299 0.520485 -0.348123
0.553241 0.476057 -0.320062
0.617019 0.469421 -0.310108
0.689530 0.469842 -0.317280
0.762719 0.465108 -0.317969
0.835094 0.450868 -0.318923
0.896825 0.422317 -0.322870
0.946357 0.378460 -0.331374
0.987483 0.321992 -0.344787
1.071286 0.257532 -0.368036
-0.197492 0.573458 -0.182411
-0.178953 0.583878 -0.171249
-0.077071 0.581918 -0.183506
0.244198 0.581746 -0.195919
0.363771 0.581814 -0.220269
0.444714 0.582865 -0.259369
0.501704 0.590741 -0.310574
0.565079 0.617096 -0.356200
0.586087 0.547854 -0.358624
0.658363 0.547099 -0.339663
0.742386 0.550368 -0.346494
0.827380 0.540988 -0.358714
0.895220 0.511723 -0.363925
0.946520 0.465211 -0.370239
0.988178 0.408505 -0.380140
1.074174 0.354601 -0.399692
-0.212621 0.665177 -0.198845
-0.195363 0.672903 -0.189798
-0.115585 0.671268 -0.200356
0.236237 0.671169 -0.209863
0.364804 0.670998 -0.226367
0.454609 0.671322 -0.251562
0.511916 0.672168 -0.279906
0.556719 0.678012 -0.315881
0.616755 0.699146 -0.363065
0.628742 0.622765 -0.391702
0.717488 0.628438 -0.377611
0.808414 0.626471 -0.378873
0.888490 0.600506 -0.400328
0.944722 0.551017 -0.410278
0.988081 0.491041 -0.419172
1.075936 0.439647 -0.435647
-0.227911 0.744963 -0.215862
-0.212550 0.750203 -0.208410
-0.148904 0.749304 -0.217333
0.218527 0.749300 -0.224975
0.355743 0.749337 -0.237477
0.452838 0.749306 -0.255360
0.515376 0.749472 -0.275083
0.558627 0.749852 -0.294628
0.600017 0.754058 -0.322606
0.664382 0.769711 -0.375784
0.698289 0.712658 -0.419857
0.790077 0.707606 -0.416676
0.874414 0.687938 -0.416605
0.939611 0.638029 -0.444202
0.986495 0.573494 -0.458414
1.075441 0.520209 -0.474390
-0.243655 0.812090 -0.233252
-0.230504 0.815519 -0.227194
-0.179630 0.814941 -0.234668
0.188796 0.814904 -0.241030
0.337620 0.814832 -0.251123
0.440341 0.814599 -0.264803
0.507583 0.814858 -0.279510
0.552657 0.814947 -0.293746
0.590707 0.815063 -0.309326
0.636345 0.817855 -0.335276
0.711815 0.828703 -0.399069
0.772202 0.791053 -0.453992
0.861905 0.771538 -0.455856
0.930102 0.726049 -0.459300
0.982522 0.658122 -0.491466
1.071357 0.598845 -0.512831
-0.260201 0.866599 -0.251453
-0.249360 0.868742 -0.246529
-0.209036 0.868372 -0.252801
0.138073 0.868368 -0.258199
0.310610 0.868259 -0.266669
0.418707 0.868215 -0.277764
0.489713 0.868211 -0.289343
0.536825 0.868272 -0.300167
0.574301 0.868396 -0.311266
0.614605 0.868511 -0.326448
0.671172 0.869986 -0.356179
0.761427 0.877128 -0.434939
0.845218 0.853968 -0.496038
0.921945 0.810872 -0.495911
0.975546 0.745240 -0.506467
1.062343 0.677229 -0.545876
-0.277522 0.909259 -0.270252
-0.269109 0.910234 -0.266288
-0.237051 0.910134 -0.271583
-0.082805 0.910142 -0.276260
0.274106 0.910061 -0.283613
0.389001 0.909955 -0.293005
0.463364 0.910018 -0.302583
0.512002 0.909930 -0.311142
0.549486 0.909940 -0.319549
0.587689 0.910074 -0.330229
0.637797 0.910148 -0.348364
0.710963 0.911442 -0.389018
0.813205 0.915622 -0.482718
0.912099 0.895890 -0.541957
0.969253 0.828520 -0.537486
1.046727 0.754590 -0.562052
-0.295903 0.943195 -0.289924
-0.289956 0.943636 -0.287086
-0.264390 0.943601 -0.291524
-0.173450 0.943622 -0.295617
0.224569 0.943598 -0.302099
0.352118 0.943512 -0.310269
0.430373 0.943475 -0.318441
0.480637 0.943449 -0.325503
0.518295 0.943447 -0.332174
0.555217 0.943479 -0.340154
0.602202 0.943583 -0.352939
0.668722 0.943654 -0.378010
0.756211 0.944782 -0.435314
0.869505 0.947062 -0.541084
0.962748 0.912798 -0.585917
1.032241 0.829528 -0.585373
-0.315337 0.972196 -0.310401
-0.311847 0.972423 -0.308827
-0.291024 0.972378 -0.312376
-0.225998 0.972403 -0.316039
0.148473 0.972399 -0.321883
0.308239 0.972383 -0.329181
0.392469 0.972292 -0.336292
0.444728 0.972234 -0.342378
0.482984 0.972374 -0.347839
0.519526 0.972363 -0.354153
0.564989 0.972213 -0.363796
0.628542 0.972372 -0.382032
0.711506 0.972637 -0.417371
0.809828 0.973685 -0.498518
0.931458 0.974241 -0.604804
1.020061 0.903058 -0.630919
-0.383738 1.112482 -0.400376
-0.388232 1.112469 -0.400343
-0.390683 1.112461 -0.399134
-0.384862 1.112429 -0.395706
-0.350987 1.112471 -0.394520
-0.269294 1.112527 -0.397938
0.133299 1.112697 -0.404311
0.296580 1.112794 -0.410556
0.363450 1.112878 -0.415690
0.410917 1.112994 -0.420669
0.461285 1.113098 -0.427926
0.528019 1.113365 -0.441762
0.613288 1.114212 -0.469223
0.709280 1.116257 -0.523860
0.807789 1.121721 -0.637204
0.958356 1.122066 -0.741331
0.396568 -0.666674 0.483907
0.496939 -0.677815 0.563301
0.102291 -0.613346 -0.161247
0.345120 -0.625660 -0.149712
0.504226 -0.632696 0.244449
0.584096 -0.636561 0.312265
0.636058 -0.639166 0.346350
0.678358 -0.641083 0.369725
0.719840 -0.642783 0.389327
0.764464 -0.644734 0.406016
0.814164 -0.646964 0.416837
0.865590 -0.649715 0.414398
0.912983 -0.653473 0.388668
0.954658 -0.658365 0.329840
0.991761 -0.664691 0.213552
1.079329 -0.674485 -0.137578
-0.104700 -0.099453 0.102471
-0.127795 -0.127795 0.120265
0.108007 -0.093056 0.079800
0.263138 -0.109095 0.118818
0.393868 -0.126057 0.139509
0.475959 -0.137161 0.136388
0.532389 -0.145398 0.123644
0.580100 -0.152643 0.107160
0.628678 -0.160209 0.086781
0.684448 -0.169224 0.052405
0.749855 -0.180927 -0.071128
0.821182 -0.196348 -0.116327
0.886883 -0.215267 -0.156533
0.939517 -0.237706 -0.195660
0.982825 -0.263294 -0.233167
1.060476 -0.298229 -0.276164
-0.055133 0.070155 0.076429
-0.075275 0.075610 0.083951
0.101759 0.069648 0.084298
0.305645 0.053381 0.120810
0.425932 0.047512 0.128662
0.499588 0.045492 0.119889
0.550241 0.043323 0.115202
0.595176 0.040177 0.110734
0.642758 0.035063 0.106993
0.697730 0.025085 0.103526
0.762210 -0.059245 0.087769
0.830642 -0.120114 -0.079698
0.892325 -0.162899 -0.142306
0.942156 -0.201732 -0.188916
0.983911 -0.239356 -0.230796
1.060438 -0.284311 -0.278338
-0.107392 0.140922 0.046365
-0.091091 0.150098 0.076414
-0.066373 0.169739 0.005009
0.323685 0.240025 -0.197843
0.443173 0.231719 0.040107
0.511361 0.223785 0.030270
0.560281 0.217717 0.023225
0.602883 0.210030 0.016245
0.648420 0.202781 -0.040125
0.701654 0.190263 -0.084950
0.764372 0.172679 -0.118041
0.831882 0.142032 -0.149742
0.892806 0.065895 -0.181463
0.942664 -0.139664 -0.214256
0.984362 -0.201699 -0.247940
1.061621 -0.259003 -0.290396
-0.138314 0.245044 -0.035929
-0.114761 0.253829 0.081349
0.032319 0.283674 0.067463
0.221640 0.282768 -0.112528
0.417174 0.361994 -0.252353
0.506732 0.339023 -0.179010
0.562810 0.324570 -0.163937
0.609044 0.313702 -0.160252
0.655418 0.303673 -0.158669
0.708184 0.294149 -0.162608
0.769752 0.282630 -0.173372
0.835721 0.263901 -0.190299
0.895238 0.231899 -0.212161
0.944188 0.176092 -0.238156
0.985371 -0.061660 -0.267124
1.063913 -0.201815 -0.305890
-0.160653 0.357469 -0.062387
-0.143753 0.365229 0.059352
0.064212 0.399736 0.033482
0.241942 0.392576 -0.070349
0.346897 0.401742 -0.224645
0.463277 0.447493 -0.300254
0.532545 0.415258 -0.240501
0.595551 0.405886 -0.231306
0.651410 0.397944 -0.230346
0.709102 0.389650 -0.228148
0.772879 0.379429 -0.229766
0.839008 0.362178 -0.237297
0.897853 0.333069 -0.250727
0.945873 0.288562 -0.269701
0.986616 0.224704 -0.293246
1.066974 0.097511 -0.327406
-0.178747 0.469458 -0.084974
-0.165671 0.476103 -0.048907
0.098038 0.508820 0.018274
0.255406 0.502177 -0.101888
0.365231 0.502788 -0.167807
0.442796 0.511885 -0.258925
0.517314 0.540736 -0.321159
0.559525 0.486335 -0.288151
0.622980 0.480686 -0.266598
0.695811 0.478971 -0.280330
0.768528 0.471765 -0.283797
0.839020 0.454828 -0.287420
0.899157 0.424677 -0.294970
0.947226 0.380280 -0.307761
0.987810 0.323795 -0.325766
1.070173 0.256230 -0.354927
-0.195043 0.572919 -0.111217
-0.184452 0.577626 -0.095516
0.097166 0.604581 -0.080672
0.256323 0.599209 -0.130534
0.375913 0.599196 -0.166777
0.455661 0.599954 -0.214529
0.511458 0.607418 -0.272563
0.575102 0.633355 -0.328131
0.592618 0.557661 -0.335495
0.664995 0.556678 -0.306483
0.749293 0.557784 -0.317952
0.832427 0.545053 -0.333411
0.897884 0.513502 -0.340996
0.947724 0.466380 -0.350192
0.988533 0.409643 -0.363663
1.073198 0.353536 -0.387731
-0.210728 0.664608 -0.138771
-0.202105 0.667960 -0.129970
0.057818 0.688845 -0.124499
0.247770 0.684667 -0.156299
0.374438 0.684484 -0.179299
0.462454 0.684725 -0.210076
0.518399 0.685206 -0.241720
0.562969 0.690820 -0.280765
0.624436 0.711595 -0.336281
0.636119 0.632030 -0.372938
0.724699 0.636210 -0.353137
0.813908 0.631288 -0.356238
0.891597 0.602277 -0.381312
0.946035 0.551750 -0.393492
0.988535 0.491658 -0.404912
1.075159 0.438752 -0.425115
-0.226393 0.744619 -0.165922
-0.219362 0.746838 -0.160335
-0.090529 0.761651 -0.157132
0.230266 0.758802 -0.180590
0.363514 0.758550 -0.196872
0.458026 0.758575 -0.218121
0.519016 0.758972 -0.240255
0.561753 0.759337 -0.261892
0.603876 0.763058 -0.291599
0.670431 0.778518 -0.352222
0.705790 0.720628 -0.403872
0.795971 0.712479 -0.398115
0.877802 0.690083 -0.399039
0.941154 0.638520 -0.430086
0.987043 0.573604 -0.446120
1.074819 0.519395 -0.465159
-0.242413 0.811765 -0.192263
-0.236719 0.813134 -0.188432
-0.140951 0.822950 -0.186051
0.201388 0.821227 -0.204163
0.344214 0.821104 -0.216640
0.443908 0.820998 -0.232422
0.509097 0.820990 -0.248671
0.553614 0.821246 -0.264157
0.591992 0.821414 -0.281222
0.638981 0.824158 -0.309144
0.716657 0.834598 -0.379742
0.778209 0.796232 -0.441050
0.865602 0.773714 -0.441678
0.931808 0.726569 -0.446399
0.983358 0.657826 -0.480908
1.070983 0.598095 -0.504716
-0.259124 0.866605 -0.218130
-0.254584 0.867212 -0.215434
-0.182209 0.873257 -0.213461
0.153485 0.872184 -0.227725
0.316201 0.872107 -0.237746
0.421132 0.871969 -0.250226
0.490119 0.871925 -0.262775
0.536463 0.871945 -0.274361
0.573973 0.872176 -0.286357
0.615014 0.872194 -0.302914
0.673296 0.873834 -0.335059
0.765442 0.880934 -0.419872
0.849375 0.856722 -0.485744
0.923733 0.811329 -0.484914
0.976216 0.745263 -0.497277
1.062104 0.676465 -0.538684
-0.276553 0.909165 -0.243317
-0.273084 0.909411 -0.241399
-0.219361 0.912766 -0.240149
-0.052062 0.912013 -0.251498
0.278456 0.912142 -0.259830
0.390659 0.912089 -0.270167
0.463274 0.912080 -0.280373
0.511261 0.912093 -0.289469
0.548632 0.912126 -0.298409
0.587390 0.912012 -0.309861
0.638402 0.912229 -0.329406
0.712869 0.913446 -0.372531
0.816556 0.917760 -0.471474
0.914316 0.896604 -0.533479
0.969908 0.828547 -0.529284
1.046630 0.753938 -0.556145
-0.295058 0.943036 -0.268163
-0.292578 0.943201 -0.266911
-0.254329 0.945106 -0.266979
-0.170748 0.944706 -0.275967
0.226493 0.944700 -0.283125
0.352667 0.944687 -0.291906
0.430013 0.944578 -0.300588
0.479858 0.944571 -0.307976
0.517530 0.944557 -0.315011
0.554696 0.944545 -0.323386
0.602240 0.944690 -0.336985
0.669618 0.944707 -0.363511
0.757965 0.945843 -0.423192
0.871981 0.948210 -0.532658
0.963545 0.912737 -0.579095
1.031992 0.829070 -0.579941
-0.314575 0.972203 -0.292650
-0.313060 0.972244 -0.292054
-0.287578 0.973054 -0.294017
-0.229105 0.972914 -0.301056
0.143021 0.972890 -0.307273
0.306672 0.972880 -0.315036
0.391483 0.972826 -0.322600
0.444046 0.972817 -0.328924
0.482456 0.972857 -0.334605
0.519157 0.972831 -0.341131
0.564841 0.972799 -0.351225
0.628755 0.972901 -0.370102
0.711901 0.973085 -0.406803
0.810955 0.974071 -0.489908
0.933009 0.974882 -0.598396
1.019837 0.902729 -0.626001
-0.384097 1.112496 -0.409540
-0.387742 1.112377 -0.410047
-0.387493 1.112310 -0.408458
-0.383707 1.112286 -0.406484
-0.350666 1.112315 -0.402243
-0.268407 1.112380 -0.400727
0.135584 1.112449 -0.403741
0.297190 1.112540 -0.407696
0.363674 1.112553 -0.411642
0.410943 1.112687 -0.416320
0.461222 1.112831 -0.423223
0.527698 1.113146 -0.436907
0.612763 1.113922 -0.464373
0.708913 1.115900 -0.519029
0.807508 1.121350 -0.633013
0.958104 1.122057 -0.738419
0.484904 -0.668213 0.642551
0.523004 -0.672935 0.668211
0.602765 -0.680353 0.671861
0.258553 -0.613386 0.140791
0.385188 -0.617527 0.170658
0.499033 -0.624608 0.279215
0.576336 -0.629717 0.335683
0.635891 -0.633656 0.371976
0.689447 -0.636855 0.399833
0.743397 -0.639789 0.422744
0.800020 -0.642732 0.438721
0.857027 -0.646341 0.440809
0.908166 -0.650585 0.419612
0.951799 -0.655970 0.367251
0.990171 -0.662573 0.272378
1.075698 -0.672518 0.137604
-0.119037 -0.111534 0.235012
-0.109463 -0.109463 0.258034
0.162745 -0.145157 0.255468
0.242911 0.023606 0.203892
0.354373 -0.052195 0.228420
0.442565 -0.100725 0.238794
0.506505 -0.121047 0.236447
0.559961 -0.134565 0.230205
0.612906 -0.146060 0.223623
0.672228 -0.157860 0.217083
0.740956 -0.171695 0.208225
0.815597 -0.188774 0.191234
0.883413 -0.209054 0.155868
0.937554 -0.232559 0.054420
0.981575 -0.258964 -0.158657
1.057914 -0.294476 -0.228709
-0.109869 -0.019046 0.156228
-0.084063 0.072974 0.166386
-0.049178 -0.071687 0.284453
0.269710 0.036530 0.225930
0.384583 0.048514 0.231739
0.465686 0.044823 0.238694
0.524551 0.040661 0.236060
0.574930 0.035438 0.231668
0.626421 0.027539 0.228308
0.684616 0.008547 0.226172
0.752265 -0.091260 0.214455
0.823671 -0.133396 0.193070
0.888183 -0.169812 0.153518
0.939961 -0.205209 0.019994
0.982664 -0.240557 -0.165175
1.058349 -0.284106 -0.236283
-0.028449 0.148572 0.151043
0.027067 0.158863 0.160748
0.048437 0.181488 0.183415
0.263857 0.141132 0.165647
0.407578 0.116975 0.178909
0.484910 0.104778 0.166661
0.541801 0.098035 0.145927
0.589734 0.091873 0.139829
0.640148 0.085271 0.134073
0.697924 0.077966 0.128921
0.764197 0.069565 0.123519
0.833299 0.059545 0.116906
0.894187 0.045529 0.108065
0.943212 -0.071277 0.073256
0.984259 -0.177379 -0.161593
1.059330 -0.251493 -0.243156
-0.113475 0.241909 0.166587
-0.080131 0.250667 0.179021
0.049804 0.280617 0.187510
0.104241 0.282865 0.062422
0.424359 0.364841 -0.158696
0.500500 0.293578 0.101894
0.554692 0.286753 0.082228
0.601974 0.280711 0.074010
0.650222 0.271821 0.069045
0.705381 0.264446 0.063733
0.769334 0.257861 0.056858
0.836098 0.249288 0.046796
0.895770 0.236808 0.022802
0.944341 0.191194 -0.137376
0.985033 0.074157 -0.202457
1.061351 -0.196836 -0.266283
-0.146507 0.354766 0.183527
