luts/4.cube
TITLE "Generated by Resolve"
LUT_3D_SIZE 5
0 0.134661 0
0.185946 0.118105 0
0.483986 0.0810407 0
0.771954 0.0552071 0
0.949584 0.0706493 0
0 0.312917 0
0.191989 0.317235 0
0.513726 0.302205 0
0.821256 0.296056 0
1 0.325292 0
0 0.581872 0
0.202289 0.598993 0
0.533013 0.592889 0
0.845487 0.591684 0
1 0.620661 0.000579843
0.00332647 0.871611 0.00283818
0.241108 0.886442 0.017792
0.565179 0.873533 0.00503548
0.867353 0.861662 0
1 0.87602 0.00750744
0.0957198 1 0.0954604
0.317281 1 0.0942245
0.618326 1 0.0590066
0.897047 1 0.0229648
1 1 0.0168917
0 0.12958 0.184939
0.181689 0.113939 0.168841
0.48188 0.0789197 0.13283
0.773053 0.05626 0.108904
0.952621 0.0736858 0.124544
0 0.314534 0.176455
0.195651 0.320867 0.182925
0.518746 0.307057 0.169024
0.827482 0.302281 0.164034
1 0.332265 0.193591
0 0.588464 0.17882
0.209247 0.605951 0.19646
0.5402 0.599847 0.190387
0.851957 0.598306 0.188815
1 0.626398 0.216831
0.00968948 0.877882 0.219043
0.246601 0.891539 0.233707
0.569635 0.877379 0.219974
0.869612 0.863798 0.20647
1 0.87538 0.217899
0.0975814 1 0.30631
0.315465 1 0.302403
0.614862 1 0.265476
0.892027 1 0.228717
1 1 0.222217
0 0.112322 0.55024
0.165408 0.0980087 0.535332
0.467948 0.0654307 0.500938
0.76228 0.0456092 0.478981
0.943893 0.0649424 0.495308
0 0.304555 0.549554
0.187091 0.312322 0.557961
0.511543 0.299886 0.545251
0.821469 0.296269 0.540887
1 0.326863 0.570108
0 0.582666 0.555596
0.20383 0.600534 0.574548
0.534829 0.594415 0.568689
0.845685 0.592111 0.566201
1 0.619196 0.592782
0.00332647 0.871504 0.594446
0.239002 0.883833 0.60911
0.560616 0.868116 0.594385
0.85864 0.852842 0.579355
1 0.860716 0.586938
0.0854047 1 0.674998
0.300298 1 0.669444
0.597925 1 0.631449
0.874052 1 0.594339
1 1 0.587808
0 0.0954452 0.919738
0.14934 0.0823835 0.906416
0.454139 0.0522927 0.875257
0.751675 0.0352636 0.856809
0.93492 0.0559701 0.875517
0 0.294697 0.92668
0.17882 0.304097 0.936431
0.504448 0.292973 0.925216
0.815351 0.29012 0.922026
1 0.321111 0.952209
0 0.576761 0.93724
0.198215 0.594919 0.95584
0.529076 0.588708 0.949752
0.838987 0.585382 0.946349
1 0.611276 0.972061
0 0.864256 0.975189
0.230518 0.875334 0.987945
0.550927 0.858366 0.971618
0.845945 0.840162 0.953597
1 0.845136 0.958404
0.0717479 1 1
0.283665 1 1
0.580163 1 1
0.855558 0.99025 0.962997
1 0.98349 0.956436
0 0.0813306 1
0.136843 0.070222 1
0.44445 0.0434577 1
0.74435 0.0283665 1
0.92929 0.0503395 1
0 0.288457 1
0.173587 0.298924 1
0.500542 0.289311 1
0.812055 0.2869 1
1 0.318059 1
0 0.573602 1
0.195117 0.591821 1
0.52546 0.585214 1
0.834531 0.58085 1
1 0.605402 1
0 0.859342 1
0.224186 0.869062 1
0.542885 0.850446 1
0.835111 0.829313 1
0.997467 0.831189 1
0.0592813 1 1
0.26923 1 1
0.564523 1 1
0.839506 0.974182 1
0.993484 0.967651 1
