luts/4.cube
TITLE "Generated by Resolve"
LUT_3D_SIZE 33
0 0.134661 0
0.00842298 0.131609 0
0.036759 0.128878 0
0.0610819 0.127016 0
0.0842603 0.125505 0
0.107591 0.124193 0
0.131426 0.122606 0
0.157183 0.120653 0
0.185946 0.118105 0
0.21828 0.114443 0
0.252689 0.110246 0
0.288823 0.105898 0
0.326116 0.101106 0
0.364614 0.0961624 0
0.404379 0.0912184 0
0.44416 0.0861219 0
0.483986 0.0810407 0
0.523751 0.0763256 0
0.562753 0.0717632 0
0.60119 0.0675822 0
0.638468 0.06421 0
0.674144 0.0610971 0
0.70837 0.0584115 0
0.741329 0.0565194 0
0.771954 0.0552071 0
0.799527 0.0550546 0
0.82446 0.0562142 0
0.846952 0.0578317 0
0.86807 0.0598459 0
0.888716 0.0623484 0
0.908751 0.0649729 0
0.928908 0.0676432 0
0.949584 0.0706493 0
0 0.152239 0
0.0087892 0.149264 0
0.0370794 0.146456 0
0.0616617 0.144884 0
0.0850538 0.143542 0
0.108568 0.142412 0
0.132647 0.14107 0
0.158526 0.139178 0
0.18735 0.136645 0
0.220096 0.133333 0
0.254856 0.129427 0
0.291279 0.125338 0
0.329 0.120912 0
0.367697 0.116152 0
0.407477 0.111238 0
0.447883 0.106645 0
0.488212 0.102037 0
0.528374 0.0977035 0
0.568002 0.0937819 0
0.606729 0.0899062 0
0.644038 0.0866255 0
0.680369 0.0842145 0
0.715114 0.0822309 0
0.748608 0.0807965 0
0.780041 0.080354 0
0.807874 0.0805676 0
0.832776 0.0816968 0
0.855833 0.0838483 0
0.877317 0.0862287 0
0.898161 0.0888685 0
0.918761 0.0920119 0
0.939086 0.0948806 0
0.959716 0.0977646 0
0 0.170611 0
0.00857557 0.167834 0
0.0370336 0.165209 0
0.0618296 0.163836 0
0.085359 0.162615 0
0.108888 0.161501 0
0.133379 0.160525 0
0.159594 0.158984 0
0.188754 0.156725 0
0.221851 0.153704 0
0.256825 0.149996 0
0.2934 0.146014 0
0.331655 0.142092 0
0.370916 0.13785 0
0.411139 0.133486 0
0.451926 0.129183 0
0.492653 0.124971 0
0.533089 0.120928 0
0.573251 0.11754 0
0.612665 0.114458 0
0.650767 0.111833 0
0.687358 0.109651 0
0.722698 0.108232 0
0.756436 0.107027 0
0.787854 0.106615 0
0.816297 0.107515 0
0.84152 0.10901 0
0.864515 0.111131 0
0.886473 0.11397 0
0.907485 0.116808 0
0.928038 0.119905 0
0.948943 0.12343 0
0.969955 0.126574 0
0 0.190127 0
0.00714122 0.187671 0
0.0357977 0.185214 0
0.0606851 0.183932 0
0.0847639 0.183261 0
0.108614 0.182452 0
0.13312 0.181506 0
0.159762 0.180362 0
0.189212 0.178393 0
0.222568 0.175601 0
0.25835 0.172641 0
0.29543 0.169146 0
0.333837 0.165331 0
0.373617 0.161593 0
0.414237 0.157641 0
0.455619 0.153765 0
0.497292 0.150423 0
0.538399 0.147005 0
0.57882 0.143801 0
0.618433 0.140993 0
0.657099 0.138796 0
0.694011 0.13695 0
0.729564 0.135744 0
0.763806 0.135042 0
0.795407 0.134859 0
0.823697 0.135637 0
0.849409 0.137652 0
0.872679 0.140063 0
0.894652 0.142916 0
0.916243 0.146319 0
0.936996 0.149584 0
0.957732 0.152941 0
0.979309 0.156603 0
0 0.211185 0
0.00485237 0.208896 0
0.0339818 0.206928 0
0.0590829 0.205844 0
0.0831617 0.205173 0
0.107576 0.204913 0
0.132586 0.204456 0
0.159579 0.203632 0
0.189731 0.202319 0
0.223407 0.199817 0
0.259281 0.196933 0
0.297124 0.194141 0
0.336217 0.190997 0
0.376532 0.187732 0
0.417914 0.184604 0
0.459739 0.181048 0
0.501381 0.177661 0
0.543084 0.174792 0
0.583871 0.171954 0
0.623743 0.169467 0
0.662745 0.167483 0
0.699977 0.165942 0
0.735592 0.164782 0
0.770092 0.164355 0
0.80209 0.164569 0
0.830655 0.165667 0
0.856275 0.16759 0
0.880018 0.170474 0
0.902159 0.17348 0
0.923644 0.176806 0
0.945052 0.180682 0
0.966079 0.184283 0
0.987533 0.187808 0
0 0.233845 0
0.00180056 0.2318 0
0.0313268 0.230198 0
0.0570077 0.229694 0
0.0816052 0.229541 0
0.106188 0.229465 0
0.131716 0.229526 0
0.15906 0.229038 0
0.189593 0.228092 0
0.224201 0.226505 0
0.260761 0.224292 0
0.298833 0.221714 0
0.338506 0.219135 0
0.379065 0.216083 0
0.420493 0.212985 0
0.463004 0.210101 0
0.505028 0.20705 0
0.546685 0.204135 0
0.587945 0.20174 0
0.627985 0.199466 0
0.667094 0.197574 0
0.704845 0.196536 0
0.740749 0.195682 0
0.775158 0.195224 0
0.807218 0.195499 0
0.836286 0.197101 0
0.862089 0.199298 0
0.885832 0.202152 0
0.908553 0.205737 0
0.930159 0.209232 0
0.9514 0.212894 0
0.972946 0.217014 0
0.994644 0.220768 0
0 0.258381 0
0 0.256825 0
0.0288701 0.25536 0
0.0549172 0.255192 0
0.0800641 0.255604 0
0.105241 0.256138 0
0.131426 0.256855 0
0.159503 0.257099 0
0.190372 0.256489 0
0.225025 0.254932 0
0.262135 0.253254 0
0.300557 0.251026 0
0.340352 0.248524 0
0.381537 0.246098 0
0.423194 0.243198 0
0.465568 0.240177 0
0.508125 0.237659 0
0.550088 0.235019 0
0.591394 0.23267 0
0.631998 0.230945 0
0.67126 0.229206 0
0.708843 0.228016 0
0.745266 0.22768 0
0.779919 0.227527 0
0.812284 0.228077 0
0.841245 0.229603 0
0.86743 0.232258 0
0.89134 0.235233 0
0.913909 0.238697 0
0.936065 0.242786 0
0.95758 0.246677 0
0.978958 0.250614 0
1 0.254826 0
0 0.284291 0
0 0.283482 0
0.0272526 0.282719 0
0.0539406 0.283146 0
0.0796979 0.284215 0
0.105226 0.285084 0
0.131472 0.285878 0
0.160006 0.28658 0
0.191241 0.286336 0
0.226276 0.285161 0
0.263416 0.283497 0
0.302281 0.281697 0
0.342275 0.279377 0
0.383459 0.276936 0
0.425696 0.274617 0
0.468376 0.271901 0
0.510872 0.269276 0
0.553323 0.267109 0
0.594781 0.264912 0
0.635309 0.263096 0
0.675212 0.261997 0
0.713069 0.261067 0
0.74934 0.260578 0
0.784161 0.2607 0
0.816953 0.261601 0
0.846067 0.263325 0
0.872221 0.266026 0
0.896666 0.269474 0
0.919371 0.273075 0
0.941253 0.276936 0
0.963226 0.281331 0
0.984741 0.285466 0
1 0.28954 0
0 0.312917 0
0 0.312322 0
0.0264897 0.312078 0
0.0534371 0.312734 0
0.0792248 0.313878 0
0.105409 0.315419 0
0.132006 0.316533 0
0.160449 0.317189 0
0.191989 0.317235 0
0.22739 0.316442 0
0.264775 0.315007 0
0.303853 0.313405 0
0.344305 0.311543 0
0.385626 0.309224 0
0.427756 0.306783 0
0.470939 0.304585 0
0.513726 0.302205 0
0.556161 0.300023 0
0.598199 0.29839 0
0.63888 0.296742 0
0.678584 0.29543 0
0.71696 0.295018 0
0.75346 0.294774 0
0.788388 0.295033 0
0.821256 0.296056 0
0.850645 0.298131 0
0.876783 0.300877 0
0.901152 0.304311 0
0.924254 0.308385 0
0.946303 0.312444 0
0.968078 0.316594 0
0.990097 0.321172 0
1 0.325292 0
0 0.342977 0
0 0.342748 0
0.0256352 0.342596 0
0.0532082 0.343847 0
0.0791791 0.34519 0
0.105226 0.346609 0
0.132326 0.348257 0
0.161089 0.349218 0
0.192798 0.349462 0
0.228489 0.348928 0
0.266133 0.347768 0
0.305226 0.346181 0
0.345922 0.344564 0
0.387671 0.342657 0
0.430076 0.34049 0
0.473121 0.33817 0
0.516426 0.336263 0
0.558999 0.334218 0
0.600916 0.332448 0
0.642191 0.331395 0
0.682124 0.330312 0
0.720317 0.329717 0
0.757137 0.329809 0
0.792279 0.330327 0
0.825223 0.331365 0
0.854765 0.333577 0
0.881254 0.336706 0
0.905638 0.340154 0
0.928557 0.344045 0
0.951034 0.348547 0
0.9729 0.352819 0
0.994644 0.357168 0
1 0.361776 0
0 0.374228 0
0 0.374487 0
0.0250095 0.374487 0
0.0525673 0.375677 0
0.0791485 0.377661 0
0.105486 0.37937 0
0.132479 0.380926 0
0.161685 0.38233 0
0.193561 0.382757 0
0.229267 0.382269 0
0.267414 0.381598 0
0.306813 0.380301 0
0.347463 0.378637 0
0.389227 0.376745 0
0.432151 0.375082 0
0.47541 0.372992 0
0.518639 0.370993 0
0.561776 0.369497 0
0.60383 0.367864 0
0.644862 0.366583 0
0.685252 0.365988 0
0.723598 0.365606 0
0.760372 0.365682 0
0.795727 0.366445 0
0.828855 0.367712 0
0.858274 0.369863 0
0.884794 0.373037 0
0.909514 0.376822 0
0.932586 0.380819 0
0.954833 0.385031 0
0.977157 0.389715 0
0.998962 0.394095 0
1 0.398367 0
0 0.406775 0
0 0.407095 0
0.0245212 0.40766 0
0.0523079 0.409018 0
0.0787366 0.410819 0
0.105623 0.413046 0
0.132906 0.414878 0
0.162066 0.416266 0
0.194507 0.417243 0
0.230365 0.416907 0
0.26833 0.416068 0
0.308217 0.415259 0
0.349126 0.41384 0
0.391135 0.412207 0
0.43389 0.410376 0
0.477607 0.408759 0
0.520943 0.406867 0
0.563867 0.405188 0
0.60647 0.40412 0
0.647669 0.403006 0
0.687846 0.402197 0
0.726558 0.402167 0
0.7635 0.402396 0
0.798764 0.403037 0
0.83209 0.404486 0
0.861814 0.406897 0
0.888273 0.409995 0
0.91284 0.413596 0
0.936309 0.41799 0
0.958587 0.422263 0
0.980591 0.426612 0
1 0.431388 0
1 0.435706 0
0 0.440314 0
0 0.440818 0
0.0240482 0.441321 0
0.052369 0.443275 0
0.079057 0.445365 0
0.105776 0.447456 0
0.133532 0.44976 0
0.162799 0.451316 0
0.195071 0.452171 0
0.23151 0.45243 0
0.269718 0.45182 0
0.309407 0.450828 0
0.350454 0.449546 0
0.39292 0.448356 0
0.435859 0.446693 0
0.479438 0.444907 0
0.523323 0.443549 0
0.566369 0.441962 0
0.608713 0.440604 0
0.650401 0.439933 0
0.6907 0.439231 0
0.729274 0.439033 0
0.766522 0.439536 0
0.801938 0.440345 0
0.835111 0.441642 0
0.864836 0.444083 0
0.891554 0.447425 0
0.916152 0.451087 0
0.939284 0.455146 0
0.961944 0.4598 0
0.983917 0.464149 0
1 0.468528 0
1 0.473167 0
0 0.474601 0
0 0.475593 0
0.0242466 0.476188 0
0.05243 0.477974 0
0.0796216 0.480583 0
0.106584 0.482902 0
0.134295 0.4851 0
0.164096 0.487205 0
0.196506 0.488197 0
0.2327 0.488212 0
0.271397 0.48809 0
0.311284 0.487297 0
0.352499 0.486168 0
0.394797 0.484825 0
0.438163 0.483589 0
0.481834 0.48188 0
0.525444 0.480262 0
0.568978 0.479164 0
0.611414 0.477928 0
0.652796 0.476982 0
0.693446 0.476661 0
0.732113 0.476555 0
0.769116 0.476844 0
0.804685 0.477791 0
0.838041 0.479301 0
0.867628 0.481621 0
0.894133 0.484764 0
0.919066 0.488762 0
0.942153 0.492805 0
0.964401 0.497047 0
0.986725 0.501747 0
1 0.506096 0
1 0.510338 0
0 0.509651 0
0 0.510811 0
0.0249332 0.511818 0
0.0533608 0.513848 0
0.0803693 0.516274 0
0.107774 0.519081 0
0.135607 0.521385 0
0.165148 0.523323 0
0.198077 0.52488 0
0.23444 0.525078 0
0.272892 0.524742 0
0.312947 0.524102 0
0.354498 0.523339 0
0.396887 0.522072 0
0.44007 0.520623 0
0.484215 0.519387 0
0.527901 0.51783 0
0.57113 0.516411 0
0.613993 0.515572 0
0.655436 0.514672 0
0.695827 0.514061 0
0.734752 0.514183 0
0.771893 0.514611 0
0.807248 0.515343 0
0.840558 0.516808 0
0.870329 0.519326 0
0.896788 0.522438 0
0.921324 0.526055 0
0.944747 0.530434 0
0.966934 0.53463 0
0.9888 0.538872 0
1 0.54342 0
1 0.547616 0
0 0.545602 0
0 0.546777 0
0.0258488 0.547662 0
0.0547189 0.550179 0
0.0819104 0.552789 0
0.109163 0.555444 0
0.13753 0.558267 0
0.167132 0.560311 0
0.199771 0.561593 0
0.236561 0.562249 0
0.275135 0.562036 0
0.315221 0.561425 0
0.356664 0.560555 0
0.399405 0.55964 0
0.442618 0.558236 0
0.486473 0.556664 0
0.530541 0.55552 0
0.573816 0.554147 0
0.616358 0.552972 0
0.658122 0.552377 0
0.698558 0.551827 0
0.737209 0.551675 0
0.77438 0.552117 0
0.809888 0.553033 0
0.84303 0.55433 0
0.872526 0.556588 0
0.899275 0.559991 0
0.923705 0.563516 0
0.946639 0.567422 0
0.969055 0.571862 0
0.990875 0.576059 0
1 0.58024 0
1 0.584421 0
0 0.581872 0
0 0.583352 0
0.0277714 0.584405 0
0.0564126 0.586709 0
0.084062 0.589761 0
0.111391 0.592493 0
0.139513 0.595056 0
0.169558 0.597604 0
0.202289 0.598993 0
0.238788 0.599374 0
0.277516 0.599329 0
0.317891 0.599008 0
0.359304 0.598108 0
0.401816 0.596948 0
0.445426 0.595926 0
0.489326 0.5944 0
0.533013 0.592889 0
0.576654 0.591867 0
0.619135 0.590661 0
0.660578 0.589731 0
0.701152 0.589303 0
0.739925 0.589273 0
0.776883 0.589502 0
0.812192 0.590219 0
0.845487 0.591684 0
0.874876 0.593835 0
0.901167 0.596811 0
0.925902 0.600641 0
0.94873 0.60444 0
0.970672 0.608408 0
0.992462 0.612589 0
1 0.616754 0
1 0.620661 0.000579843
0 0.618402 0
0 0.619867 0
0.0303655 0.621347 0
0.0590829 0.623774 0
0.0865034 0.626596 0
0.114305 0.629786 0
0.142489 0.632425 0
0.172198 0.634668 0
0.205325 0.636469 0
0.24184 0.636881 0
0.280491 0.636759 0
0.320699 0.636286 0
0.362463 0.635721 0
0.404944 0.634546 0
0.448173 0.633158 0
0.492424 0.631937 0
0.53608 0.630411 0
0.579324 0.628992 0
0.622049 0.628 0
0.663554 0.627131 0
0.703807 0.626398 0
0.742428 0.6262 0
0.779522 0.626596 0
0.814694 0.627161 0
0.847639 0.62829 0
0.877256 0.630671 0
0.903395 0.633478 0
0.927565 0.636759 0
0.950469 0.640665 0
0.972427 0.644648 0
0.993912 0.648539 0
1 0.65243 0
1 0.656382 0.00181582
0 0.655344 0
0 0.656947 0
0.033402 0.658137 0
0.062562 0.660975 0
0.0900282 0.663828 0
0.117494 0.666697 0
0.14609 0.669749 0
0.175845 0.672023 0
0.208606 0.673487 0
0.245228 0.674037 0
0.284123 0.674159 0
0.324254 0.673609 0
0.365652 0.672694 0
0.408484 0.671855 0
0.451682 0.670436 0
0.495567 0.668818 0
0.539483 0.667582 0
0.582635 0.666056 0
0.624994 0.664698 0
0.666438 0.663767 0
0.706874 0.663188 0
0.745296 0.662821 0
0.78201 0.662821 0
0.817334 0.663554 0
0.850126 0.6645 0
0.879271 0.666423 0
0.905531 0.669383 0
0.929671 0.672648 0
0.952148 0.676112 0
0.9738 0.67982 0
0.995331 0.683742 0
1 0.687449 0
1 0.691005 0.00263981
0 0.691981 0
0.00383001 0.694011 0
0.0375067 0.695216 0
0.0663615 0.697719 0
0.094255 0.700984 0
0.121752 0.703868 0
0.149966 0.706554 0
0.180056 0.709178 0
0.212772 0.710628 0
0.249256 0.71104 0
0.287877 0.710887 0
0.328313 0.710658 0
0.36968 0.709697 0
0.412055 0.7084 0
0.455528 0.707225 0
0.49929 0.705501 0
0.542779 0.703838 0
0.586023 0.702419 0
0.628489 0.701152 0
0.669627 0.699931 0
0.709697 0.698955 0
0.748287 0.698756 0
0.784894 0.69865 0
0.819791 0.69894 0
0.85275 0.700069 0
0.881651 0.701762 0
0.907439 0.70425 0
0.93138 0.707317 0
0.953964 0.710903 0
0.975418 0.714397 0
0.99646 0.717876 0
1 0.721599 0.000228885
1 0.724895 0.00354009
0 0.728862 0
0.00823987 0.730571 0
0.0423896 0.732143 0
0.0712749 0.734646 0
0.0987716 0.737499 0
0.126589 0.740719 0
0.154788 0.743374 0
0.184512 0.745602 0
0.217197 0.747082 0
0.25391 0.747753 0
0.292409 0.747478 0
0.332387 0.746792 0
0.374014 0.74609 0
0.416327 0.744732 0
0.459403 0.74313 0
0.503365 0.741634 0
0.546685 0.739803 0
0.589593 0.738018 0
0.631785 0.736477 0
0.673152 0.735454 0
0.713085 0.734356 0
0.751156 0.733639 0
0.787869 0.733623 0
0.822538 0.7337 0
0.855009 0.73434 0
0.883909 0.736034 0
0.909743 0.738567 0
0.933349 0.741299 0
0.955398 0.744366 0
0.976913 0.747936 0
0.997803 0.751247 0
1 0.754543 0.00112917
1 0.757931 0.00453193
0 0.765438 0
0.0138247 0.767147 0
0.0476539 0.768277 0
0.0769055 0.771115 0
0.104387 0.773953 0
0.131823 0.776761 0
0.160281 0.779706 0
0.189929 0.781811 0
0.222431 0.783123 0
0.258762 0.783398 0
0.297581 0.783429 0
0.337484 0.78265 0
0.378637 0.781445 0
0.421118 0.78024 0
0.464088 0.778439 0
0.507561 0.776501 0
0.550851 0.774624 0
0.593927 0.772992 0
0.635874 0.771191 0
0.676692 0.769619 0
0.716762 0.768643 0
0.754711 0.767803 0
0.790967 0.76733 0
0.825772 0.767529 0
0.857954 0.76791 0
0.886458 0.769207 0
0.911864 0.771328 0
0.935622 0.774243 0
0.957504 0.777157 0
0.978439 0.780179 0
0.999298 0.78349 0
1 0.786496 0.00230411
1 0.789395 0.00520333
0 0.80119 0
0.0202182 0.803265 0
0.054078 0.804334 0
0.0829023 0.806699 0
0.110643 0.809766 0
0.137972 0.812482 0
0.166003 0.814984 0.0012665
0.195621 0.817029 0.00328069
0.228321 0.818601 0.00488289
0.264469 0.818723 0.00500496
0.302739 0.818204 0.00450141
0.342855 0.817609 0.00392157
0.383886 0.816312 0.00262455
0.42594 0.814664 0.000991836
0.469123 0.813031 0
0.512322 0.810849 0
0.555337 0.808682 0
0.597955 0.806592 0
0.640116 0.805005 0
0.680812 0.803281 0
0.720333 0.801755 0
0.758312 0.800931 0
0.794324 0.800214 0
0.828626 0.799908 0
0.8607 0.800153 0
0.889326 0.801587 0
0.914458 0.803418 0
0.937591 0.805707 0
0.959503 0.808667 0
0.98027 0.811521 0
1 0.814374 0.000701915
1 0.817411 0.0037232
1 0.82002 0.00633249
0 0.836774 0
0.0267796 0.838376 0
0.0609903 0.839689 0
0.0897841 0.841993 0
0.117113 0.844617 0.00257877
0.144671 0.847547 0.00549325
0.172534 0.849882 0.00781262
0.202014 0.851728 0.00965896
0.23418 0.852842 0.0108034
0.270573 0.853208 0.0111849
0.308721 0.852567 0.0105745
0.348302 0.851438 0.00946059
0.389425 0.850217 0.00827039
0.431266 0.848356 0.00640879
0.473991 0.84622 0.00428779
0.517067 0.843946 0.00202945
0.560235 0.841917 0
0.602609 0.839582 0
0.644175 0.837369 0
0.684947 0.835737 0
0.72433 0.834058 0
0.761868 0.832776 0
0.79794 0.832105 0
0.831983 0.83154 0
0.863752 0.831464 0
0.891859 0.832364 0
0.917128 0.834363 0
0.940093 0.836469 0
0.96144 0.838865 0
0.982132 0.841642 0
1 0.844236 0.00228885
1 0.846799 0.00485237
1 0.849134 0.00717174
0.00332647 0.871611 0.00283818
0.0346075 0.873137 0.00436408
0.0684062 0.873915 0.00514229
0.0973831 0.876356 0.00758373
0.12462 0.878798 0.0100404
0.15169 0.881285 0.0125124
0.179477 0.883513 0.0147707
0.209186 0.885542 0.016846
0.241108 0.886442 0.017792
0.276905 0.886213 0.0175937
0.31519 0.885725 0.0171359
0.354635 0.884459 0.0158999
0.395315 0.88278 0.0142519
0.437217 0.88098 0.0124666
0.479789 0.878614 0.0101167
0.52253 0.876066 0.00758373
0.565179 0.873533 0.00503548
0.607736 0.871366 0.0028687
0.649134 0.868986 0.000503548
0.689357 0.866789 0
0.72871 0.865064 0
0.765988 0.863523 0
0.801617 0.862394 0
0.835492 0.861646 0
0.867353 0.861662 0
0.895171 0.862257 0
0.919829 0.863615 0
0.942794 0.865721 0
0.963973 0.867933 0
0.984115 0.870161 0.00167849
1 0.872297 0.0037995
1 0.874342 0.00584421
1 0.87602 0.00750744
0.0125429 0.904738 0.0120851
0.0439918 0.906477 0.0138705
0.077821 0.907118 0.0146029
0.106432 0.909087 0.0166476
0.133837 0.911559 0.0192111
0.160769 0.913893 0.0216068
0.188312 0.915892 0.023621
0.217487 0.917433 0.0251774
0.249622 0.918547 0.0263066
0.285191 0.918196 0.0259709
0.322896 0.917144 0.0249332
0.362325 0.915877 0.023682
0.402777 0.913985 0.0218051
0.444266 0.911757 0.0195773
0.486656 0.909194 0.0170291
0.529473 0.906783 0.0146181
0.571847 0.903944 0.0117952
0.613779 0.901152 0.00900282
0.655238 0.898802 0.00666819
0.695323 0.896468 0.00433356
0.734249 0.894301 0.00216678
0.771389 0.892607 0.00047303
0.806882 0.891325 0
0.840436 0.890257 0
0.871794 0.889754 0
0.899657 0.890379 0
0.923964 0.891402 0
0.94609 0.892668 0.000518807
0.966598 0.894209 0.00205997
0.986313 0.89601 0.00386053
1 0.897673 0.00552377
1 0.899214 0.00706493
1 0.900649 0.00848402
0.0238193 0.936996 0.0233921
0.0547189 0.938186 0.0246891
0.0886091 0.938796 0.0254368
0.117144 0.940612 0.0273747
0.144213 0.942702 0.0295567
0.170886 0.944839 0.0317235
0.198596 0.946975 0.0339208
0.227497 0.948241 0.0352331
0.259052 0.94873 0.0357519
0.294652 0.94847 0.0355077
0.332235 0.947295 0.0343786
0.371237 0.945602 0.0327153
0.411551 0.943557 0.0306859
0.452979 0.941192 0.028336
0.495064 0.938338 0.0254978
0.537346 0.935409 0.0225986
0.579858 0.932708 0.0198978
0.621637 0.929732 0.0169528
0.662547 0.926848 0.0140688
0.702403 0.924239 0.0114748
0.741238 0.921965 0.00920119
0.778073 0.919966 0.00720226
0.813138 0.918242 0.00547799
0.846525 0.916991 0.00422675
0.877226 0.915831 0.00306706
0.904158 0.915496 0.00274662
0.927993 0.91603 0.00328069
0.949935 0.917128 0.00436408
0.970016 0.918242 0.00547799
0.989013 0.919326 0.00654612
1 0.920485 0.00770581
1 0.921386 0.00859083
1 0.922148 0.00935378
0.0357671 0.967849 0.0353704
0.0665904 0.968978 0.0366674
0.100175 0.969192 0.0370336
0.128527 0.97081 0.0387732
0.155566 0.972839 0.0408942
0.181964 0.974701 0.0428168
0.209171 0.976333 0.0445106
0.238239 0.977752 0.0459907
0.269688 0.978073 0.0463722
