luts/4.cube
TITLE "Generated by Resolve"
LUT_3D_SIZE 9
0 0.134661 0
0.0842603 0.125505 0
0.185946 0.118105 0
0.326116 0.101106 0
0.483986 0.0810407 0
0.638468 0.06421 0
0.771954 0.0552071 0
0.86807 0.0598459 0
0.949584 0.0706493 0
0 0.211185 0
0.0831617 0.205173 0
0.189731 0.202319 0
0.336217 0.190997 0
0.501381 0.177661 0
0.662745 0.167483 0
0.80209 0.164569 0
0.902159 0.17348 0
0.987533 0.187808 0
0 0.312917 0
0.0792248 0.313878 0
0.191989 0.317235 0
0.344305 0.311543 0
0.513726 0.302205 0
0.678584 0.29543 0
0.821256 0.296056 0
0.924254 0.308385 0
1 0.325292 0
0 0.440314 0
0.079057 0.445365 0
0.195071 0.452171 0
0.350454 0.449546 0
0.523323 0.443549 0
0.6907 0.439231 0
0.835111 0.441642 0
0.939284 0.455146 0
1 0.473167 0
0 0.581872 0
0.084062 0.589761 0
0.202289 0.598993 0
0.359304 0.598108 0
0.533013 0.592889 0
0.701152 0.589303 0
0.845487 0.591684 0
0.94873 0.60444 0
1 0.620661 0.000579843
0 0.728862 0
0.0987716 0.737499 0
0.217197 0.747082 0
0.374014 0.74609 0
0.546685 0.739803 0
0.713085 0.734356 0
0.855009 0.73434 0
0.955398 0.744366 0
1 0.757931 0.00453193
0.00332647 0.871611 0.00283818
0.12462 0.878798 0.0100404
0.241108 0.886442 0.017792
0.395315 0.88278 0.0142519
0.565179 0.873533 0.00503548
0.72871 0.865064 0
0.867353 0.861662 0
0.963973 0.867933 0
1 0.87602 0.00750744
0.0480964 0.997497 0.047715
0.16701 1 0.0523384
0.280232 1 0.0569314
0.430762 0.99884 0.0500954
0.59678 0.985626 0.0370184
0.75462 0.971222 0.0227054
0.886336 0.960693 0.0122072
0.975372 0.959304 0.0108034
1 0.96054 0.0119936
0.0957198 1 0.0954604
0.210117 1 0.0954604
0.317281 1 0.0942245
0.460258 1 0.0797894
0.618326 1 0.0590066
0.769985 1 0.0383459
0.897047 1 0.0229648
0.982696 1 0.0180667
1 1 0.0168917
0 0.132998 0.0702525
0.0827497 0.123995 0.0611887
0.184726 0.116884 0.0538949
0.325322 0.100282 0.0370642
0.483604 0.0805676 0.0171817
0.63888 0.0645304 0.000885023
0.77322 0.0564279 0
0.869841 0.0615854 0
0.951919 0.0729839 0.00805676
0 0.210529 0.0669718
0.083238 0.205249 0.0616922
0.190219 0.202762 0.059205
0.33785 0.192523 0.0489662
0.503471 0.179629 0.0360571
0.665278 0.16994 0.0263523
0.804929 0.167391 0.0239719
0.905287 0.176684 0.0332494
0.990921 0.191272 0.0478218
0 0.314565 0.0584115
0.0814069 0.316091 0.0598459
0.194736 0.319951 0.0636912
0.347265 0.314397 0.0581674
0.517159 0.305516 0.0493324
0.682261 0.299016 0.0429236
0.825208 0.299992 0.044007
0.928344 0.31252 0.0565805
1 0.329641 0.0737621
0 0.443366 0.0556191
0.0823529 0.448753 0.0607767
0.198871 0.455909 0.0678874
0.354879 0.453803 0.0657816
0.527611 0.447669 0.0596628
0.695003 0.443595 0.0556191
0.83946 0.446082 0.0582132
0.943542 0.459648 0.0719463
1 0.477623 0.0901503
0 0.586069 0.0589761
0.0882124 0.594018 0.0666056
0.206668 0.603372 0.0758068
0.363836 0.602518 0.074876
0.53756 0.597284 0.0696422
0.705516 0.593744 0.0661173
0.849638 0.595926 0.0683757
0.952514 0.608484 0.0810407
1 0.624521 0.0972152
0 0.733318 0.073228
0.103105 0.741924 0.0814679
0.221851 0.75169 0.0911269
0.378332 0.750225 0.0896162
0.550774 0.743648 0.0830091
0.716716 0.737972 0.0773327
0.858366 0.737743 0.0771191
0.958236 0.747417 0.0868238
1 0.760555 0.100008
0.00743114 0.875669 0.099855
0.128466 0.882673 0.106966
0.2448 0.889891 0.11426
0.398795 0.885893 0.110369
0.568383 0.876371 0.100877
0.73138 0.867506 0.0920272
0.869444 0.863691 0.0881971
0.965393 0.869474 0.0939803
1 0.876753 0.101228
0.0513313 1 0.143801
0.169833 1 0.14815
0.28278 1 0.152483
0.433066 1 0.145006
0.598245 0.986542 0.131044
0.755352 0.971511 0.116121
0.886061 0.960174 0.104829
0.974258 0.95816 0.102815
1 0.959106 0.103731
0.0977035 1 0.190234
0.211048 1 0.189303
0.317449 1 0.187228
0.459876 1 0.172274
0.617594 1 0.15079
0.768765 1 0.129747
0.895598 1 0.114382
0.980774 1 0.109239
1 1 0.107958
0 0.12958 0.184939
0.0796368 0.120928 0.176196
0.181689 0.113939 0.168841
0.32282 0.0978866 0.1523
0.48188 0.0789197 0.13283
0.637552 0.0632486 0.116625
0.773053 0.05626 0.108904
0.870176 0.0619211 0.11371
0.952621 0.0736858 0.124544
0 0.208133 0.182773
0.0816663 0.203662 0.178408
0.189212 0.20177 0.176455
0.337667 0.192355 0.166888
0.503899 0.180026 0.15436
0.666072 0.170687 0.144747
0.806058 0.168521 0.142336
0.906844 0.178271 0.151888
0.992798 0.193194 0.16643
0 0.314534 0.176455
0.0818647 0.316564 0.178576
0.195651 0.320867 0.182925
0.348486 0.315587 0.177615
0.518746 0.307057 0.169024
0.684199 0.300969 0.162829
0.827482 0.302281 0.164034
0.930709 0.314931 0.176425
1 0.332265 0.193591
0 0.4448 0.174853
0.0839857 0.450431 0.180545
0.20087 0.457877 0.188144
0.357214 0.456031 0.186328
0.530098 0.45005 0.180301
0.697536 0.446159 0.176303
0.842054 0.448722 0.17882
0.946227 0.462455 0.192508
1 0.480262 0.210254
0 0.588464 0.17882
0.0906691 0.596536 0.186999
0.209247 0.605951 0.19646
0.366522 0.605142 0.195682
0.5402 0.599847 0.190387
0.70808 0.596338 0.186877
0.851957 0.598306 0.188815
0.954482 0.61062 0.201099
1 0.626398 0.216831
0 0.736004 0.193118
0.105684 0.744533 0.20174
0.224292 0.754101 0.21146
0.380728 0.752468 0.209964
0.553002 0.745647 0.20325
0.718471 0.739651 0.197253
0.859785 0.739116 0.196674
0.959258 0.748577 0.206027
1 0.761273 0.218631
0.00968948 0.877882 0.219043
0.130526 0.884657 0.226291
0.246601 0.891539 0.233707
0.400198 0.887098 0.229526
0.569635 0.877379 0.219974
0.732052 0.868116 0.210788
0.869612 0.863798 0.20647
0.964569 0.868742 0.211368
1 0.87538 0.217899
0.0527352 1 0.261799
0.170642 1 0.266194
0.283497 1 0.270512
0.433371 1 0.262821
0.597513 0.985428 0.247974
0.753674 0.969558 0.232319
0.883772 0.957702 0.220554
0.971267 0.955123 0.21799
1 0.955673 0.218448
0.0975814 1 0.30631
0.210101 1 0.30518
0.315465 1 0.302403
0.45742 1 0.287007
0.614862 1 0.265476
0.765576 1 0.244205
0.892027 1 0.228717
0.976989 1 0.22356
1 1 0.222217
0 0.122011 0.353597
0.0722667 0.113664 0.345144
0.174548 0.10695 0.337926
0.316106 0.0913558 0.321584
0.47599 0.0732128 0.302495
0.632349 0.0581521 0.286381
0.768765 0.052018 0.279072
0.86659 0.0583658 0.284291
0.94931 0.0703746 0.294957
0 0.201709 0.352728
0.0759899 0.197986 0.349126
0.184436 0.197024 0.348135
0.333364 0.188113 0.339086
0.500191 0.176379 0.32694
0.662791 0.167437 0.317433
0.803098 0.16556 0.314931
0.904295 0.175723 0.324361
0.990723 0.191119 0.338979
0 0.310536 0.348867
0.0782177 0.312901 0.35137
0.192447 0.317678 0.356191
0.345663 0.312779 0.351263
0.516182 0.304494 0.342916
0.681971 0.298741 0.337011
0.825544 0.300359 0.338277
0.928939 0.313161 0.350561
1 0.330694 0.367407
0 0.44213 0.348394
0.08159 0.448035 0.354604
0.198703 0.455695 0.362432
0.355337 0.454124 0.360937
0.528405 0.44831 0.355047
0.695903 0.444511 0.351141
0.840467 0.44715 0.353719
0.94461 0.460914 0.367224
1 0.478599 0.384604
0 0.586633 0.352926
0.0889906 0.594888 0.361715
0.20763 0.604334 0.371328
0.364965 0.60354 0.37055
0.538659 0.598245 0.365286
0.706264 0.594553 0.361563
0.849973 0.596368 0.363363
0.95227 0.608499 0.375448
1 0.623926 0.390661
0 0.734462 0.367025
0.104021 0.742901 0.376226
0.222492 0.752285 0.386084
0.378744 0.750378 0.384405
0.550851 0.743358 0.377493
0.715938 0.737072 0.371237
0.856809 0.736141 0.37026
0.956237 0.745602 0.379614
1 0.757687 0.391562
0.00767529 0.875853 0.392081
0.128161 0.882261 0.399771
0.244007 0.888884 0.407309
0.397284 0.884047 0.402991
0.566293 0.873869 0.393027
0.728283 0.864302 0.383536
0.865415 0.859602 0.378851
0.959289 0.863508 0.382712
1 0.869307 0.388418
0.0498054 0.998703 0.433524
0.167193 1 0.438117
0.279637 1 0.442573
0.428992 0.996002 0.434592
0.592371 0.980011 0.419165
0.747356 0.963104 0.402533
0.876905 0.950713 0.390249
0.963958 0.947799 0.387335
1 0.947936 0.387411
0.0927749 1 0.475822
0.204578 1 0.474632
0.309117 1 0.471534
0.450492 1 0.455955
0.607599 1 0.434333
0.758022 1 0.413001
0.884169 1 0.397421
0.968948 1 0.392203
1 1 0.39086
0 0.112322 0.55024
0.0627909 0.10428 0.542123
0.165408 0.0980087 0.535332
0.307286 0.0828107 0.519326
0.467948 0.0654307 0.500938
0.625254 0.0512398 0.485893
0.76228 0.0456092 0.478981
0.860792 0.0525978 0.484474
0.943893 0.0649424 0.495308
0 0.1935 0.551217
0.0682383 0.190249 0.548257
0.177722 0.190387 0.548333
0.327077 0.181933 0.53959
0.494362 0.170657 0.527825
0.657374 0.162081 0.518624
0.798093 0.160571 0.516381
0.899565 0.170962 0.526207
0.986419 0.186801 0.541207
0 0.304555 0.549554
0.0728923 0.30753 0.553002
0.187091 0.312322 0.557961
0.340719 0.307881 0.55346
0.511543 0.299886 0.545251
0.677684 0.294453 0.539498
0.821469 0.296269 0.540887
0.925032 0.309255 0.553277
1 0.326863 0.570108
0 0.437293 0.55024
0.0771344 0.443549 0.557046
0.194736 0.451743 0.565621
0.351247 0.45005 0.56405
0.524498 0.444419 0.558343
0.692088 0.440681 0.554376
0.836667 0.443366 0.556771
0.940826 0.457145 0.57023
1 0.474632 0.587335
0 0.582666 0.555596
0.0851453 0.591028 0.56466
0.20383 0.600534 0.574548
0.361135 0.59971 0.573922
0.534829 0.594415 0.568689
0.702205 0.590509 0.564736
0.845685 0.592111 0.566201
0.947784 0.604059 0.57792
1 0.619196 0.592782
0 0.730663 0.569772
0.100404 0.7393 0.57937
0.218433 0.748226 0.588907
0.374441 0.746014 0.587152
0.546258 0.73872 0.580102
0.711086 0.732204 0.573648
0.85156 0.730907 0.572274
0.950545 0.739925 0.581079
1 0.75172 0.592554
0.00332647 0.871504 0.594446
0.123476 0.877546 0.601785
0.239002 0.883833 0.60911
0.392035 0.878706 0.604608
0.560616 0.868116 0.594385
0.722087 0.858076 0.584543
0.85864 0.852842 0.579355
0.951705 0.85597 0.582391
1 0.860716 0.586938
0.0443427 0.993194 0.634775
0.16141 0.995758 0.639002
0.273411 0.99852 0.643107
0.421897 0.988754 0.634302
0.584634 0.972107 0.618296
0.73872 0.954391 0.600961
0.867552 0.941329 0.588113
0.954253 0.938079 0.584909
1 0.937972 0.58468
0.0854047 1 0.674998
0.196277 1 0.673198
0.300298 1 0.669444
0.441215 1 0.653407
0.597925 1 0.631449
0.748165 1 0.610117
0.874052 1 0.594339
0.958663 1 0.589105
1 1 0.587808
0 0.102861 0.74847
0.053254 0.0948501 0.740444
0.156298 0.0891127 0.734295
0.298894 0.0746624 0.719158
0.459846 0.0576333 0.701274
0.618326 0.0445411 0.68719
0.755856 0.039292 0.681117
0.854871 0.0466773 0.687144
0.938354 0.0594186 0.698589
0 0.185534 0.751141
0.0608072 0.182788 0.748684
0.170993 0.183734 0.749599
0.320851 0.175875 0.741512
0.488624 0.165072 0.730312
0.65185 0.156664 0.721401
0.793088 0.155581 0.719692
0.894881 0.166232 0.729671
0.98204 0.182376 0.745266
0 0.298528 0.751583
0.0673686 0.301976 0.755428
0.181811 0.307073 0.760662
0.335729 0.302953 0.756527
0.506935 0.295354 0.74876
0.673609 0.290379 0.743542
0.817319 0.292119 0.74493
0.921065 0.305272 0.757565
1 0.322942 0.774594
0 0.432456 0.753582
0.0726635 0.439033 0.760601
0.190539 0.447578 0.769436
0.347112 0.445991 0.767971
0.520516 0.440497 0.762417
0.688212 0.43682 0.758556
0.832792 0.43946 0.760998
0.936934 0.453239 0.774548
1 0.470497 0.791516
0 0.578653 0.759869
0.081239 0.587106 0.768887
0.199969 0.596674 0.778775
0.357214 0.595804 0.778058
0.531075 0.590677 0.772992
0.698085 0.586374 0.768658
0.841276 0.587701 0.769879
0.943084 0.599374 0.781384
1 0.614267 0.796078
0 0.726711 0.774273
0.0963607 0.735241 0.783581
0.214206 0.743984 0.792828
0.370001 0.741573 0.790814
0.541466 0.733898 0.783383
0.706004 0.727077 0.776623
0.846174 0.725521 0.775006
0.944701 0.734096 0.783413
1 0.745449 0.794491
0 0.866926 0.79823
0.118624 0.872679 0.805325
0.233738 0.878553 0.8121
0.38645 0.873106 0.807202
0.554772 0.862211 0.796643
0.715724 0.851698 0.786313
0.851362 0.845579 0.78024
0.943771 0.848051 0.78265
1 0.851942 0.786389
0.0385595 0.987381 0.837461
0.155581 0.989914 0.841703
0.266941 0.991989 0.844999
0.414405 0.981186 0.83505
0.576288 0.963668 0.818128
0.729809 0.945418 0.800244
0.858045 0.931792 0.786816
0.94432 0.92813 0.7832
1 0.927962 0.78294
0.0777295 1 0.876188
0.187549 1 0.872877
0.291051 1 0.868727
0.431678 1 0.852216
0.588022 1 0.829801
0.737987 1 0.808209
0.863798 0.99852 0.79234
0.948302 0.993042 0.78703
1 0.99173 0.785763
0 0.0954452 0.919738
0.0459602 0.0876783 0.912016
0.14934 0.0823835 0.906416
0.292729 0.0687114 0.892256
0.454139 0.0522927 0.875257
0.613474 0.0399634 0.862364
0.751675 0.0352636 0.856809
0.851133 0.0429236 0.863416
0.93492 0.0559701 0.875517
0 0.179736 0.924147
0.0559243 0.177905 0.92253
0.166522 0.179355 0.92398
0.316808 0.172015 0.916487
0.485008 0.161639 0.905867
0.648554 0.15349 0.897383
0.790204 0.152712 0.896193
0.892409 0.163699 0.906889
0.979843 0.180117 0.922866
0 0.294697 0.92668
0.0640574 0.298604 0.930831
0.17882 0.304097 0.936431
0.332937 0.300252 0.932586
0.504448 0.292973 0.925216
0.671443 0.288258 0.920363
0.815351 0.29012 0.922026
0.919234 0.30341 0.934905
1 0.321111 0.952209
0 0.429862 0.930068
0.0703899 0.436683 0.937133
0.188449 0.445548 0.946105
0.345159 0.444129 0.944793
0.518639 0.438712 0.939345
0.686458 0.435065 0.935607
0.831052 0.437705 0.938155
0.935134 0.451377 0.951705
1 0.468452 0.968643
0 0.576761 0.93724
0.0794842 0.585306 0.946059
0.198215 0.594919 0.95584
0.355383 0.594003 0.955016
0.529076 0.588708 0.949752
0.695979 0.584268 0.945296
0.838987 0.585382 0.946349
0.940414 0.596674 0.957565
1 0.611276 0.972061
0 0.724834 0.951797
0.0943618 0.733227 0.960678
0.211948 0.741741 0.969497
0.367544 0.739162 0.967178
0.53872 0.731197 0.959396
0.702846 0.723949 0.952209
0.842878 0.72224 0.950454
0.940932 0.730327 0.958434
1 0.741192 0.969116
0 0.864256 0.975189
0.11574 0.86981 0.98172
0.230518 0.875334 0.987945
0.382803 0.869459 0.982452
0.550927 0.858366 0.971618
0.71136 0.847333 0.960708
0.845945 0.840162 0.953597
0.937499 0.841794 0.955169
1 0.845136 0.958404
0.0347448 0.983581 1
0.151354 0.985672 1
0.26215 0.987198 1
0.408896 0.975647 1
0.569726 0.957061 0.990448
0.722698 0.938293 0.971969
0.850568 0.9243 0.95816
0.936446 0.920256 0.954162
1 0.919844 0.953674
0.0717479 1 1
0.180819 1 1
0.283665 1 1
0.424018 1 1
0.580163 1 1
0.729854 1 0.979004
0.855558 0.99025 0.962997
0.940047 0.984756 0.957671
1 0.98349 0.956436
0 0.0885023 1
0.0392767 0.0811627 1
0.143053 0.0762188 1
0.287068 0.0633402 1
0.449317 0.0478676 1
0.609247 0.0360418 1
0.748135 0.0319371 1
0.848127 0.0398718 1
0.932158 0.0532082 1
0 0.174456 1
0.0517128 0.173678 1
0.162676 0.175616 1
0.313252 0.168673 1
0.48188 0.15874 1
0.645853 0.150942 1
0.787839 0.150378 1
0.890532 0.161746 1
0.978195 0.178408 1
0 0.291737 1
0.0612192 0.295689 1
0.176333 0.30164 1
0.330678 0.298116 1
0.502419 0.291051 1
0.669718 0.28661 1
0.813825 0.288624 1
0.917861 0.301991 1
1 0.319738 1
0 0.427802 1
0.0687877 0.435004 1
0.186816 0.4439 1
0.343618 0.44271 1
0.517174 0.437354 1
0.68513 0.433707 1
0.829709 0.436332 1
0.933623 0.44979 1
1 0.466728 1
0 0.575326 1
0.078172 0.583932 1
0.196826 0.59353 1
0.353902 0.592584 1
0.527443 0.587121 1
0.694163 0.582422 1
0.836988 0.583337 1
0.938125 0.594339 1
1 0.608515 1
0 0.723461 1
0.0927596 0.731594 1
0.210025 0.739849 1
0.365286 0.73698 1
0.536248 0.728786 1
0.700023 0.721157 1
0.839658 0.719005 1
0.937377 0.726757 1
1 0.73724 1
0 0.861967 1
0.1131 0.867201 1
0.227604 0.87245 1
0.379477 0.866163 1
0.547112 0.854597 1
0.707012 0.843 1
0.840833 0.83505 1
0.931319 0.835599 1
1 0.838422 1
0.031342 0.980194 1
0.147463 0.981811 1
0.257328 0.982391 1
0.403403 0.970184 1
0.563455 0.95079 1
0.715755 0.931334 1
0.843305 0.917037 1
0.928939 0.912734 1
0.998779 0.912077 1
0.0657969 1 1
0.17435 1 1
0.276661 1 1
0.416587 1 1
0.572564 1 1
0.722087 0.998779 1
0.847684 0.982361 1
0.932189 0.976898 1
1 0.975692 1
0 0.0813306 1
0.0325017 0.0744793 1
0.136843 0.070222 1
0.281117 0.0578317 1
0.44445 0.0434577 1
0.604913 0.0320439 1
0.74435 0.0283665 1
0.844892 0.0366217 1
0.92929 0.0503395 1
0 0.169238 1
0.0472877 0.169238 1
0.158709 0.171771 1
0.309804 0.165469 1
0.478477 0.155596 1
0.642969 0.148226 1
0.785351 0.147921 1
0.888441 0.159579 1
0.976303 0.176425 1
0 0.288457 1
0.0582284 0.292607 1
0.173587 0.298924 1
0.328237 0.295796 1
0.500542 0.289311 1
0.66772 0.284703 1
0.812055 0.2869 1
0.916213 0.300298 1
1 0.318059 1
0 0.425498 1
0.0669413 0.433051 1
0.184955 0.442039 1
0.341833 0.441001 1
0.51545 0.435706 1
0.683467 0.432013 1
0.828077 0.434638 1
0.931823 0.447868 1
1 0.464576 1
0 0.573602 1
0.076585 0.582269 1
0.195117 0.591821 1
0.352407 0.591134 1
0.52546 0.585214 1
0.691981 0.580209 1
0.834531 0.58085 1
0.93547 0.591608 1
1 0.605402 1
0 0.72163 1
0.0907607 0.729564 1
0.207782 0.737621 1
0.362615 0.734401 1
0.533242 0.725887 1
0.696818 0.717983 1
0.836057 0.715404 1
0.933318 0.722698 1
1 0.732631 1
0 0.859342 1
0.110018 0.864149 1
0.224186 0.869062 1
0.375738 0.862501 1
0.542885 0.850446 1
0.701915 0.837919 1
0.835111 0.829313 1
0.924773 0.829038 1
0.997467 0.831189 1
0.0275883 0.976486 1
0.143145 0.977523 1
0.251957 0.977081 1
0.397147 0.963973 1
0.556664 0.94406 1
0.708431 0.924041 1
0.835569 0.9093 1
0.921126 0.904921 1
0.990707 0.904005 1
0.0592813 1 1
0.167285 1 1
0.26923 1 1
0.408789 1 1
0.564523 1 1
0.714046 0.990738 1
0.839506 0.974182 1
0.924041 0.968734 1
0.993484 0.967651 1
