luts/5.cube
LUT_3D_SIZE 16
0.094872 0.128415 0.140348
0.098566 0.131704 0.143719
0.112506 0.148226 0.161180
0.139104 0.165216 0.179399
0.185779 0.184461 0.200295
0.280206 0.198172 0.225820
0.430391 0.193169 0.234711
0.594471 0.170715 0.230308
0.727222 0.138685 0.223534
0.830877 0.103168 0.220844
0.909468 0.065191 0.222621
0.968406 -0.029922 0.226848
1.011110 -0.057952 0.231400
1.041221 -0.064578 0.235729
1.040800 -0.060056 0.236184
1.104803 -0.064114 0.247868
0.100340 0.136958 0.147090
0.100572 0.135769 0.145624
0.108146 0.142062 0.155156
0.138395 0.164324 0.178265
0.185911 0.185000 0.200451
0.280561 0.199239 0.226233
0.430739 0.194756 0.234919
0.594765 0.173227 0.230320
0.727530 0.142068 0.223435
0.830861 0.108289 0.220905
0.909619 0.073011 0.222512
0.968605 0.026557 0.226652
1.011150 -0.049619 0.231353
1.041313 -0.058613 0.235629
1.040857 -0.056412 0.236091
1.104864 -0.060777 0.247747
0.120901 0.164602 0.174638
0.119632 0.163355 0.173224
0.121825 0.163086 0.174033
0.149507 0.187096 0.192596
0.194668 0.209356 0.212125
0.290966 0.224422 0.227854
0.438497 0.225866 0.228703
0.600725 0.214558 0.220568
0.732133 0.195636 0.212929
0.834979 0.176224 0.210880
0.912797 0.159027 0.214118
0.971192 0.144527 0.219805
1.013463 0.132275 0.225575
1.043201 0.122446 0.231001
1.042455 0.112537 0.232155
1.106264 0.106059 0.244212
0.146840 0.209600 0.203986
0.146826 0.209482 0.203865
0.152718 0.210180 0.205113
0.156250 0.205328 0.203781
0.207672 0.244796 0.229507
0.283487 0.276285 0.226347
0.446831 0.282111 0.201901
0.610089 0.280536 0.190577
0.740287 0.271156 0.184208
0.841657 0.259542 0.186431
0.918382 0.247104 0.194684
0.975797 0.234634 0.204937
1.017138 0.222308 0.214495
1.047022 0.208061 0.220426
1.045979 0.191693 0.222780
1.109120 0.184021 0.236164
0.181598 0.275374 0.239727
0.181813 0.275412 0.239792
0.189481 0.276496 0.241330
0.203604 0.277286 0.243559
0.212144 0.269040 0.241008
0.293743 0.322392 0.276677
0.433835 0.356904 0.172772
0.615226 0.360360 0.102066
0.749154 0.354854 0.096423
0.851086 0.345454 0.118388
0.927178 0.333122 0.145265
0.983781 0.318874 0.169064
1.024358 0.303711 0.187639
1.052513 0.287865 0.201737
1.050212 0.267180 0.208597
1.112592 0.257868 0.224678
0.226678 0.359367 0.285285
0.226971 0.359445 0.285371
0.235139 0.360304 0.286836
0.253045 0.362329 0.290129
0.278940 0.363686 0.294100
0.296700 0.353925 0.291304
0.412366 0.423594 0.273881
0.604248 0.448961 -0.122305
0.751439 0.445111 -0.171731
0.857977 0.435392 -0.153823
0.935736 0.421293 -0.108671
0.992573 0.404109 0.073019
1.032634 0.384837 0.131074
1.060131 0.364544 0.161234
1.057021 0.338420 0.178719
1.118752 0.326687 0.200774
0.284747 0.459404 0.345600
0.285074 0.459458 0.345673
0.293795 0.460332 0.347261
0.313384 0.462365 0.350824
0.345810 0.465827 0.356870
0.386772 0.468534 0.363690
0.415078 0.462162 0.352942
0.578879 0.531802 0.180735
0.740416 0.540085 -0.208883
0.857836 0.529720 -0.229190
0.940643 0.511883 -0.211183
0.999493 0.490057 -0.179032
1.040295 0.466098 -0.134514
1.067874 0.441050 -0.055452
1.064259 0.409310 0.111885
1.125656 0.394910 0.155164
0.357153 0.570294 0.421458
0.357546 0.570374 0.421567
0.367015 0.571303 0.423311
0.388007 0.573478 0.427244
0.422246 0.577141 0.433749
0.469288 0.582627 0.443243
0.519466 0.588808 0.446489
0.565220 0.593513 0.370259
0.718374 0.630486 0.093790
0.845021 0.624679 -0.247518
0.936848 0.603701 -0.270462
1.001255 0.577191 -0.256941
1.045068 0.548236 -0.229435
1.074049 0.518196 -0.193553
1.070928 0.480597 -0.145645
1.132675 0.463356 -0.078119
0.430749 0.669266 0.495549
0.431176 0.669365 0.495650
0.440458 0.670265 0.497281
0.460658 0.672264 0.500839
0.492879 0.675628 0.506723
0.536461 0.680489 0.515045
0.588347 0.686988 0.525598
0.634846 0.698100 0.495898
0.702448 0.707372 0.368038
0.823307 0.715436 -0.106083
0.921720 0.695658 -0.277216
0.994297 0.665733 -0.302412
1.044110 0.631827 -0.292636
1.076565 0.596521 -0.267123
1.075329 0.552817 -0.229312
1.138429 0.532381 -0.196386
0.494472 0.751208 0.556075
0.494838 0.751249 0.556183
0.503289 0.752136 0.557578
0.521470 0.753870 0.560538
0.550158 0.756752 0.565402
0.588670 0.760818 0.572371
0.634568 0.766160 0.581320
0.681614 0.774469 0.581726
0.729486 0.787906 0.525392
0.810805 0.801205 0.370508
0.900866 0.785191 -0.141460
0.977653 0.753695 -0.297677
1.034556 0.716237 -0.325368
1.073133 0.676114 -0.318894
1.075698 0.626006 -0.289068
1.141910 0.602260 -0.266803
0.545740 0.815956 0.603089
0.546062 0.815961 0.603110
0.553415 0.816595 0.604277
0.569279 0.818145 0.606820
0.594163 0.820518 0.610943
0.627502 0.824006 0.616766
0.667553 0.828530 0.624290
0.712263 0.834152 0.633170
0.753589 0.844431 0.616824
0.804412 0.858625 0.545504
0.892979 0.876042 0.379380
0.958338 0.840599 -0.155238
1.017156 0.799489 -0.309811
1.061904 0.756062 -0.340838
1.070162 0.700012 -0.328872
1.141401 0.672937 -0.320972
0.585601 0.865671 0.638910
0.585816 0.865704 0.638986
0.592165 0.866259 0.639938
0.605727 0.867574 0.642078
0.627000 0.869597 0.645555
0.655621 0.872525 0.650391
0.690308 0.876373 0.656742
0.729866 0.881035 0.664529
0.771006 0.887517 0.668238
0.809517 0.898690 0.639020
0.862235 0.913066 0.559509
0.955104 0.934260 0.388099
0.999414 0.883463 -0.153596
1.044263 0.834637 -0.315793
1.057740 0.774396 -0.339929
1.134858 0.744922 -0.357972
0.614954 0.902262 0.665031
0.615157 0.902274 0.665069
0.620545 0.902764 0.665962
0.632033 0.903870 0.667771
0.650172 0.905550 0.670619
0.674643 0.907994 0.674731
0.704743 0.911237 0.680108
0.739619 0.915236 0.686685
0.778143 0.920028 0.694547
0.814876 0.927792 0.689479
0.852036 0.938927 0.651571
0.905988 0.953402 0.566814
1.000901 0.977611 0.394549
1.028263 0.914592 -0.147725
1.040754 0.846613 -0.304385
1.122796 0.816451 -0.362832
0.635799 0.928212 0.683553
0.635930 0.928238 0.683586
0.640481 0.928638 0.684308
0.650263 0.929607 0.685826
0.665716 0.931019 0.688266
0.686662 0.933071 0.691716
0.712677 0.935861 0.696245
0.743389 0.939288 0.701923
0.777415 0.943326 0.708604
0.813815 0.948406 0.714527
0.847016 0.956998 0.701289
0.883531 0.967788 0.657582
0.937544 0.982167 0.570715
1.032704 1.007610 0.468223
1.027131 0.922364 -0.078949
1.104350 0.887408 -0.300143
0.635540 0.927827 0.683266
0.635575 0.927814 0.683259
0.639433 0.928228 0.683924
0.647631 0.928923 0.685163
0.660712 0.930161 0.687206
0.678569 0.931939 0.690164
0.701154 0.934229 0.693960
0.727671 0.937172 0.698745
0.757774 0.940597 0.704422
0.790741 0.944594 0.711026
0.823748 0.950232 0.712939
0.854530 0.958943 0.693834
0.889923 0.969152 0.646850
0.943970 0.983470 0.559033
1.028762 1.004764 0.463872
1.085087 0.957271 0.264664
0.779996 1.120054 0.812429
0.780238 1.120018 0.812416
0.783091 1.120181 0.812690
0.788776 1.120627 0.813295
0.796849 1.121302 0.814345
0.806664 1.122274 0.815884
0.817216 1.123457 0.817779
0.829028 1.124989 0.820127
0.843624 1.126833 0.823055
0.862754 1.129323 0.826869
0.887569 1.132352 0.831779
0.915269 1.137488 0.832962
0.930321 1.150020 0.795529
0.938505 1.170423 0.682949
0.971755 1.191009 0.489356
1.082287 1.196153 0.492616
-0.433233 -0.643403 -0.432177
-0.433128 -0.643315 -0.431963
-0.430824 -0.641645 -0.429307
-0.422506 -0.639210 -0.424717
-0.399824 -0.635903 -0.418362
-0.345228 -0.631221 -0.409313
0.514750 -0.690337 0.280963
0.658435 -0.695045 0.265601
0.798150 -0.701956 0.237792
0.906399 -0.707744 0.208371
0.985246 -0.712108 0.181570
1.040531 -0.714857 0.158805
1.075410 -0.716442 0.141152
1.092982 -0.717179 0.129800
1.078327 -0.716615 0.131600
1.132020 -0.718324 0.109361
0.100471 0.137150 0.151344
0.100562 0.135733 0.149795
0.111239 0.147391 0.162488
0.137905 0.163279 0.180359
0.184721 0.181176 0.200704
0.277341 0.194277 0.226589
0.428384 0.186920 0.237059
0.593149 0.160737 0.232941
0.726213 0.122864 0.226129
0.830077 0.075633 0.223299
0.908668 -0.048479 0.225044
0.967771 -0.076912 0.229161
1.010569 -0.084846 0.233882
1.040699 -0.084422 0.238509
1.040393 -0.077263 0.239092
1.104494 -0.077419 0.250684
0.120844 0.164583 0.176236
0.120970 0.163907 0.176945
0.121846 0.163112 0.177084
0.149561 0.187149 0.195263
0.194113 0.207722 0.213685
0.287382 0.222281 0.232676
0.436129 0.222080 0.234894
0.598975 0.208895 0.227541
0.730739 0.188308 0.220162
0.833820 0.167558 0.217935
0.911835 0.149598 0.220609
0.970421 0.134956 0.225679
1.012746 0.123252 0.231041
1.042651 0.114312 0.236000
1.041996 0.106273 0.236970
1.105767 0.100603 0.248638
0.147101 0.209772 0.206920
0.146666 0.209541 0.206128
0.152846 0.210361 0.207633
0.156774 0.205943 0.206554
0.207529 0.244246 0.231316
0.284316 0.274181 0.228380
0.446196 0.278882 0.210339
0.609008 0.276581 0.199888
0.739173 0.266673 0.193548
0.840742 0.254707 0.195074
0.917481 0.242348 0.202309
0.975033 0.230006 0.211509
1.016630 0.217768 0.220111
1.046762 0.203500 0.225108
1.045533 0.188878 0.227842
1.108697 0.181748 0.240848
0.182101 0.275586 0.243395
0.180802 0.275337 0.241074
0.188940 0.276508 0.243151
0.203405 0.277386 0.245451
0.212735 0.269679 0.243266
0.293646 0.321781 0.277989
0.434564 0.354856 0.178591
0.615064 0.357625 0.121146
0.748556 0.351766 0.117242
0.850333 0.342275 0.134149
0.926537 0.329941 0.156817
0.983113 0.315956 0.177888
1.023714 0.301065 0.194929
1.051905 0.285616 0.208031
1.049701 0.265512 0.214245
1.112133 0.256410 0.229737
0.227346 0.359570 0.289290
0.225400 0.359269 0.285931
0.234161 0.360303 0.288164
0.252265 0.362343 0.291462
0.278597 0.363733 0.295504
0.297276 0.354437 0.293111
0.412411 0.422965 0.275225
0.604672 0.447221 -0.110872
0.751374 0.443012 -0.161967
0.857699 0.433135 -0.141940
0.935315 0.419084 -0.088286
0.992059 0.402041 0.096786
1.032235 0.383022 0.142937
1.059694 0.362921 0.169749
1.056590 0.337191 0.185696
1.118351 0.325625 0.206747
0.285482 0.459565 0.349517
0.283129 0.459253 0.345695
0.292456 0.460212 0.348122
0.312140 0.462271 0.351712
0.344886 0.465750 0.357754
0.386371 0.468557 0.364656
0.415699 0.462492 0.354657
0.579120 0.531130 0.183757
0.740743 0.538796 -0.204364
0.857983 0.528104 -0.223715
0.940511 0.510276 -0.204640
0.999278 0.488511 -0.170241
1.040008 0.464677 -0.121701
1.067525 0.439809 0.049307
1.063981 0.408350 0.124980
1.125328 0.394127 0.163575
0.357948 0.570471 0.424926
0.355261 0.570113 0.421268
0.365403 0.571145 0.423809
0.386476 0.573359 0.427744
0.420971 0.577060 0.434257
0.468378 0.582554 0.443783
0.519223 0.588714 0.447672
0.565552 0.593798 0.372007
0.718687 0.629948 0.101212
0.845414 0.623687 -0.244213
0.936908 0.602604 -0.266558
1.001311 0.576033 -0.252395
1.044969 0.547170 -0.223824
1.073879 0.517293 -0.186979
1.070694 0.479811 -0.135121
1.132360 0.462647 -0.045391
0.431549 0.669467 0.498383
0.428791 0.669102 0.495262
0.438781 0.670090 0.497547
0.459100 0.672183 0.501180
0.491551 0.675534 0.507037
0.535421 0.680436 0.515391
0.587707 0.686886 0.526004
0.634618 0.698070 0.497257
0.702736 0.707519 0.369317
0.823434 0.715049 -0.098722
0.921823 0.694938 -0.274555
0.994483 0.664898 -0.299447
1.044081 0.630953 -0.288985
1.076527 0.595838 -0.263106
1.075197 0.552162 -0.224289
1.138206 0.531846 -0.189820
0.495229 0.751382 0.558388
0.492658 0.751224 0.555794
0.501748 0.751974 0.557739
0.520020 0.753716 0.560795
0.548872 0.756607 0.565680
0.587665 0.760692 0.572626
0.633816 0.766057 0.581595
0.681220 0.774313 0.582564
0.729293 0.787865 0.526627
0.810872 0.801407 0.372002
0.900864 0.785044 -0.136679
0.977835 0.753042 -0.295436
1.034674 0.715647 -0.323002
1.073180 0.675469 -0.315935
1.075693 0.625521 -0.285610
1.141835 0.601830 -0.262776
0.546354 0.816046 0.604954
0.544173 0.815757 0.602864
0.552101 0.816476 0.604478
0.568031 0.818032 0.607023
0.593060 0.820423 0.611173
0.626557 0.823882 0.617006
0.666786 0.828425 0.624532
0.711826 0.834098 0.633485
0.753347 0.844308 0.617679
0.804196 0.858588 0.546763
0.893119 0.876168 0.380676
0.958366 0.840316 -0.151358
1.017359 0.799080 -0.307948
1.061982 0.755503 -0.338638
1.070169 0.699723 -0.326566
1.141316 0.672716 -0.318359
0.586107 0.865755 0.640441
0.584286 0.865574 0.638780
0.591065 0.866245 0.640116
0.604669 0.867487 0.642278
0.626025 0.869474 0.645717
0.654738 0.872414 0.650643
0.689614 0.876272 0.657003
0.729435 0.881027 0.664699
0.770769 0.887475 0.668743
0.809327 0.898585 0.639817
0.862068 0.913047 0.560531
0.955238 0.934314 0.389243
0.999421 0.883267 -0.149857
1.044332 0.834398 -0.313793
1.057899 0.774080 -0.338038
1.134875 0.744607 -0.355873
0.615361 0.902330 0.666320
0.613917 0.902155 0.665000
0.619645 0.902710 0.666132
0.631238 0.903761 0.667980
0.649393 0.905507 0.670842
0.673985 0.907899 0.675004
0.704186 0.911152 0.680313
0.739080 0.915161 0.686915
0.777804 0.919964 0.694761
0.814651 0.927690 0.689965
0.851886 0.938839 0.652369
0.905905 0.953390 0.567713
1.000987 0.977626 0.395661
1.028329 0.914383 -0.143594
1.040833 0.846436 -0.302485
1.122823 0.816272 -0.361235
0.636116 0.928248 0.684564
0.634935 0.928193 0.683576
0.639804 0.928550 0.684494
0.649641 0.929524 0.686096
0.665044 0.931007 0.688451
0.686140 0.933094 0.691988
0.712244 0.935790 0.696481
0.742813 0.939225 0.702133
0.777210 0.943277 0.708732
0.813579 0.948473 0.714972
0.846895 0.956925 0.701818
0.883451 0.967722 0.658358
0.937495 0.982158 0.571626
1.032746 1.007650 0.469203
1.027165 0.922255 -0.068553
1.104493 0.887195 -0.298380
0.635784 0.927817 0.684139
0.634867 0.927809 0.683346
0.638948 0.928169 0.684142
0.647141 0.928938 0.685394
0.660185 0.930129 0.687423
0.678189 0.931885 0.690433
0.700648 0.934177 0.694268
0.727430 0.937155 0.699029
0.757505 0.940564 0.704660
0.790531 0.944566 0.711298
0.823611 0.950173 0.713346
0.854457 0.958974 0.694402
0.889861 0.969117 0.647443
0.943974 0.983475 0.559774
1.028783 1.004807 0.464988
1.085140 0.957130 0.266256
0.779939 1.119971 0.812751
0.779527 1.119924 0.812192
0.782521 1.120089 0.812516
0.788298 1.120553 0.813045
0.796422 1.121234 0.814032
0.806147 1.122206 0.815349
0.816799 1.123439 0.816983
0.828676 1.124916 0.819180
0.843313 1.126760 0.822074
0.862526 1.129251 0.825914
0.887299 1.132340 0.830817
0.915047 1.137467 0.831998
0.929984 1.150011 0.794435
0.938370 1.170376 0.681991
0.971715 1.191011 0.487538
1.082296 1.196165 0.491088
-0.431090 -0.642161 -0.428163
-0.431898 -0.642488 -0.428577
-0.429997 -0.641295 -0.426642
-0.421792 -0.638981 -0.420900
-0.399057 -0.635658 -0.412920
-0.344311 -0.630943 -0.401736
0.514806 -0.690503 0.310727
0.658554 -0.695212 0.303287
0.798277 -0.702084 0.283667
0.906472 -0.707960 0.261804
0.985351 -0.712098 0.240970
1.040488 -0.714887 0.222332
1.075412 -0.716494 0.206283
1.093033 -0.717166 0.193411
1.078283 -0.716623 0.186848
1.132027 -0.718340 0.170708
0.100803 0.136262 0.163094
0.105734 0.142332 0.167128
0.113465 0.150553 0.173564
0.140890 0.168858 0.198686
0.187820 0.188984 0.223992
0.264789 0.210756 0.252785
0.410908 0.213285 0.284925
0.580142 0.196185 0.296542
0.716016 0.171617 0.297237
0.821867 0.146717 0.295555
0.902004 0.124782 0.293414
0.962344 0.106630 0.291293
1.005970 0.092296 0.288819
1.036914 0.081832 0.286102
1.037164 0.077453 0.279826
1.101787 0.069498 0.285887
0.121829 0.165882 0.185846
0.122066 0.164887 0.185462
0.124264 0.166082 0.187213
0.143606 0.173492 0.194671
0.186506 0.185415 0.207982
0.274573 0.195314 0.230007
0.426860 0.183781 0.239322
0.592225 0.152769 0.233497
0.725659 0.107558 0.225562
0.829481 0.032792 0.222567
0.908327 -0.078443 0.224843
0.967344 -0.091590 0.230099
1.010199 -0.092324 0.236106
1.040344 -0.085502 0.241955
1.039971 -0.071112 0.243878
1.104165 -0.067580 0.255474
0.147766 0.210541 0.218246
0.148637 0.210658 0.219700
0.148641 0.210143 0.212627
0.160888 0.210832 0.216666
0.205752 0.238570 0.235155
0.290322 0.259580 0.239121
0.441645 0.261934 0.237392
0.603553 0.255720 0.228808
0.734224 0.242510 0.222370
0.836414 0.228703 0.221923
0.914667 0.213984 0.224508
0.972882 0.201707 0.230602
1.014844 0.191066 0.236872
1.044327 0.181713 0.242446
1.043267 0.171082 0.244211
1.106857 0.165349 0.255382
0.182769 0.276149 0.256002
0.183534 0.276324 0.257242
0.181727 0.275505 0.244837
0.201016 0.277646 0.251036
0.216104 0.273301 0.251126
0.292447 0.317457 0.280757
0.438092 0.343516 0.197388
0.614006 0.343452 0.169841
0.745977 0.336207 0.167364
0.847422 0.326108 0.175850
0.923715 0.313871 0.189900
0.980467 0.300558 0.204557
1.021270 0.286792 0.217232
1.049756 0.272867 0.227238
1.047690 0.255007 0.232215
1.110384 0.246868 0.245504
0.228006 0.360036 0.302418
0.228654 0.360182 0.303286
0.225265 0.359235 0.287651
0.247315 0.361897 0.295115
0.276081 0.363913 0.299641
0.300208 0.357204 0.299280
0.412676 0.419425 0.276117
0.606568 0.438616 -0.045183
0.751242 0.432572 -0.116922
0.856508 0.422061 -0.077985
0.933666 0.407929 0.097679
0.990220 0.391377 0.147015
1.030376 0.373231 0.175482
1.057966 0.354124 0.195274
1.054933 0.329807 0.207528
1.116862 0.318865 0.224782
0.286175 0.460012 0.362108
0.286676 0.460101 0.362606
0.282263 0.459151 0.346120
0.305600 0.461676 0.353914
0.339721 0.465298 0.360083
0.383873 0.468621 0.367549
0.418304 0.464418 0.360341
0.580287 0.527807 0.189344
0.741947 0.532372 -0.188593
0.858096 0.520601 -0.203090
0.939858 0.502448 -0.177702
0.998288 0.480854 -0.132834
1.038802 0.457489 -0.032543
1.066269 0.433308 0.123261
1.062707 0.402852 0.159917
1.124147 0.388995 0.188112
0.358578 0.570841 0.435934
0.359053 0.570946 0.436174
0.354024 0.570002 0.421070
0.378758 0.572628 0.428753
0.414370 0.576362 0.435378
0.463647 0.582038 0.445110
0.517774 0.588389 0.451617
0.567276 0.595170 0.377089
0.719557 0.627406 0.117355
0.846301 0.619152 -0.233387
0.937319 0.597231 -0.252887
1.001131 0.570496 -0.235121
1.044406 0.541758 -0.202392
1.073043 0.512268 -0.158928
1.069814 0.475517 -0.086447
1.131403 0.458666 0.106461
0.432152 0.669819 0.507313
0.432527 0.669864 0.507414
0.427415 0.668989 0.494839
0.451375 0.671494 0.501677
0.484781 0.674864 0.507636
0.530090 0.679840 0.516117
0.584260 0.686450 0.527061
0.633395 0.697812 0.502355
0.703841 0.708473 0.374278
0.824089 0.713197 -0.075524
0.922568 0.691716 -0.266599
0.994885 0.660957 -0.289452
1.044191 0.627004 -0.276645
1.076165 0.591973 -0.247979
1.074725 0.548718 -0.204951
1.137518 0.528606 -0.165660
0.495764 0.751741 0.565605
0.496080 0.751784 0.565745
0.491409 0.751065 0.555482
0.513032 0.753116 0.561131
0.542645 0.756096 0.566062
0.582541 0.760233 0.573115
0.630118 0.765657 0.582222
0.679410 0.773702 0.585357
0.728116 0.787630 0.531542
0.811679 0.802047 0.376496
0.901458 0.783607 -0.123629
0.978318 0.750760 -0.288877
1.035107 0.712871 -0.315213
1.073406 0.672563 -0.306180
1.075554 0.622803 -0.273388
1.141379 0.599198 -0.248694
0.546788 0.816331 0.610895
0.547163 0.816296 0.611004
0.543158 0.815653 0.602601
0.561966 0.817514 0.607339
0.587553 0.819929 0.611493
0.621931 0.823421 0.617411
0.663197 0.828042 0.625051
0.709334 0.833787 0.634320
0.752047 0.843883 0.620857
0.803391 0.858499 0.550909
0.893671 0.876649 0.384874
0.958704 0.839296 -0.139480
1.017798 0.797322 -0.302118
1.062365 0.753485 -0.331975
1.070363 0.697635 -0.318079
1.141223 0.670529 -0.308522
0.586502 0.865988 0.645378
0.586810 0.866034 0.645465
0.583556 0.865475 0.638712
0.599581 0.866965 0.642601
0.621423 0.869082 0.646111
0.650761 0.872071 0.651029
0.686343 0.875905 0.657461
0.726874 0.880691 0.665256
0.769208 0.887076 0.670430
0.808311 0.898301 0.642959
0.861407 0.912943 0.564389
0.955589 0.934753 0.393351
0.999653 0.882505 -0.137075
1.044724 0.833028 -0.308427
1.058255 0.772580 -0.331783
1.135058 0.743014 -0.348947
0.615674 0.902479 0.670447
0.615947 0.902525 0.670516
0.613466 0.902101 0.665041
0.627000 0.903461 0.668329
0.645555 0.905173 0.671299
0.670534 0.907661 0.675426
0.701302 0.910893 0.680836
0.736686 0.914960 0.687412
0.775925 0.919848 0.695345
0.813571 0.927348 0.692015
0.851135 0.938536 0.655316
0.905283 0.953316 0.571303
1.001312 0.977951 0.399268
1.028682 0.913806 -0.131273
1.041154 0.845484 -0.296875
1.123105 0.815072 -0.355845
0.636410 0.928458 0.688029
0.636688 0.928504 0.688116
0.634858 0.928190 0.683770
0.646248 0.929250 0.686508
0.661916 0.930720 0.688894
0.683280 0.932758 0.692442
0.709829 0.935563 0.697050
0.740738 0.939016 0.702688
0.775495 0.943144 0.709372
0.812428 0.948219 0.716024
0.846209 0.956608 0.703923
0.882854 0.967516 0.660896
0.937018 0.982113 0.574789
1.032984 1.007859 0.472018
1.027337 0.921789 0.044657
1.104731 0.886433 -0.293402
0.636024 0.928010 0.687007
0.636285 0.928060 0.687182
0.634937 0.927847 0.683739
0.644538 0.928721 0.686010
0.657781 0.929960 0.688082
0.675904 0.931633 0.691019
0.698676 0.934051 0.694911
0.725696 0.936949 0.699646
0.756064 0.940347 0.705373
0.789262 0.944577 0.712068
0.822886 0.949949 0.714670
0.854001 0.958744 0.696418
0.889429 0.968985 0.650058
0.943666 0.983553 0.562837
1.028942 1.004929 0.468460
1.085270 0.956797 0.270968
0.779852 1.119934 0.814182
0.779918 1.119911 0.814083
0.779113 1.119663 0.811524
0.785736 1.120223 0.812627
0.794079 1.121000 0.813367
0.803943 1.121976 0.814295
0.814716 1.123162 0.815646
0.826632 1.124632 0.817552
0.841462 1.126545 0.820267
0.860998 1.128938 0.824041
0.885990 1.132113 0.829167
0.914023 1.137200 0.830667
0.929356 1.149841 0.793512
0.938033 1.170148 0.681621
0.971191 1.191028 0.485139
1.082306 1.196236 0.489023
-0.428721 -0.640879 -0.418756
-0.428548 -0.640883 -0.418359
-0.423944 -0.639631 -0.415503
-0.420024 -0.638522 -0.414192
-0.396605 -0.635075 -0.401593
-0.341254 -0.630331 -0.385853
0.515805 -0.690654 0.360711
0.659798 -0.695498 0.363782
0.799103 -0.702426 0.353244
0.907027 -0.708205 0.338068
0.985741 -0.712367 0.323375
1.037150 -0.713219 0.313685
1.070719 -0.714162 0.301231
1.089146 -0.715330 0.285456
1.078294 -0.716711 0.256284
1.127223 -0.715789 0.264248
0.113500 0.152054 0.208790
0.111526 0.149161 0.206906
0.128449 0.161685 0.215497
0.141513 0.170500 0.217270
0.189707 0.191510 0.252231
0.264615 0.213720 0.284428
0.384297 0.233330 0.323470
0.556803 0.223429 0.357570
0.697734 0.203813 0.368218
0.807019 0.183645 0.369444
0.889958 0.165615 0.365871
0.952286 0.150373 0.359729
0.997740 0.137388 0.352141
1.029865 0.127149 0.343857
1.031341 0.118699 0.330883
1.096807 0.111545 0.332117
0.134329 0.186669 0.226984
0.135103 0.187187 0.227087
0.125838 0.167614 0.218886
0.146223 0.177808 0.223613
0.190609 0.194439 0.248875
0.264927 0.215199 0.276970
0.392142 0.229423 0.314124
0.565439 0.215939 0.339336
0.704893 0.194577 0.345105
0.813043 0.173044 0.344301
0.894936 0.154294 0.340560
0.956406 0.138995 0.335316
1.001181 0.126386 0.329223
1.032798 0.116842 0.322753
1.033774 0.110255 0.312309
1.098842 0.103739 0.315174
0.146935 0.208511 0.233232
0.148250 0.209415 0.234297
0.150344 0.211163 0.237025
0.164466 0.215048 0.241637
0.200112 0.221514 0.247780
0.269124 0.230660 0.259758
0.420014 0.218835 0.272805
0.588419 0.191505 0.266777
0.722941 0.159999 0.259036
0.827350 0.133082 0.256328
0.906484 0.116862 0.258793
0.965820 0.112981 0.264198
1.008758 0.117735 0.270491
1.039006 0.127185 0.276762
1.038600 0.137994 0.279678
1.102846 0.140346 0.289296
0.183948 0.277286 0.278970
0.184709 0.277461 0.279765
0.185315 0.277274 0.275963
0.194297 0.278032 0.267681
0.222255 0.279875 0.274242
0.290761 0.310283 0.294642
0.440293 0.322440 0.263621
0.606686 0.318838 0.255986
0.737453 0.309382 0.251997
0.839217 0.298497 0.253220
0.916113 0.287641 0.258321
0.973648 0.277180 0.264955
1.015617 0.266552 0.270796
1.045539 0.255604 0.275011
1.044113 0.244191 0.277184
1.107429 0.238122 0.285948
0.229303 0.361002 0.326398
0.229927 0.361181 0.327050
0.230249 0.360905 0.320912
0.234864 0.360810 0.304579
0.272146 0.364505 0.314848
0.305649 0.362226 0.317697
0.413733 0.412826 0.293248
0.608894 0.422398 0.185335
0.748805 0.414077 0.178518
0.852238 0.403184 0.193382
0.928739 0.389953 0.212407
0.985249 0.375302 0.230137
1.025594 0.359734 0.244368
1.053427 0.343766 0.254952
1.050686 0.323779 0.261640
1.113052 0.314650 0.272624
0.287480 0.460885 0.385348
0.287997 0.460974 0.385780
0.288141 0.460745 0.378574
0.289447 0.460215 0.358103
0.330904 0.464702 0.370424
0.379737 0.468963 0.378520
0.423828 0.467671 0.378371
0.582725 0.521610 0.224489
0.743795 0.520625 -0.083429
0.857437 0.507369 -0.084333
0.937809 0.489598 0.100697
0.995387 0.469141 0.155811
1.035550 0.447430 0.189799
1.062864 0.425327 0.213340
1.059335 0.397921 0.230642
