luts/5.cube
LUT_3D_SIZE 6
0.094872 0.128415 0.140348
0.139104 0.165216 0.179399
0.430391 0.193169 0.234711
0.830877 0.103168 0.220844
1.011110 -0.057952 0.231400
1.104803 -0.064114 0.247868
0.146840 0.209600 0.203986
0.156250 0.205328 0.203781
0.446831 0.282111 0.201901
0.841657 0.259542 0.186431
1.017138 0.222308 0.214495
1.109120 0.184021 0.236164
0.284747 0.459404 0.345600
0.313384 0.462365 0.350824
0.415078 0.462162 0.352942
0.857836 0.529720 -0.229190
1.040295 0.466098 -0.134514
1.125656 0.394910 0.155164
0.494472 0.751208 0.556075
0.521470 0.753870 0.560538
0.634568 0.766160 0.581320
0.810805 0.801205 0.370508
1.034556 0.716237 -0.325368
1.141910 0.602260 -0.266803
0.614954 0.902262 0.665031
0.632033 0.903870 0.667771
0.704743 0.911237 0.680108
0.814876 0.927792 0.689479
1.000901 0.977611 0.394549
1.122796 0.816451 -0.362832
0.779996 1.120054 0.812429
0.788776 1.120627 0.813295
0.817216 1.123457 0.817779
0.862754 1.129323 0.826869
0.930321 1.150020 0.795529
1.082287 1.196153 0.492616
-0.428721 -0.640879 -0.418756
-0.420024 -0.638522 -0.414192
0.515805 -0.690654 0.360711
0.907027 -0.708205 0.338068
1.070719 -0.714162 0.301231
1.127223 -0.715789 0.264248
0.146935 0.208511 0.233232
0.164466 0.215048 0.241637
0.420014 0.218835 0.272805
0.827350 0.133082 0.256328
1.008758 0.117735 0.270491
1.102846 0.140346 0.289296
0.287480 0.460885 0.385348
0.289447 0.460215 0.358103
0.423828 0.467671 0.378371
0.857437 0.507369 -0.084333
1.035550 0.447430 0.189799
1.120855 0.385516 0.246849
0.496765 0.752347 0.579710
0.496162 0.751573 0.560462
0.623704 0.765078 0.586053
0.812948 0.803143 0.392469
1.035760 0.708473 -0.283830
1.140208 0.596654 -0.192957
0.616279 0.902867 0.678533
0.618193 0.902675 0.669187
0.696967 0.910581 0.683763
0.812443 0.926867 0.697687
1.001634 0.978357 0.412596
1.123548 0.813594 -0.334316
0.779732 1.119891 0.816778
0.781846 1.119812 0.812782
0.812550 1.122995 0.815696
0.859278 1.128764 0.823255
0.929309 1.149425 0.795523
1.082373 1.196369 0.493159
-0.414560 -0.632947 -0.086966
-0.379929 -0.629422 0.105094
-0.238496 -0.622707 0.154405
0.719070 -0.626385 0.504661
0.973112 -0.662331 0.537835
1.070730 -0.684624 0.483788
0.197979 0.288294 0.451593
0.167309 0.212849 0.439915
0.373841 0.273088 0.457775
0.729705 0.321632 0.552452
0.951522 0.280329 0.542323
1.069356 0.242381 0.494861
0.288848 0.457193 0.487484
0.298908 0.461564 0.491837
0.445321 0.484221 0.514883
0.802645 0.492920 0.549401
0.992153 0.499046 0.558386
1.089081 0.505426 0.564736
0.503342 0.756184 0.659680
0.508500 0.756263 0.652897
0.607890 0.765901 0.652700
0.815799 0.805482 0.566057
1.031285 0.709885 0.466082
1.122767 0.639313 0.501909
0.620319 0.905099 0.728684
0.624542 0.905139 0.723465
0.709065 0.913970 0.741170
0.820503 0.927796 0.758544
1.000902 0.977355 0.565611
1.122376 0.826190 0.397085
0.780049 1.120099 0.827380
0.779446 1.119979 0.823699
0.842868 1.127742 0.855817
0.881066 1.132660 0.858736
0.945341 1.150863 0.844581
1.081989 1.195782 0.615592
-0.392079 -0.620856 0.589191
-0.342518 -0.617085 0.593930
0.162027 -0.607479 0.600141
0.599080 -0.585381 0.626529
0.831904 -0.587479 0.630647
0.997354 -0.641279 0.596315
0.237407 0.330568 0.660005
0.200214 0.243679 0.651871
0.433872 0.312431 0.668880
0.694020 0.380436 0.706442
0.864064 0.400857 0.698313
1.007060 0.352333 0.662095
0.346759 0.532236 0.695440
0.343814 0.516793 0.692010
0.463678 0.500674 0.695596
0.727557 0.545260 0.736929
0.902404 0.548149 0.729628
1.035370 0.522532 0.696921
0.514330 0.762646 0.773993
0.521222 0.764634 0.775632
0.618159 0.776238 0.786373
0.805558 0.800301 0.808998
0.984646 0.803730 0.819143
1.082659 0.807643 0.821087
0.627999 0.909384 0.809927
0.632288 0.909623 0.807578
0.707909 0.917163 0.816275
0.872447 0.940274 0.872211
0.992285 0.967800 0.794859
1.111605 0.890044 0.762564
0.782729 1.121707 0.856760
0.781997 1.121649 0.854114
0.837219 1.128235 0.875231
0.977617 1.149280 0.962322
0.980238 1.167199 0.921183
1.079633 1.192597 0.837779
-0.377849 -0.613460 0.717620
-0.337905 -0.610570 0.720135
-0.160500 -0.603352 0.723340
0.460803 -0.588142 0.726587
0.778181 -0.546671 0.770531
0.889917 -0.568676 0.685347
0.253891 0.336821 0.765073
0.235011 0.282220 0.760776
0.408631 0.325274 0.770819
0.628376 0.378768 0.791579
0.853161 0.452730 0.836779
0.937052 0.444370 0.772996
0.340895 0.507491 0.787750
0.338472 0.491521 0.785165
0.495327 0.527579 0.798746
0.666442 0.543369 0.815946
0.876102 0.589994 0.858854
0.964737 0.580123 0.806397
0.478316 0.708029 0.836511
0.479965 0.702565 0.835181
0.584100 0.713746 0.843787
0.822976 0.816999 0.892087
0.931641 0.824608 0.912813
1.026768 0.818932 0.896098
0.648116 0.927248 0.921555
0.652978 0.928146 0.922370
0.724894 0.934921 0.928709
0.875708 0.949122 0.942555
0.986247 0.956931 0.937471
1.096421 0.952433 0.934075
0.789154 1.125708 0.928552
0.790137 1.125803 0.927360
0.849395 1.132640 0.941755
0.988508 1.152276 0.995344
1.003360 1.190712 0.934341
1.113048 1.171616 1.054001
-0.373774 -0.611310 0.751815
-0.347486 -0.609465 0.753236
-0.261281 -0.605142 0.755541
0.228962 -0.598033 0.758732
0.574713 -0.573032 0.780575
0.861509 -0.520957 0.830172
0.260053 0.333143 0.814911
0.256972 0.306648 0.813109
0.374072 0.328902 0.818772
0.553815 0.367929 0.832081
0.732842 0.420164 0.853476
0.928286 0.486361 0.886641
0.323862 0.467355 0.829536
0.324774 0.455649 0.828151
0.517611 0.546493 0.849665
0.619900 0.539769 0.856514
0.771394 0.571356 0.876760
0.947700 0.612275 0.906974
0.429904 0.635383 0.861312
0.432215 0.629838 0.860335
0.558508 0.664149 0.873878
0.836350 0.829874 0.936035
0.887607 0.821117 0.940401
0.996785 0.838559 0.958717
0.558441 0.809340 0.909974
0.561922 0.807376 0.909642
0.655632 0.825184 0.919868
0.853537 0.899361 0.956755
0.978092 0.966104 0.990333
1.034148 0.971136 0.997353
0.711414 1.007996 0.982738
0.715338 1.008549 0.983069
0.777496 1.013935 0.988945
0.914563 1.026765 1.004459
1.004428 1.036185 1.017324
1.062703 1.048887 1.028783
