luts/6.cube
TITLE "Generated by Resolve"
LUT_3D_SIZE 9
0 0.0898909 0.168551
0.154528 0.0539406 0.133364
0.287129 0.0326085 0.112749
0.417182 0.0198367 0.10045
0.543862 0.0129702 0.0938735
0.661875 0.00918593 0.0903029
0.769711 0.00888075 0.0901198
0.864103 0.0131685 0.0943313
0.935485 0.024094 0.104829
0 0.156527 0.167788
0.166766 0.131365 0.142535
0.31249 0.120302 0.131716
0.447257 0.112978 0.124727
0.572717 0.109102 0.121431
0.694011 0.106676 0.119066
0.803021 0.108492 0.120928
0.8981 0.114534 0.12665
0.970001 0.127275 0.138415
0 0.262379 0.171038
0.169757 0.238483 0.146761
0.318135 0.228962 0.137331
0.428305 0.230503 0.140688
0.533547 0.233845 0.145708
0.704723 0.220111 0.129183
0.815015 0.223499 0.132433
0.910964 0.230838 0.139193
0.983658 0.245045 0.151965
0 0.378134 0.172045
0.168887 0.354879 0.148119
0.306477 0.350149 0.143847
0.412177 0.354742 0.149889
0.534203 0.355077 0.150881
0.710719 0.341543 0.134905
0.821576 0.345693 0.138781
0.918059 0.353857 0.146166
0.99118 0.368948 0.159457
0 0.500389 0.171878
0.167391 0.477836 0.148379
0.31931 0.470939 0.141192
0.440009 0.472358 0.14342
0.566796 0.472267 0.143771
0.713512 0.467491 0.137606
0.824537 0.471885 0.141665
0.92105 0.480232 0.149096
0.993927 0.495338 0.162203
0 0.626062 0.172122
0.168093 0.604044 0.148959
0.321782 0.59733 0.141772
0.461433 0.593957 0.138323
0.592966 0.593118 0.137469
0.714748 0.594415 0.13875
0.825437 0.598505 0.142519
0.921736 0.606714 0.149783
0.993622 0.620829 0.161898
0 0.750988 0.174319
0.174731 0.729763 0.151827
0.326497 0.722927 0.14461
0.465217 0.719326 0.140993
0.595895 0.718013 0.139773
0.716808 0.718608 0.140475
0.826596 0.721828 0.143557
0.921798 0.728878 0.149813
0.992554 0.741802 0.16083
0 0.870954 0.179049
0.188022 0.850843 0.157794
0.336309 0.843915 0.150637
0.473091 0.83978 0.146639
0.601938 0.837324 0.144549
0.721325 0.836728 0.14432
0.829877 0.838849 0.146502
0.923354 0.844053 0.151263
0.992752 0.855528 0.161028
0.0678721 0.969299 0.188388
0.224826 0.958953 0.177249
0.36585 0.95227 0.170596
0.498634 0.947646 0.166323
0.624155 0.943877 0.163241
0.741115 0.942046 0.162036
0.846952 0.942061 0.162524
0.936782 0.943618 0.16437
1 0.949889 0.169924
0 0.0905318 0.180026
0.158785 0.0563973 0.146426
0.292561 0.0364843 0.127062
0.424796 0.0259251 0.116793
0.551415 0.0194858 0.110567
0.669306 0.0159304 0.107179
0.777157 0.0159304 0.107271
0.871534 0.0204318 0.111711
0.942855 0.0315251 0.122438
0 0.161059 0.182544
0.176684 0.137316 0.158709
0.321111 0.126848 0.14844
0.455375 0.119936 0.141802
0.576638 0.117296 0.140688
0.701671 0.114168 0.136568
0.810651 0.116289 0.138705
0.905608 0.122454 0.144594
0.977462 0.135348 0.156634
0 0.267857 0.186374
0.180392 0.244999 0.16318
0.327321 0.236133 0.154391
0.428122 0.240162 0.163699
0.540902 0.241367 0.16817
0.712688 0.228199 0.147036
0.822766 0.231724 0.150423
0.918608 0.239216 0.157397
0.991379 0.253727 0.170581
0 0.384085 0.187564
0.18024 0.361883 0.164752
0.322042 0.356252 0.159915
0.42063 0.362509 0.171313
0.542397 0.36286 0.17377
0.718929 0.350103 0.153017
0.82945 0.354269 0.156939
0.92575 0.362509 0.164477
0.998734 0.377676 0.177996
0 0.506813 0.187625
0.179263 0.485206 0.165133
0.329671 0.478874 0.158587
0.449516 0.480369 0.162585
0.563195 0.483711 0.169055
0.72163 0.476112 0.155627
0.832364 0.480583 0.159777
0.928923 0.489281 0.16762
1 0.504051 0.180606
0 0.6327 0.18793
0.180301 0.611719 0.16585
0.331716 0.605463 0.159197
0.470329 0.602365 0.156039
0.601358 0.601633 0.155291
0.722698 0.602991 0.156619
0.833036 0.60708 0.160433
0.929046 0.615228 0.167727
1 0.629297 0.179965
0 0.757473 0.189944
0.186465 0.737362 0.168658
0.336156 0.730999 0.161944
0.47393 0.727581 0.158526
0.603952 0.726299 0.157366
0.724392 0.726879 0.158068
0.834028 0.730312 0.161334
0.928679 0.737011 0.167376
0.999176 0.749813 0.178439
0.00704967 0.876616 0.193927
0.199069 0.858305 0.174609
0.345464 0.851713 0.167819
0.481514 0.847883 0.164111
0.609537 0.845258 0.161883
0.728405 0.844541 0.161547
0.836591 0.846601 0.163684
0.929747 0.851682 0.168383
0.998932 0.863066 0.178195
0.0827344 0.97528 0.204074
0.234638 0.966171 0.194232
0.374228 0.959686 0.187808
0.506111 0.955032 0.183536
0.631083 0.951263 0.180407
0.747616 0.949371 0.179126
0.852552 0.948638 0.178988
0.941863 0.949737 0.180438
1 0.955123 0.185306
0 0.0907912 0.208118
0.161517 0.0581064 0.175692
0.297841 0.0403601 0.158145
0.430945 0.0309453 0.148852
0.55761 0.0249027 0.142901
0.675471 0.0216068 0.139681
0.783475 0.021973 0.140063
0.877745 0.026566 0.144625
0.949065 0.0378424 0.155734
0 0.164691 0.213596
0.184604 0.14226 0.191089
0.328191 0.132342 0.181292
0.462287 0.125917 0.175067
0.577188 0.124666 0.178241
0.70811 0.1205 0.170016
0.816999 0.122805 0.17232
0.91194 0.129137 0.178454
0.983978 0.142428 0.191089
0 0.272023 0.217685
0.189075 0.250523 0.195911
0.33492 0.242191 0.18761
0.4374 0.24564 0.200092
0.550088 0.246738 0.207294
0.7196 0.235248 0.181064
0.829374 0.238743 0.184466
0.925109 0.246357 0.191653
0.997818 0.260975 0.205234
0 0.388876 0.219211
0.189624 0.36791 0.197726
0.337865 0.361013 0.190692
0.427131 0.36907 0.21088
0.548623 0.36939 0.215396
0.725811 0.35729 0.187091
0.836179 0.361593 0.19118
0.93254 0.370153 0.19913
1 0.385107 0.212757
0 0.512062 0.219471
0.18912 0.491585 0.198245
0.338704 0.485542 0.191943
0.458412 0.486931 0.198093
0.568109 0.491295 0.209583
0.728542 0.483452 0.189746
0.839033 0.487984 0.194003
0.935378 0.496681 0.201984
1 0.511437 0.215244
0 0.638148 0.219821
0.190555 0.618433 0.199161
0.340063 0.612421 0.192844
0.474937 0.610254 0.191516
0.607538 0.60911 0.189776
0.729442 0.610254 0.1906
0.839521 0.614389 0.194491
0.935225 0.622415 0.201816
1 0.636393 0.214252
0 0.762676 0.221637
0.196185 0.743877 0.201862
0.344259 0.73785 0.195544
0.481575 0.73489 0.192523
0.610758 0.733318 0.191135
0.73077 0.733837 0.191775
0.840116 0.737255 0.195056
0.934478 0.743816 0.201083
1 0.756573 0.212329
0.0319677 0.878889 0.222965
0.208148 0.864637 0.207858
0.353079 0.858289 0.201358
0.488304 0.854475 0.197681
0.615839 0.85185 0.195422
0.734447 0.851225 0.195117
0.8421 0.852949 0.196963
0.935012 0.857939 0.201648
1 0.869108 0.21149
0.0941482 0.980529 0.236835
0.242588 0.972137 0.227832
0.381292 0.966018 0.221744
0.512215 0.961089 0.217212
0.636698 0.957244 0.213962
0.752819 0.955215 0.212482
0.85687 0.953658 0.211582
0.945739 0.954391 0.21268
1 0.958953 0.216922
0 0.0889448 0.29749
0.157443 0.0562142 0.264408
0.298131 0.0408331 0.248768
0.43209 0.0320592 0.23978
0.558709 0.0260014 0.233509
0.67686 0.0229496 0.230289
0.785061 0.0235294 0.230793
0.879393 0.0282139 0.235569
0.950896 0.0396887 0.24744
0 0.16556 0.305806
0.185718 0.143267 0.283513
0.329519 0.133547 0.273808
0.463355 0.127474 0.267979
0.576608 0.126467 0.275242
0.709972 0.122347 0.262623
0.818952 0.124773 0.265049
0.913924 0.131212 0.271473
0.98616 0.144732 0.284962
0 0.273289 0.31014
0.191089 0.252094 0.288838
0.336996 0.244007 0.280751
0.472908 0.239384 0.276173
0.565499 0.244862 0.300862
0.697108 0.242756 0.295781
0.831647 0.241123 0.277958
0.927413 0.248829 0.285512
1 0.263447 0.299733
0 0.390509 0.311803
0.192325 0.36994 0.290944
0.340414 0.363241 0.284169
0.477409 0.359579 0.280522
0.54992 0.371038 0.32163
0.686198 0.368719 0.316518
0.838605 0.364187 0.285054
0.935012 0.372854 0.293416
1 0.387686 0.307591
0 0.514015 0.312169
0.192416 0.494011 0.291707
0.34165 0.487968 0.285527
0.476585 0.485618 0.284459
0.567864 0.493736 0.313787
0.685908 0.495521 0.323018
0.841459 0.490608 0.287953
0.937713 0.49926 0.296193
1 0.513909 0.310002
0 0.640253 0.312642
0.193835 0.620859 0.292653
0.342947 0.614954 0.286564
0.4804 0.612329 0.284108
0.593927 0.615122 0.296651
0.700862 0.619028 0.313115
0.842023 0.617105 0.288518
0.937331 0.62475 0.295766
1 0.638544 0.308629
0.00358587 0.764782 0.314687
0.199298 0.746227 0.295537
0.346929 0.74023 0.289357
0.48397 0.737209 0.286305
0.611673 0.735882 0.285954
0.732815 0.736019 0.285328
0.841978 0.739269 0.288518
0.936202 0.745724 0.294621
1 0.758434 0.306386
0.0378882 0.880217 0.315892
0.210742 0.866682 0.301808
0.355306 0.860319 0.295354
0.490242 0.856367 0.291508
0.617563 0.853635 0.289021
0.736141 0.853025 0.288624
0.843488 0.854429 0.29015
0.936263 0.859297 0.29482
1 0.870161 0.304845
0.0967575 0.982116 0.331609
0.244404 0.973678 0.322789
0.382895 0.967529 0.31667
0.513527 0.962402 0.311833
0.637873 0.95845 0.308278
0.753521 0.955901 0.306172
0.857038 0.953719 0.304479
0.945174 0.953536 0.304631
1 0.957702 0.308629
0 0.0862593 0.405417
0.152605 0.0538033 0.372244
0.296925 0.0401465 0.358144
0.431434 0.0316625 0.349203
0.558312 0.025742 0.342809
0.676738 0.0229038 0.33959
0.785199 0.023682 0.34023
0.879652 0.0284733 0.345235
0.951492 0.0402838 0.357977
0 0.165484 0.416968
0.185061 0.143069 0.394614
0.329198 0.133425 0.384894
0.463828 0.127443 0.378775
0.590738 0.123705 0.375219
0.710079 0.122988 0.374456
0.819501 0.125338 0.376425
0.91458 0.131884 0.383139
0.986877 0.145464 0.397253
0 0.273533 0.421561
0.191272 0.252399 0.400488
0.337636 0.244617 0.392706
0.473442 0.239918 0.387991
0.597955 0.238514 0.389288
0.711177 0.240635 0.397711
0.832532 0.242039 0.390082
0.928573 0.25005 0.398184
1 0.264454 0.412787
0 0.391104 0.423423
0.193149 0.370642 0.40293
0.341344 0.36408 0.396338
0.47837 0.360494 0.392767
0.608392 0.359548 0.391806
0.699382 0.366888 0.422171
0.820264 0.368704 0.421027
0.93608 0.373999 0.406226
1 0.388785 0.420951
0 0.514885 0.423941
0.193942 0.495171 0.404059
0.342855 0.489052 0.39791
0.480583 0.486091 0.394934
0.611048 0.485618 0.394446
0.685649 0.496406 0.442298
0.811368 0.497444 0.440269
0.93872 0.500343 0.408988
1 0.51487 0.42327
0 0.64123 0.424521
0.195239 0.621958 0.404974
0.344182 0.616068 0.399008
0.482155 0.613474 0.396384
0.59794 0.613825 0.416495
0.678828 0.618143 0.47602
0.81091 0.623163 0.443961
0.938079 0.625574 0.408316
1 0.639307 0.421607
0.00579843 0.765743 0.426795
0.200504 0.747204 0.407965
0.347967 0.741192 0.401862
0.48484 0.738064 0.398733
0.612924 0.736522 0.397864
0.71957 0.739376 0.413794
0.835981 0.740719 0.410208
0.936568 0.746059 0.406653
1 0.758618 0.418738
0.0394598 0.880858 0.428229
0.21149 0.867338 0.41442
0.356222 0.861173 0.408194
0.4907 0.856825 0.403922
0.617838 0.85388 0.401144
0.736309 0.853147 0.400519
0.843519 0.854383 0.401831
0.936278 0.859205 0.406546
1 0.869444 0.416373
0.0970016 0.982437 0.44506
0.244465 0.973816 0.43624
0.382788 0.967468 0.429908
0.513344 0.962219 0.424826
0.637705 0.958236 0.421057
0.75259 0.954787 0.417899
0.855741 0.952117 0.415534
0.943206 0.951034 0.414694
1 0.954742 0.418326
0 0.0826581 0.527718
0.147967 0.0513619 0.495628
0.294453 0.0384527 0.482185
0.429587 0.0302129 0.47332
0.556817 0.0244602 0.46688
0.675563 0.0218509 0.463722
0.784207 0.0227359 0.464439
0.878843 0.0276799 0.469718
0.950881 0.0396429 0.483085
0 0.164569 0.542885
0.183032 0.141894 0.520378
0.328023 0.13257 0.510918
0.462638 0.126436 0.504524
0.590326 0.122805 0.500618
0.709865 0.122255 0.499901
0.818967 0.124758 0.502419
0.91426 0.131533 0.509544
0.986557 0.145098 0.524132
0 0.272969 0.547875
0.190051 0.251682 0.526802
0.336828 0.244007 0.519158
0.472831 0.239399 0.514458
0.601877 0.237324 0.512306
0.722316 0.238102 0.51313
0.832227 0.24184 0.516976
0.928527 0.249989 0.525322
1 0.264347 0.540398
0 0.390845 0.549966
0.192752 0.370443 0.529747
0.341024 0.363851 0.523217
0.478187 0.360342 0.519707
0.608316 0.359457 0.518807
0.725628 0.361608 0.523796
0.831998 0.366766 0.534234
0.93608 0.373983 0.533623
1 0.388724 0.548837
0 0.514855 0.550652
0.19379 0.495109 0.531029
0.342809 0.489036 0.524987
0.480751 0.486259 0.522225
0.611048 0.485618 0.521584
0.731502 0.487282 0.524575
0.810819 0.49604 0.575784
0.925826 0.501747 0.559243
1 0.514672 0.551049
0 0.641443 0.551492
0.195209 0.621973 0.532052
0.344167 0.616068 0.526162
0.482109 0.613428 0.523522
0.589181 0.614252 0.565103
0.664576 0.618326 0.649271
0.778897 0.621439 0.643626
0.926757 0.626245 0.556924
1 0.638911 0.553002
0.00552377 0.765759 0.553811
0.200275 0.747097 0.535103
0.348013 0.741238 0.529244
0.484535 0.737774 0.52578
0.608927 0.736324 0.531533
0.669841 0.741482 0.633112
0.75787 0.744839 0.669322
0.935836 0.745174 0.533181
1 0.757549 0.54551
0.0381933 0.880766 0.555581
0.210834 0.866911 0.54168
0.355489 0.860548 0.535302
0.489937 0.856092 0.530861
0.617029 0.85304 0.52784
0.727367 0.852735 0.539681
0.842466 0.853147 0.528008
0.935103 0.857771 0.532601
1 0.867216 0.54197
0.0954452 0.98172 0.573022
0.24332 0.972961 0.564218
0.38143 0.966262 0.557534
0.51194 0.96083 0.552132
0.636194 0.956619 0.547982
0.750408 0.952316 0.54377
0.853239 0.949157 0.540688
0.940185 0.947356 0.538979
1 0.950469 0.542092
0 0.0784924 0.659434
0.143587 0.0489204 0.629313
0.291615 0.036408 0.616205
0.426947 0.0280613 0.607065
0.554604 0.0225223 0.600671
0.673777 0.0202029 0.597726
0.782452 0.0210727 0.598337
0.877348 0.0261997 0.603952
0.949508 0.0382544 0.617838
0 0.163043 0.678401
0.180133 0.140032 0.655665
0.325811 0.130816 0.646281
0.460731 0.124758 0.639872
0.588708 0.121279 0.636011
0.708492 0.120897 0.635416
0.817716 0.123491 0.638041
0.913375 0.130587 0.645701
0.985565 0.144045 0.660609
0 0.271809 0.683879
0.187976 0.250294 0.662715
0.335271 0.24271 0.655192
0.471519 0.238193 0.650553
0.600931 0.236408 0.648646
0.721447 0.23711 0.649287
0.831464 0.240894 0.653208
0.927718 0.249119 0.661952
1 0.263523 0.677546
0 0.38999 0.686259
0.191608 0.369604 0.666285
0.33991 0.36289 0.659678
0.477256 0.359472 0.656245
0.607477 0.358633 0.65539
0.728542 0.360098 0.65687
0.839261 0.364858 0.661799
0.935073 0.373266 0.671
1 0.38793 0.686213
0 0.514199 0.687114
0.192798 0.494377 0.667643
0.341955 0.488289 0.661677
0.480156 0.485679 0.659129
0.610315 0.484886 0.658305
0.731456 0.486488 0.659937
0.841184 0.491386 0.665751
0.933715 0.499931 0.679637
1 0.513848 0.695094
0 0.640955 0.688167
0.194308 0.621286 0.668772
0.343374 0.615366 0.662928
0.481285 0.612634 0.660243
0.611078 0.611521 0.659098
0.714214 0.614038 0.699611
0.821332 0.617685 0.708278
0.921431 0.62475 0.703243
1 0.637644 0.686839
0.00395209 0.765148 0.690547
0.199176 0.746273 0.671855
0.346975 0.740322 0.665965
0.483436 0.736706 0.662333
0.612146 0.734737 0.660319
0.708766 0.736721 0.707897
0.76321 0.742214 0.818891
0.861387 0.747402 0.815198
0.948531 0.758099 0.792081
0.0350805 0.88014 0.692714
0.209293 0.865751 0.678431
0.353948 0.859174 0.67187
0.48835 0.854536 0.667201
0.61561 0.85156 0.664149
0.728664 0.850507 0.672023
0.76968 0.855879 0.797909
0.840391 0.860945 0.842313
0.924102 0.868025 0.818708
0.0927596 0.980285 0.710384
0.241352 0.971405 0.701579
0.379309 0.964324 0.694469
0.509728 0.958618 0.688701
0.633692 0.953964 0.68394
0.746899 0.949081 0.679911
0.805798 0.948211 0.754894
0.854459 0.948043 0.820584
0.993408 0.945708 0.683757
0 0.0746624 0.794064
0.139361 0.0464332 0.765637
0.288472 0.0340429 0.75259
0.424216 0.0257877 0.743404
0.552224 0.0204013 0.737057
0.671717 0.0182803 0.734249
0.78056 0.0192416 0.734936
0.875761 0.0246281 0.740963
0.947997 0.0367285 0.755276
0 0.161303 0.816297
0.177157 0.138018 0.793378
0.323476 0.128893 0.7841
0.458747 0.122972 0.777752
0.587076 0.119722 0.77406
0.706966 0.119387 0.77348
0.816342 0.122103 0.776242
0.912139 0.12932 0.784192
0.984405 0.14284 0.799542
0 0.270436 0.822293
0.186297 0.249027 0.801419
0.333547 0.241245 0.793667
0.4701 0.236866 0.789166
0.599664 0.235157 0.78732
0.720287 0.235935 0.788022
0.830533 0.239948 0.792248
0.926711 0.248081 0.801068
0.999207 0.262516 0.817075
0 0.388891 0.824964
0.190158 0.36846 0.805142
0.338674 0.361776 0.798611
0.476356 0.358587 0.795438
0.606485 0.357656 0.794461
0.727596 0.359136 0.795972
0.838361 0.363928 0.801022
0.934447 0.372259 0.809934
1 0.386938 0.82594
0 0.513436 0.826185
0.191699 0.493446 0.806745
0.340963 0.487358 0.800839
0.47921 0.484764 0.798321
0.609384 0.483955 0.797482
0.730709 0.48574 0.799313
0.841093 0.490227 0.803983
0.936812 0.498268 0.812482
1 0.51284 0.828199
0 0.640131 0.827207
0.193256 0.620401 0.807935
0.34258 0.614618 0.802319
0.480247 0.611627 0.799374
0.61001 0.610452 0.798154
0.730892 0.61178 0.799481
0.840497 0.615427 0.803204
0.935409 0.622553 0.810651
1 0.636027 0.824979
0.00233463 0.764279 0.829679
0.19791 0.74522 0.810987
0.345678 0.739132 0.80502
0.482078 0.735393 0.801251
0.610788 0.733333 0.7991
0.73051 0.733501 0.799176
0.824887 0.736614 0.833967
0.915251 0.742687 0.848051
0.987716 0.75407 0.853071
0.0316625 0.879332 0.832197
0.207919 0.864607 0.817761
0.352209 0.857603 0.810773
0.486519 0.852735 0.805814
0.613764 0.849653 0.802563
0.731624 0.84802 0.800763
0.818448 0.85008 0.845167
0.856718 0.856565 0.96437
0.911925 0.864515 0.995712
0.0899672 0.978653 0.849928
0.238911 0.969406 0.840879
0.376944 0.962142 0.833555
0.507485 0.95639 0.827604
0.630701 0.950805 0.821714
0.744167 0.945388 0.815915
0.839185 0.940932 0.824292
0.853132 0.942397 0.97081
0.894759 0.945403 1
0 0.07187 0.924941
0.135912 0.0442512 0.897353
0.285908 0.0320134 0.884443
0.422065 0.0239109 0.875334
0.550317 0.0186465 0.869001
0.6701 0.0167239 0.866346
0.779141 0.0178531 0.867216
0.874662 0.0235294 0.873686
0.946883 0.0355993 0.888258
0 0.159731 0.949355
0.175372 0.136614 0.926726
0.321675 0.127337 0.91722
0.457267 0.121584 0.911055
0.585946 0.118608 0.907622
0.705821 0.118257 0.90695
0.815381 0.121126 0.909926
0.911254 0.12842 0.91809
0.983581 0.142016 0.933852
0 0.26923 0.95584
0.184939 0.247852 0.935149
0.332387 0.240146 0.927489
0.469123 0.235889 0.92311
0.598825 0.234318 0.921386
0.719509 0.235157 0.922148
0.83003 0.239475 0.926757
0.92607 0.247456 0.935546
0.998566 0.261891 0.951904
0 0.387991 0.958877
0.189349 0.367651 0.939284
0.337957 0.361028 0.932891
0.475853 0.358053 0.929976
0.605875 0.357046 0.928893
0.727001 0.358557 0.930434
0.837766 0.363363 0.935561
0.933852 0.371695 0.944625
1 0.386648 0.961273
0 0.512825 0.960403
0.191196 0.492821 0.941115
0.340475 0.486793 0.935347
0.47866 0.484199 0.93283
0.60882 0.483391 0.931991
0.730205 0.485252 0.933913
0.840421 0.489586 0.93846
0.93608 0.497551 0.947036
1 0.511986 0.962875
0 0.63949 0.96141
0.192782 0.619791 0.942351
0.342092 0.614054 0.936858
0.479576 0.610956 0.933776
0.609277 0.60972 0.932479
0.730053 0.610956 0.9337
0.839567 0.614481 0.937331
0.934539 0.621698 0.944976
1 0.634791 0.959182
0.0018616 0.763531 0.963882
0.197345 0.744549 0.945449
0.344823 0.738277 0.939315
0.481086 0.734401 0.935378
0.609964 0.732525 0.933379
0.72932 0.73228 0.932982
0.837629 0.734447 0.935119
0.931502 0.740353 0.941283
1 0.751766 0.953536
0.0301213 0.878447 0.966506
0.206622 0.863432 0.951919
0.350866 0.856321 0.944808
0.485039 0.851286 0.93962
0.612146 0.84799 0.936065
0.729931 0.846235 0.934051
0.836927 0.846983 0.934646
0.919799 0.85034 0.957809
0.982177 0.857816 0.973907
0.087953 0.977249 0.984421
0.236927 0.967697 0.975143
0.374929 0.96025 0.967559
0.50544 0.95436 0.961379
0.627863 0.947845 0.954345
0.740902 0.941817 0.947707
0.842069 0.936324 0.941573
0.91339 0.933837 0.971389
0.939193 0.937835 1
