luts/6.cube
TITLE "Generated by Resolve"
LUT_3D_SIZE 5
0 0.0898909 0.168551
0.287129 0.0326085 0.112749
0.543862 0.0129702 0.0938735
0.769711 0.00888075 0.0901198
0.935485 0.024094 0.104829
0 0.262379 0.171038
0.318135 0.228962 0.137331
0.533547 0.233845 0.145708
0.815015 0.223499 0.132433
0.983658 0.245045 0.151965
0 0.500389 0.171878
0.31931 0.470939 0.141192
0.566796 0.472267 0.143771
0.824537 0.471885 0.141665
0.993927 0.495338 0.162203
0 0.750988 0.174319
0.326497 0.722927 0.14461
0.595895 0.718013 0.139773
0.826596 0.721828 0.143557
0.992554 0.741802 0.16083
0.0678721 0.969299 0.188388
0.36585 0.95227 0.170596
0.624155 0.943877 0.163241
0.846952 0.942061 0.162524
1 0.949889 0.169924
0 0.0907912 0.208118
0.297841 0.0403601 0.158145
0.55761 0.0249027 0.142901
0.783475 0.021973 0.140063
0.949065 0.0378424 0.155734
0 0.272023 0.217685
0.33492 0.242191 0.18761
0.550088 0.246738 0.207294
0.829374 0.238743 0.184466
0.997818 0.260975 0.205234
0 0.512062 0.219471
0.338704 0.485542 0.191943
0.568109 0.491295 0.209583
0.839033 0.487984 0.194003
1 0.511437 0.215244
0 0.762676 0.221637
0.344259 0.73785 0.195544
0.610758 0.733318 0.191135
0.840116 0.737255 0.195056
1 0.756573 0.212329
0.0941482 0.980529 0.236835
0.381292 0.966018 0.221744
0.636698 0.957244 0.213962
0.85687 0.953658 0.211582
1 0.958953 0.216922
0 0.0862593 0.405417
0.296925 0.0401465 0.358144
0.558312 0.025742 0.342809
0.785199 0.023682 0.34023
0.951492 0.0402838 0.357977
0 0.273533 0.421561
0.337636 0.244617 0.392706
0.597955 0.238514 0.389288
0.832532 0.242039 0.390082
1 0.264454 0.412787
0 0.514885 0.423941
0.342855 0.489052 0.39791
0.611048 0.485618 0.394446
0.811368 0.497444 0.440269
1 0.51487 0.42327
0.00579843 0.765743 0.426795
0.347967 0.741192 0.401862
0.612924 0.736522 0.397864
0.835981 0.740719 0.410208
1 0.758618 0.418738
0.0970016 0.982437 0.44506
0.382788 0.967468 0.429908
0.637705 0.958236 0.421057
0.855741 0.952117 0.415534
1 0.954742 0.418326
0 0.0784924 0.659434
0.291615 0.036408 0.616205
0.554604 0.0225223 0.600671
0.782452 0.0210727 0.598337
0.949508 0.0382544 0.617838
0 0.271809 0.683879
0.335271 0.24271 0.655192
0.600931 0.236408 0.648646
0.831464 0.240894 0.653208
1 0.263523 0.677546
0 0.514199 0.687114
0.341955 0.488289 0.661677
0.610315 0.484886 0.658305
0.841184 0.491386 0.665751
1 0.513848 0.695094
0.00395209 0.765148 0.690547
0.346975 0.740322 0.665965
0.612146 0.734737 0.660319
0.76321 0.742214 0.818891
0.948531 0.758099 0.792081
0.0927596 0.980285 0.710384
0.379309 0.964324 0.694469
0.633692 0.953964 0.68394
0.805798 0.948211 0.754894
0.993408 0.945708 0.683757
0 0.07187 0.924941
0.285908 0.0320134 0.884443
0.550317 0.0186465 0.869001
0.779141 0.0178531 0.867216
0.946883 0.0355993 0.888258
0 0.26923 0.95584
0.332387 0.240146 0.927489
0.598825 0.234318 0.921386
0.83003 0.239475 0.926757
0.998566 0.261891 0.951904
0 0.512825 0.960403
0.340475 0.486793 0.935347
0.60882 0.483391 0.931991
0.840421 0.489586 0.93846
1 0.511986 0.962875
0.0018616 0.763531 0.963882
0.344823 0.738277 0.939315
0.609964 0.732525 0.933379
0.837629 0.734447 0.935119
1 0.751766 0.953536
0.087953 0.977249 0.984421
0.374929 0.96025 0.967559
0.627863 0.947845 0.954345
0.842069 0.936324 0.941573
0.939193 0.937835 1
