luts/6.cube
TITLE "Generated by Resolve"
LUT_3D_SIZE 33
0 0.0898909 0.168551
0.0395361 0.0780957 0.156909
0.0821088 0.0684367 0.147463
0.119081 0.0606546 0.139879
0.154528 0.0539406 0.133364
0.188724 0.0479591 0.127565
0.22208 0.0424811 0.122271
0.254871 0.0374151 0.117388
0.287129 0.0326085 0.112749
0.319387 0.028336 0.108644
0.35201 0.0250095 0.105425
0.384543 0.0222019 0.102724
0.417182 0.0198367 0.10045
0.449744 0.0179599 0.0986496
0.481483 0.0160067 0.0967727
0.512764 0.0142519 0.0950942
0.543862 0.0129702 0.0938735
0.574166 0.0116579 0.0926375
0.603922 0.0105592 0.0915999
0.633356 0.00991836 0.0909895
0.661875 0.00918593 0.0903029
0.689555 0.00872816 0.0899062
0.717098 0.00872816 0.0899214
0.743725 0.00868238 0.0899062
0.769711 0.00888075 0.0901198
0.795285 0.00953689 0.0907759
0.819821 0.0101472 0.0913863
0.842725 0.0112459 0.0924697
0.864103 0.0131685 0.0943313
0.883299 0.0153964 0.0964828
0.901244 0.0180056 0.0989853
0.91873 0.0211337 0.101991
0.935485 0.024094 0.104829
0 0.0983139 0.16846
0.0386511 0.0870985 0.157351
0.0841535 0.0783551 0.148775
0.122835 0.071519 0.142092
0.159075 0.0654002 0.136172
0.194217 0.0601511 0.131075
0.228672 0.0555581 0.126635
0.263096 0.0517739 0.122972
0.297795 0.0488899 0.120165
0.331884 0.0462196 0.117586
0.365347 0.0437934 0.115236
0.398566 0.0417792 0.113298
0.431235 0.0396887 0.111284
0.463493 0.0377813 0.109483
0.495613 0.036347 0.10811
0.52694 0.0348363 0.106676
0.557748 0.0334783 0.105394
0.588312 0.0325475 0.10454
0.618021 0.0315557 0.103624
0.647288 0.0309148 0.103029
0.676051 0.030518 0.102693
0.703777 0.0302434 0.102464
0.731075 0.0301366 0.102388
0.757931 0.0304417 0.102708
0.783902 0.0307164 0.103014
0.809461 0.0314946 0.103777
0.834119 0.0323186 0.104585
0.857084 0.0335699 0.105806
0.878355 0.035523 0.107683
0.897627 0.0379644 0.110002
0.915557 0.0406653 0.112581
0.933043 0.0439307 0.115679
0.949844 0.0470588 0.118654
0 0.112337 0.168353
0.0353704 0.10164 0.157717
0.0831464 0.0929732 0.149203
0.124224 0.087129 0.14345
0.162997 0.0824445 0.138872
0.200458 0.0787366 0.135225
0.237018 0.0757153 0.132265
0.272328 0.0727855 0.129412
0.306981 0.0700999 0.126802
0.341405 0.0678874 0.124666
0.374929 0.0656901 0.122545
0.408118 0.0638285 0.120775
0.441001 0.0620584 0.119081
0.473259 0.0603037 0.117418
0.505135 0.058793 0.115999
0.53669 0.0575875 0.11487
0.567559 0.0563821 0.113756
0.598215 0.0556497 0.113069
0.627985 0.0548104 0.112322
0.65716 0.0541543 0.111742
0.685954 0.0538949 0.111528
0.713771 0.0538033 0.111467
0.741115 0.0538033 0.111513
0.768093 0.0543221 0.112032
0.794141 0.0547494 0.112474
0.819486 0.055375 0.113115
0.844388 0.0565194 0.114214
0.867369 0.0578775 0.115526
0.888518 0.0598001 0.117357
0.908049 0.0625772 0.119982
0.926024 0.0654307 0.122667
0.943252 0.068513 0.125566
0.960327 0.0720226 0.128862
0 0.132387 0.166964
0.0272984 0.123476 0.157992
0.0817121 0.115267 0.149798
0.125261 0.110353 0.1449
0.165194 0.106279 0.140887
0.20296 0.10277 0.137453
0.23978 0.0999619 0.134676
0.275349 0.0972305 0.132021
0.310231 0.0947585 0.129625
0.344854 0.0926986 0.127642
0.378454 0.0905928 0.125628
0.411551 0.0886854 0.123796
0.444709 0.0871595 0.122362
0.477119 0.0855726 0.120867
0.509071 0.0841382 0.119524
0.540825 0.0831311 0.118593
0.571756 0.082002 0.117571
0.602167 0.0810559 0.116716
0.632334 0.0806134 0.116335
0.661646 0.0800946 0.115892
0.690379 0.0797894 0.115648
0.718517 0.0800183 0.115892
0.745907 0.0801099 0.116014
0.772641 0.0803998 0.116335
0.799054 0.0812085 0.117144
0.824506 0.0819867 0.117906
0.849241 0.0829938 0.118883
0.872587 0.0847639 0.120562
0.893782 0.0867628 0.122454
0.913039 0.0893263 0.124834
0.93135 0.0925612 0.127855
0.948623 0.0957656 0.130846
0.965652 0.0992905 0.134112
0 0.156527 0.167788
0.0267338 0.148363 0.159472
0.082475 0.140047 0.151171
0.126131 0.135088 0.146242
0.166766 0.131365 0.142535
0.204822 0.128038 0.139254
0.241474 0.125109 0.136385
0.277501 0.122698 0.134035
0.31249 0.120302 0.131716
0.346929 0.11812 0.12961
0.381048 0.116426 0.127993
0.414313 0.114656 0.126314
0.447257 0.112978 0.124727
0.480064 0.111711 0.123552
0.512078 0.110353 0.122301
0.543526 0.109361 0.121416
0.572717 0.109102 0.121431
0.605585 0.107698 0.119905
0.635599 0.107103 0.119387
0.665232 0.106905 0.119249
0.694011 0.106676 0.119066
0.72221 0.106981 0.119387
0.749783 0.10724 0.119677
0.776638 0.107683 0.120134
0.803021 0.108492 0.120928
0.828626 0.109438 0.121859
0.853391 0.110521 0.122896
0.876814 0.112398 0.124651
0.8981 0.114534 0.12665
0.917464 0.11722 0.129152
0.935821 0.120577 0.132235
0.953109 0.123857 0.135256
0.970001 0.127275 0.138415
0 0.181964 0.168856
0.0253758 0.174121 0.160861
0.0832837 0.165759 0.152468
0.12723 0.160861 0.147585
0.16762 0.15697 0.143725
0.206241 0.153948 0.140734
0.243091 0.151156 0.137987
0.279164 0.148775 0.135668
0.314488 0.146624 0.133577
0.34902 0.144518 0.131563
0.382971 0.142702 0.129824
0.416571 0.141222 0.128405
0.449668 0.139666 0.126955
0.48246 0.138598 0.125978
0.512581 0.137926 0.125566
0.540383 0.13785 0.125917
0.566598 0.138491 0.127062
0.603647 0.136187 0.124331
0.638621 0.134401 0.12221
0.668421 0.134401 0.12224
0.697322 0.134279 0.122179
0.725338 0.134417 0.122347
0.753201 0.135012 0.122942
0.780118 0.135515 0.123461
0.806409 0.136248 0.124178
0.832303 0.13753 0.125399
0.857176 0.13872 0.126543
0.880369 0.140383 0.128099
0.901961 0.142885 0.130419
0.921355 0.145647 0.132952
0.939467 0.148806 0.135836
0.957137 0.152514 0.139223
0.97409 0.156054 0.142473
0 0.208179 0.169848
0.024033 0.200748 0.162234
0.0836652 0.192096 0.153536
0.128008 0.187289 0.14873
0.168688 0.18352 0.144976
0.207507 0.180606 0.142077
0.244465 0.177859 0.139391
0.280461 0.175433 0.137011
0.316106 0.17351 0.135134
0.350805 0.171542 0.133242
0.384848 0.169802 0.131594
0.41857 0.168521 0.130373
0.44979 0.167544 0.129641
0.478523 0.167285 0.129763
0.50547 0.16791 0.130877
0.531014 0.168612 0.132128
0.555901 0.169528 0.133577
0.595544 0.166949 0.130449
0.641382 0.162371 0.124804
0.670939 0.162127 0.12462
0.700221 0.162402 0.12491
0.728344 0.162661 0.1252
0.756024 0.163088 0.125628
0.783337 0.164004 0.126513
0.809674 0.164813 0.127306
0.835309 0.165835 0.128283
0.860517 0.167407 0.129763
0.883787 0.169192 0.131426
0.905333 0.171664 0.1337
0.924926 0.174685 0.136446
0.943069 0.177905 0.139376
0.960555 0.18146 0.142596
0.977737 0.185275 0.146075
0 0.235065 0.170642
0.0209964 0.22855 0.163897
0.0833143 0.218952 0.154269
0.128435 0.214374 0.14966
0.169314 0.210636 0.145937
0.20795 0.207584 0.142916
0.245533 0.205219 0.140551
0.281712 0.202914 0.138293
0.317128 0.200824 0.136263
0.35227 0.199191 0.134676
0.384573 0.197986 0.133684
0.414191 0.197696 0.13373
0.441855 0.198093 0.134585
0.467948 0.198688 0.135698
0.493217 0.199557 0.137102
0.518303 0.200793 0.138857
0.543694 0.201663 0.1402
0.585275 0.198627 0.136584
0.643793 0.190921 0.127062
0.673472 0.190799 0.127001
0.702724 0.191058 0.127275
0.730999 0.191485 0.127703
0.758724 0.191974 0.128191
0.786099 0.192981 0.129152
0.812528 0.193896 0.130053
0.838254 0.195041 0.131136
0.863539 0.196704 0.132692
0.886824 0.198535 0.134386
0.908248 0.2009 0.136553
0.928023 0.20415 0.139483
0.946242 0.207477 0.142489
0.963699 0.211032 0.145708
0.981003 0.215045 0.149325
0 0.262379 0.171038
0.0174563 0.256916 0.165301
0.0830091 0.246616 0.154955
0.128374 0.241993 0.150286
0.169757 0.238483 0.146761
0.208545 0.235477 0.143771
0.245945 0.232975 0.141283
0.282551 0.230945 0.139269
0.318135 0.228962 0.137331
0.353445 0.227451 0.135866
0.376486 0.228885 0.138033
0.402548 0.229496 0.139162
0.428305 0.230503 0.140688
0.453651 0.231495 0.142184
0.47924 0.232395 0.143526
0.505776 0.233463 0.145022
0.533547 0.233845 0.145708
0.576104 0.230304 0.141573
0.64509 0.220218 0.129244
0.675578 0.219959 0.129
0.704723 0.220111 0.129183
0.733303 0.220859 0.1299
0.76112 0.221439 0.13048
0.788251 0.222217 0.131228
0.815015 0.223499 0.132433
0.840772 0.224689 0.133562
0.865812 0.226123 0.134905
0.889479 0.228382 0.136965
0.910964 0.230838 0.139193
0.93048 0.233845 0.141909
0.949004 0.237537 0.14522
0.966461 0.241138 0.14844
0.983658 0.245045 0.151965
0 0.290547 0.171496
0.015198 0.285603 0.166232
0.0824903 0.274922 0.155505
0.127977 0.270176 0.150713
0.169833 0.266835 0.147326
0.208881 0.263935 0.144427
0.246418 0.261494 0.142
0.283268 0.259617 0.140108
0.318944 0.257694 0.138231
0.353994 0.25597 0.136568
0.368063 0.260243 0.142
0.386938 0.262928 0.145525
0.412787 0.263813 0.146838
0.43949 0.264851 0.148287
0.46746 0.265202 0.148928
0.49723 0.265095 0.148989
0.530785 0.264408 0.148348
0.570214 0.261845 0.145418
0.642924 0.250507 0.131853
0.677455 0.249668 0.13077
0.706661 0.249897 0.131014
0.734951 0.25037 0.131487
0.763119 0.251331 0.132403
0.790326 0.252186 0.133227
0.81706 0.253437 0.134401
0.843015 0.254856 0.135714
0.868086 0.256336 0.137102
0.891585 0.258427 0.13901
0.913268 0.261128 0.141451
0.93283 0.26421 0.144213
0.9514 0.267994 0.147585
0.968902 0.271656 0.150851
0.985962 0.275456 0.154253
0 0.319203 0.171771
0.0120089 0.31458 0.166842
0.0818036 0.303777 0.155932
0.127749 0.299077 0.151171
0.169421 0.295537 0.147585
0.209049 0.292943 0.144945
0.246708 0.290532 0.14255
0.283467 0.288579 0.140597
0.319554 0.286946 0.138964
0.348424 0.287022 0.139391
0.356191 0.29276 0.146471
0.371359 0.296834 0.151507
0.399542 0.297169 0.152117
0.430121 0.297246 0.152407
0.462974 0.296483 0.151675
0.496513 0.295506 0.150713
0.530617 0.294652 0.149859
0.567605 0.292927 0.147951
0.640452 0.281575 0.134508
0.679026 0.279774 0.132265
0.708293 0.280079 0.132586
0.73669 0.280659 0.13315
0.76492 0.281697 0.134112
0.792157 0.282597 0.134981
0.818723 0.283696 0.136019
0.844892 0.285359 0.137545
0.870024 0.286915 0.138979
0.893462 0.28896 0.140856
0.915297 0.291859 0.14345
0.934874 0.294972 0.146212
0.953155 0.298451 0.14931
0.970962 0.302495 0.152895
0.988037 0.30634 0.156329
0 0.348455 0.171984
0.0100099 0.344167 0.167376
0.0804456 0.332967 0.156069
0.127245 0.32842 0.151431
0.169192 0.324956 0.147906
0.209064 0.322454 0.145342
0.24686 0.320165 0.143038
0.28275 0.318379 0.141314
0.314015 0.318151 0.141283
0.335363 0.320409 0.144198
0.35021 0.324346 0.149035
0.37612 0.32578 0.150881
0.404746 0.326116 0.151476
0.434806 0.32607 0.151614
0.466468 0.326024 0.151705
0.498726 0.325444 0.151202
0.531624 0.324758 0.150561
0.567895 0.323598 0.149325
0.639658 0.312642 0.1364
0.680064 0.310018 0.133272
0.709682 0.310689 0.133913
0.738109 0.311299 0.134508
0.766079 0.312078 0.135256
0.793683 0.313375 0.136446
0.82031 0.314549 0.137545
0.84622 0.315938 0.138842
0.871656 0.317845 0.140581
0.895109 0.319921 0.142458
0.916854 0.322728 0.144976
0.936584 0.32604 0.147906
0.954879 0.329564 0.151019
0.972534 0.333455 0.154467
0.989776 0.33753 0.158068
0 0.378134 0.172045
0.00798047 0.374182 0.167742
0.0793622 0.362814 0.156252
0.126726 0.358328 0.151629
0.168887 0.354879 0.148119
0.208453 0.352148 0.145357
0.24535 0.350576 0.143786
0.278157 0.349752 0.143114
0.306477 0.350149 0.143847
0.331731 0.351781 0.145907
0.357778 0.352804 0.147311
0.384253 0.353765 0.148592
0.412177 0.354742 0.149889
0.441016 0.355154 0.150515
0.471061 0.355291 0.150835
0.502419 0.355413 0.151125
0.534203 0.355077 0.150881
0.570886 0.353445 0.149126
0.641474 0.343252 0.137102
0.681147 0.340917 0.13431
0.710719 0.341543 0.134905
0.7393 0.342336 0.135653
0.7673 0.343145 0.136431
0.794766 0.344305 0.137499
0.821576 0.345693 0.138781
0.847517 0.347112 0.140093
0.872999 0.349096 0.141894
0.896483 0.351202 0.143801
0.918059 0.353857 0.146166
0.937972 0.357382 0.149264
0.956268 0.360922 0.152392
0.9738 0.364706 0.155718
0.99118 0.368948 0.159457
0 0.408072 0.171878
0.00610361 0.404593 0.167987
0.0782483 0.393103 0.156359
0.125734 0.388464 0.151583
0.16849 0.385229 0.148257
0.208301 0.382574 0.145541
0.245899 0.380575 0.143526
0.279866 0.379828 0.142855
0.310307 0.379736 0.142977
0.338888 0.380545 0.14406
0.36585 0.381476 0.145327
0.392447 0.382498 0.14667
0.419837 0.383612 0.148089
0.447898 0.384375 0.149126
0.47686 0.384817 0.149783
0.507134 0.385336 0.150515
0.537896 0.385351 0.150683
0.57818 0.382864 0.147906
0.645838 0.373526 0.136843
0.682033 0.372137 0.135164
0.711421 0.37258 0.135607
0.740246 0.373617 0.136553
0.768277 0.374472 0.137377
0.795651 0.37554 0.138354
0.822629 0.377111 0.139803
0.848585 0.378561 0.141131
0.873777 0.380224 0.142657
0.897566 0.382696 0.144869
0.919158 0.385367 0.147234
0.938781 0.388586 0.150072
0.957382 0.392508 0.15349
0.974899 0.396292 0.156817
0.991974 0.400198 0.16025
0 0.438575 0.171832
0.00450141 0.435355 0.16817
0.0773175 0.423804 0.156451
0.124971 0.419043 0.151583
0.167987 0.415869 0.148272
0.208026 0.413291 0.145632
0.246296 0.41117 0.14345
0.282216 0.410101 0.142367
0.314504 0.409598 0.142016
0.344305 0.409781 0.142428
0.372686 0.410758 0.143648
0.399832 0.411688 0.144884
0.427008 0.41265 0.146136
0.454948 0.413825 0.147601
0.483207 0.414542 0.148577
0.512276 0.41503 0.149294
0.542458 0.415641 0.150134
0.590036 0.411246 0.145068
0.650629 0.403464 0.135866
0.68275 0.403601 0.135866
0.7122 0.404089 0.136355
0.740734 0.404837 0.137057
0.7691 0.406043 0.138155
0.79646 0.407111 0.139147
0.823362 0.408621 0.14052
0.849424 0.410193 0.141955
0.874632 0.411872 0.143496
0.898283 0.414206 0.145571
0.920027 0.417044 0.148089
0.939635 0.420279 0.150912
0.958221 0.424201 0.15433
0.975738 0.427985 0.157641
0.992798 0.431907 0.161074
0 0.469398 0.171801
0.00241093 0.466163 0.168139
0.0764477 0.454749 0.156512
0.124468 0.450004 0.151629
0.167361 0.446677 0.148196
0.207919 0.444373 0.145769
0.246281 0.442267 0.143603
0.28307 0.44062 0.141924
0.317342 0.440055 0.14139
0.348653 0.439918 0.141421
0.377997 0.440391 0.142123
0.406302 0.441428 0.143404
0.43386 0.442329 0.14461
0.461387 0.443244 0.145815
0.489616 0.444404 0.14725
0.51809 0.445106 0.148226
0.550072 0.445197 0.14844
0.605173 0.438972 0.1411
0.652979 0.434592 0.135866
0.683223 0.435096 0.136339
0.712825 0.435752 0.136965
0.741375 0.436515 0.137682
0.769757 0.437751 0.138796
0.797147 0.438849 0.139818
0.82385 0.440131 0.140993
0.850126 0.441947 0.142641
0.875334 0.443641 0.144183
0.898817 0.445792 0.146105
0.920699 0.448814 0.14876
0.940291 0.452033 0.151568
0.958572 0.455619 0.154681
0.976364 0.459754 0.158282
0.993408 0.463661 0.161685
0 0.500389 0.171878
0.00189212 0.497292 0.168322
0.0757305 0.48571 0.156542
0.124407 0.481147 0.151797
0.167391 0.477836 0.148379
0.208026 0.475578 0.145983
0.246494 0.473548 0.143862
0.283803 0.471839 0.142107
0.31931 0.470939 0.141192
0.352041 0.470542 0.140902
0.382513 0.47068 0.141238
0.411826 0.471565 0.142336
0.440009 0.472358 0.14342
0.467811 0.473259 0.144625
0.495964 0.474479 0.146151
0.524315 0.475242 0.147219
0.566796 0.472267 0.143771
0.618814 0.467185 0.137606
0.653635 0.466285 0.136477
0.683742 0.466636 0.136828
0.713512 0.467491 0.137606
0.742077 0.468269 0.138338
0.770153 0.469184 0.139178
0.797833 0.470603 0.140475
0.824537 0.471885 0.141665
0.850492 0.473365 0.143008
0.876005 0.475395 0.144823
0.899474 0.477546 0.146746
0.92105 0.480232 0.149096
0.940917 0.483787 0.152178
0.959167 0.487343 0.155276
0.976806 0.49131 0.158709
0.993927 0.495338 0.162203
0 0.53167 0.171847
0.0011902 0.528695 0.168399
0.0751659 0.517067 0.156573
0.124224 0.512596 0.151873
0.16733 0.509331 0.14847
0.20763 0.506828 0.145876
0.246571 0.505104 0.144015
0.283909 0.50341 0.142275
0.320073 0.502068 0.140902
0.354314 0.501671 0.14052
0.385931 0.501549 0.140551
0.415869 0.501884 0.141115
0.445151 0.502815 0.14229
0.473396 0.503624 0.143404
0.502129 0.504387 0.144442
0.539712 0.503059 0.142916
0.584878 0.499413 0.138552
0.623011 0.497642 0.1364
0.654063 0.498146 0.136873
0.684153 0.498497 0.137224
0.713878 0.49929 0.137942
0.742489 0.50013 0.138735
0.770565 0.501045 0.139574
0.798123 0.502342 0.140764
0.824933 0.503746 0.142046
0.850889 0.505226 0.143389
0.876356 0.507225 0.14519
0.899809 0.509361 0.147082
0.921355 0.512016 0.149401
0.941192 0.515557 0.152468
0.959426 0.519097 0.155535
0.976867 0.52285 0.15877
0.994125 0.527047 0.162387
0 0.562936 0.17174
0.00108339 0.56025 0.168505
0.0751507 0.548623 0.15668
0.123766 0.543893 0.151781
0.167452 0.540932 0.148608
0.207797 0.53846 0.146044
0.246494 0.536568 0.14403
0.284199 0.535149 0.142504
0.320714 0.53373 0.141054
0.35555 0.532784 0.140139
0.38854 0.532723 0.140139
0.41944 0.532845 0.140444
0.450065 0.533379 0.141176
0.481865 0.533333 0.141268
0.517327 0.53225 0.140078
0.556405 0.530465 0.137926
0.592065 0.529488 0.136721
0.623407 0.529503 0.136751
0.654444 0.530022 0.137224
0.68455 0.530373 0.137575
0.714 0.530907 0.138079
0.742855 0.532006 0.139071
0.770916 0.532891 0.13991
0.798276 0.533974 0.140917
0.825238 0.535561 0.142336
0.851164 0.537011 0.143664
0.876326 0.538659 0.145159
0.900053 0.541115 0.147311
0.921569 0.54374 0.149615
0.9411 0.546929 0.152377
0.959533 0.550744 0.155642
0.976928 0.554452 0.158846
0.993866 0.558267 0.162142
0 0.594476 0.171862
0.00140383 0.591806 0.168627
0.0755322 0.58024 0.156847
0.124163 0.575555 0.15198
0.167803 0.572595 0.148821
0.208209 0.570199 0.146304
0.246815 0.568231 0.144244
0.284627 0.566903 0.142794
0.321157 0.56553 0.14136
0.356847 0.56437 0.140185
0.391577 0.563897 0.139681
0.425025 0.563333 0.139178
0.458595 0.562737 0.138628
0.493233 0.562295 0.138109
0.527657 0.561486 0.137224
0.56025 0.561166 0.136934
0.592493 0.561349 0.137087
0.623819 0.561364 0.137118
0.654536 0.561547 0.137301
0.684932 0.562219 0.137911
0.714366 0.562722 0.138415
0.742916 0.563485 0.139132
0.771221 0.56466 0.1402
0.798566 0.565728 0.141176
0.825208 0.566964 0.142321
0.851392 0.568704 0.143877
0.876509 0.570321 0.145342
0.900114 0.572625 0.147372
0.92166 0.575311 0.149706
0.941131 0.578439 0.152407
0.959442 0.582086 0.15555
0.976913 0.585916 0.158831
0.99379 0.58967 0.162066
0 0.626062 0.172122
0.00166323 0.623133 0.168673
0.0764172 0.611841 0.157092
0.124895 0.607217 0.152285
0.168093 0.604044 0.148959
0.208896 0.601923 0.146654
0.247486 0.6 0.144625
0.284886 0.598383 0.142947
0.321782 0.59733 0.141772
0.35758 0.596139 0.140566
0.392721 0.595254 0.139651
0.42739 0.594675 0.139025
0.461433 0.593957 0.138323
0.495018 0.593423 0.137789
0.528313 0.593271 0.137621
0.560769 0.592966 0.137346
0.592966 0.593118 0.137469
0.624292 0.593133 0.137514
0.654978 0.593286 0.137682
0.685252 0.593851 0.138201
0.714748 0.594415 0.13875
0.743252 0.595148 0.139437
0.771542 0.596307 0.14049
0.79884 0.597314 0.141436
0.825437 0.598505 0.142519
0.851591 0.600214 0.14406
0.876677 0.601801 0.14548
0.900038 0.60383 0.147295
0.921736 0.606714 0.149783
0.941146 0.609766 0.152407
0.959228 0.613169 0.155337
0.976791 0.617105 0.158694
0.993622 0.620829 0.161898
0 0.657557 0.172503
0.00337224 0.654551 0.168948
0.0774548 0.643183 0.157336
0.126116 0.638819 0.152728
0.169177 0.635691 0.149447
0.209522 0.633341 0.14696
0.248432 0.631693 0.145159
0.285786 0.630091 0.143481
0.322637 0.629023 0.142306
0.358419 0.627863 0.141115
0.393439 0.626886 0.140124
0.428092 0.626322 0.139513
0.462196 0.625681 0.138857
0.495689 0.625086 0.138293
0.528984 0.624949 0.13814
0.56141 0.624628 0.13785
0.593271 0.624445 0.137713
0.624872 0.62475 0.137987
0.655512 0.624887 0.13814
0.685527 0.625162 0.13843
0.715206 0.625925 0.139132
0.743648 0.626596 0.139773
0.771603 0.627405 0.140536
0.799161 0.628717 0.141726
0.825727 0.629877 0.142779
0.851591 0.631266 0.144045
0.876829 0.633036 0.145632
0.900114 0.634989 0.147372
0.921508 0.637491 0.149554
0.941146 0.640833 0.152407
0.959182 0.64419 0.155291
0.976638 0.64802 0.158541
0.993408 0.651682 0.161685
0 0.688975 0.173022
0.00595102 0.685771 0.169284
0.0792706 0.674479 0.157748
0.127749 0.670314 0.153323
0.170642 0.667216 0.150072
0.210819 0.664866 0.147585
0.249699 0.663264 0.14583
0.286992 0.661677 0.144167
0.32343 0.660319 0.142763
0.359503 0.659449 0.141802
0.394461 0.658473 0.14081
0.428779 0.657633 0.139986
0.463111 0.657221 0.139528
0.496574 0.656611 0.138949
0.529503 0.656138 0.138506
0.562203 0.656107 0.138476
0.594003 0.655894 0.138293
0.625299 0.655894 0.138323
0.656138 0.656245 0.138643
0.686122 0.656489 0.138918
0.715465 0.656916 0.139345
0.744137 0.657862 0.1402
0.772045 0.65861 0.140917
0.799481 0.6598 0.142
0.826017 0.660929 0.143038
0.851774 0.662196 0.144213
0.876951 0.663905 0.145739
0.900282 0.665919 0.147524
0.921569 0.668315 0.149615
0.941131 0.671565 0.152392
0.959075 0.674846 0.155184
0.976242 0.678325 0.15816
0.99321 0.682231 0.161486
0 0.719966 0.173495
0.00944533 0.716731 0.16965
0.0818341 0.705684 0.158358
0.129305 0.701366 0.153841
0.172488 0.698604 0.150866
0.212512 0.696284 0.148409
0.251026 0.694514 0.146517
0.288457 0.693095 0.145006
0.324788 0.691737 0.143587
0.36054 0.690623 0.142443
0.395712 0.68986 0.141634
0.429969 0.689021 0.140795
0.464225 0.688579 0.140307
0.497612 0.687922 0.139712
0.530465 0.687404 0.139239
0.563073 0.687312 0.139132
0.594888 0.687114 0.138979
0.626047 0.687007 0.138918
0.656901 0.687373 0.139269
0.686793 0.687556 0.139483
0.716045 0.687892 0.139834
0.744686 0.688792 0.140658
0.772534 0.689494 0.141344
0.79968 0.690364 0.142153
0.826398 0.691722 0.143389
0.852079 0.692897 0.144488
0.876967 0.69427 0.145739
0.90042 0.696437 0.147631
0.92166 0.698787 0.149691
0.940887 0.701671 0.152163
0.959045 0.705196 0.155154
0.976104 0.708568 0.158022
0.992767 0.712108 0.161044
0 0.750988 0.174319
0.0135042 0.747158 0.169924
0.0849775 0.73666 0.159136
0.131853 0.732464 0.154757
0.174731 0.729763 0.151827
0.214557 0.727459 0.149401
0.252766 0.725582 0.147433
0.290211 0.724269 0.145998
0.326497 0.722927 0.14461
0.362036 0.721721 0.143389
0.397177 0.721004 0.142611
0.431357 0.720119 0.141741
0.465217 0.719326 0.140993
0.498878 0.718975 0.140627
0.53167 0.718425 0.140139
0.563912 0.717998 0.139757
0.595895 0.718013 0.139773
0.626993 0.717845 0.139666
0.657465 0.71783 0.139712
0.687617 0.718318 0.140154
0.716808 0.718608 0.140475
0.74519 0.719234 0.141085
0.773114 0.720043 0.141848
0.800168 0.720806 0.142596
0.826596 0.721828 0.143557
0.852445 0.723232 0.144823
0.877287 0.724559 0.146029
0.900664 0.726635 0.14786
0.921798 0.728878 0.149813
0.940917 0.73164 0.152178
0.958968 0.735027 0.155062
0.976013 0.738399 0.157931
0.992554 0.741802 0.16083
0 0.781689 0.175311
0.0198367 0.777066 0.170138
0.088716 0.76733 0.160113
0.134936 0.763302 0.155886
0.177005 0.760372 0.152804
0.21706 0.758373 0.150637
0.25507 0.756497 0.148669
0.291997 0.754894 0.147005
0.328481 0.753796 0.145815
0.363928 0.752575 0.144579
0.398627 0.751537 0.143542
0.433066 0.750942 0.142916
0.466804 0.750088 0.142123
0.500145 0.749477 0.141543
0.533043 0.749065 0.141161
0.565225 0.748608 0.140764
0.596902 0.748318 0.140551
0.628168 0.748363 0.140612
0.658549 0.748272 0.140581
0.688594 0.748653 0.140963
0.717693 0.748867 0.141222
0.745892 0.749325 0.14168
0.773846 0.750149 0.142458
0.80087 0.750912 0.143206
0.827146 0.751781 0.14403
0.852934 0.753124 0.145251
0.877684 0.754345 0.14638
0.900694 0.756024 0.147875
0.922057 0.758526 0.150042
0.941115 0.761227 0.152361
0.958831 0.764233 0.154925
0.975982 0.767727 0.157885
0.992416 0.771023 0.160693
0 0.812024 0.176455
0.0321965 0.805295 0.169192
0.0927901 0.797574 0.161196
0.138506 0.79379 0.157214
0.180163 0.790921 0.154192
0.219669 0.788769 0.151904
0.25774 0.787091 0.150103
0.294514 0.785489 0.148455
0.330831 0.784375 0.14725
0.366125 0.783093 0.145983
0.400671 0.781994 0.144915
0.435004 0.781369 0.144259
0.46865 0.780499 0.143435
0.501793 0.779736 0.142748
0.534707 0.779385 0.142412
0.566751 0.778836 0.141955
0.59826 0.778408 0.141619
0.62948 0.778439 0.141665
0.6598 0.778302 0.141619
0.689479 0.778317 0.141695
0.718791 0.778775 0.142153
0.746883 0.779126 0.142535
0.774456 0.779568 0.142992
0.801633 0.780514 0.143877
0.827848 0.781308 0.144656
0.853315 0.782284 0.145586
0.878248 0.783734 0.146899
0.901152 0.78529 0.148302
0.922225 0.787457 0.150195
0.941344 0.790234 0.152575
0.958984 0.793179 0.155077
0.975875 0.796384 0.157794
0.992432 0.799817 0.160708
0 0.841932 0.177707
0.0413214 0.834165 0.169406
0.0972457 0.827436 0.162463
0.142504 0.823972 0.158755
0.183734 0.821164 0.155795
0.222751 0.818906 0.153445
