luts/7.cube
LUT_3D_SIZE 16
-0.035091 0.023329 0.029084
-0.046463 0.036280 0.043559
-0.048777 0.056697 0.067839
0.043312 0.063797 0.078263
0.121779 0.069889 0.081060
0.248541 0.071531 0.085502
0.398292 0.064831 0.081500
0.531531 0.051664 0.072055
0.631120 0.037659 0.062761
0.708752 0.024843 0.055850
0.777628 0.012291 0.051408
0.846791 -0.025239 0.049571
0.918228 -0.036590 0.051365
0.972234 -0.025607 0.059207
0.997092 0.021266 0.073299
1.015602 0.035420 0.085281
-0.052570 0.044188 0.052232
-0.052312 0.043255 0.052125
-0.041478 0.066410 0.065513
0.045466 0.075511 0.072139
0.124942 0.081505 0.077195
0.250270 0.084686 0.079404
0.399171 0.080269 0.074017
0.532079 0.070514 0.063392
0.631499 0.060377 0.053250
0.708973 0.051806 0.046153
0.777651 0.044856 0.042164
0.846763 0.039117 0.041052
0.918183 0.035696 0.043973
0.972160 0.038000 0.053361
0.997089 0.047559 0.068978
1.015603 0.053821 0.082012
0.046165 0.112770 0.080633
0.047297 0.112227 0.080340
0.052923 0.112825 0.082188
0.093683 0.133132 0.103422
0.136655 0.155667 0.119646
0.250139 0.174566 0.063204
0.403742 0.176740 0.044578
0.536103 0.175719 0.026550
0.634971 0.172562 -0.009113
0.712195 0.168142 -0.043022
0.780574 0.163392 -0.048769
0.849347 0.158665 -0.046128
0.920091 0.154486 -0.027996
0.973199 0.151716 0.025142
0.997376 0.150767 0.050977
1.016582 0.145105 0.069811
0.128430 0.199166 0.144926
0.129002 0.199160 0.144745
0.132188 0.199621 0.145945
0.141573 0.203612 0.149820
0.179611 0.229506 0.168664
0.246334 0.257180 0.164496
0.400266 0.269579 -0.040918
0.538225 0.269288 -0.096549
0.638016 0.267006 -0.107208
0.715269 0.262846 -0.110497
0.783765 0.257947 -0.109859
0.852332 0.252650 -0.106131
0.922846 0.247346 -0.098003
0.974644 0.242179 -0.079618
0.997814 0.236997 -0.010148
1.018556 0.226692 0.044553
0.189653 0.282483 0.202684
0.189820 0.282496 0.202096
0.192322 0.282999 0.202791
0.199396 0.284503 0.204655
0.220047 0.292111 0.211332
0.274848 0.314283 0.221065
0.390633 0.336038 0.095538
0.536246 0.336290 -0.122067
0.638707 0.333165 -0.138667
0.717088 0.328548 -0.141669
0.785896 0.323326 -0.140090
0.854809 0.317637 -0.135353
0.925104 0.311765 -0.126604
0.975996 0.305744 -0.109757
0.998167 0.299145 -0.077324
1.020501 0.287765 0.013477
0.232237 0.341430 0.244730
0.232418 0.341482 0.244061
0.234914 0.341892 0.244677
0.242165 0.343091 0.246356
0.259942 0.346392 0.250059
0.303698 0.358923 0.256243
0.391862 0.380313 0.186367
0.532364 0.384249 -0.103965
0.638372 0.380435 -0.151294
0.717793 0.375557 -0.157189
0.787372 0.370065 -0.155887
0.856834 0.364201 -0.150420
0.926913 0.358266 -0.139970
0.977063 0.351961 -0.120940
0.998567 0.344955 -0.087757
1.022404 0.333246 -0.040582
0.263783 0.384921 0.276826
0.263922 0.384910 0.276079
0.266479 0.385324 0.276739
0.274303 0.386577 0.278509
0.293406 0.389741 0.282250
0.332534 0.397783 0.286216
0.407757 0.417513 0.248845
0.530690 0.424843 0.047037
0.637167 0.421604 -0.146604
0.718259 0.416399 -0.163283
0.788696 0.410559 -0.163367
0.858479 0.404457 -0.157048
0.928870 0.398302 -0.143958
0.978338 0.391866 -0.120820
0.998800 0.384467 -0.084395
1.024284 0.371475 -0.027908
0.297224 0.430916 0.311340
0.297389 0.430888 0.310636
0.300028 0.431395 0.311340
0.308026 0.432694 0.313171
0.328293 0.436109 0.317262
0.367952 0.443937 0.321823
0.428569 0.457949 0.304890
0.534772 0.474283 0.162002
0.634847 0.471296 -0.102466
0.717383 0.465117 -0.158456
0.789560 0.458267 -0.166330
0.860369 0.451323 -0.160004
0.930989 0.444499 -0.145400
0.979529 0.437447 -0.120691
0.999152 0.428766 -0.079594
1.026444 0.411851 0.016870
0.342401 0.493084 0.357629
0.342568 0.493085 0.357130
0.345045 0.493499 0.357737
0.352801 0.494888 0.359705
0.372298 0.498210 0.363756
0.410398 0.505585 0.369456
0.464030 0.517962 0.364645
0.533436 0.532570 0.299568
0.632184 0.544435 0.162605
0.712347 0.534804 -0.088904
0.787380 0.525371 -0.155746
0.860923 0.516323 -0.165075
0.932447 0.508018 -0.154815
0.980785 0.499462 -0.132148
0.999401 0.488423 -0.094061
1.029045 0.464043 0.006849
0.395571 0.566103 0.412587
0.395764 0.566088 0.412142
0.398053 0.566601 0.412797
0.405155 0.567888 0.414597
0.422917 0.570894 0.418415
0.457442 0.577358 0.424554
0.504940 0.587800 0.426588
0.557446 0.600212 0.410879
0.620750 0.612613 0.335364
0.704633 0.622819 0.222214
0.778352 0.609933 0.068794
0.856190 0.598256 -0.140366
0.931659 0.587713 -0.162933
0.981266 0.577362 -0.151456
0.999566 0.563547 -0.124009
1.031535 0.531428 -0.079244
0.451456 0.642718 0.470446
0.451626 0.642750 0.470175
0.453794 0.643102 0.470765
0.460228 0.644290 0.472360
0.476145 0.646912 0.475814
0.506786 0.652369 0.481614
0.548888 0.660974 0.486424
0.593382 0.671541 0.483358
0.639373 0.682349 0.464788
0.694108 0.693600 0.400487
0.769251 0.702745 0.296529
0.844545 0.689827 0.161220
0.924823 0.678019 -0.089654
0.979870 0.665579 -0.153138
0.999562 0.648972 -0.150796
1.033316 0.609764 -0.123827
0.507936 0.719869 0.529127
0.508064 0.719808 0.528871
0.510159 0.720278 0.529474
0.516160 0.721310 0.530942
0.530653 0.723663 0.534062
0.557743 0.728134 0.539322
0.595169 0.735430 0.545038
0.634481 0.744242 0.547035
0.673069 0.753585 0.541946
0.713859 0.763264 0.525276
0.763616 0.774160 0.472346
0.835907 0.782297 0.367505
0.912814 0.771568 0.238702
0.974673 0.759169 0.087982
0.999124 0.740335 -0.133135
1.032601 0.694896 -0.153525
0.564866 0.797482 0.588316
0.565063 0.797433 0.588230
0.567201 0.797775 0.588830
0.572942 0.798754 0.590132
0.586384 0.800837 0.593001
0.610841 0.804851 0.597895
0.644066 0.810994 0.603547
0.678946 0.818301 0.607407
0.713058 0.826271 0.607733
0.747612 0.834839 0.602551
0.786292 0.844148 0.587767
0.836006 0.855151 0.539035
0.906232 0.862726 0.433979
0.967124 0.852465 0.304745
0.997389 0.833734 0.163691
1.026998 0.783366 -0.126023
0.621831 0.874295 0.647074
0.622039 0.874363 0.647081
0.624219 0.874603 0.647616
0.630105 0.875597 0.648948
0.642789 0.877637 0.651665
0.664739 0.881139 0.655975
0.694208 0.886430 0.661260
0.725277 0.892629 0.665795
0.755832 0.899372 0.668355
0.786313 0.906692 0.668001
0.819485 0.914576 0.662800
0.859050 0.923194 0.647788
0.909453 0.932896 0.601038
0.964724 0.939863 0.496953
0.994624 0.925444 0.362016
1.016133 0.874184 0.178168
0.673299 0.939015 0.699474
0.673595 0.939009 0.699502
0.675917 0.939347 0.700039
0.681732 0.940030 0.701293
0.693733 0.941438 0.703784
0.713560 0.944004 0.707718
0.739634 0.947447 0.712579
0.767276 0.951262 0.716970
0.794721 0.955325 0.720291
0.822291 0.959536 0.722039
0.851539 0.964063 0.721041
0.885607 0.969270 0.715124
0.925100 0.974690 0.699356
0.963796 0.980528 0.652674
0.994949 0.985763 0.552839
1.004003 0.954899 0.377991
0.775653 0.999541 0.799710
0.775680 0.999532 0.799544
0.777610 0.999559 0.799793
0.782064 0.999626 0.800671
0.790851 0.999658 0.802341
0.804914 0.999738 0.805063
0.823831 0.999936 0.808494
0.845047 1.000034 0.811853
0.866973 1.003069 0.814926
0.889163 1.007380 0.816997
0.911869 1.012247 0.817831
0.934502 1.017982 0.816323
0.956378 1.024876 0.810202
0.976590 1.033138 0.795505
0.993411 1.044361 0.759042
1.019432 1.059373 0.673936
0.157915 -0.519575 0.173530
0.162668 -0.518934 0.176015
0.151856 -0.509212 0.109453
0.158226 -0.507288 0.123657
0.187664 -0.505880 0.130422
0.271602 -0.504950 0.133630
0.407182 -0.505096 0.130887
0.540271 -0.505974 0.127611
0.638567 -0.506077 0.139439
0.714461 -0.505807 0.158280
0.781150 -0.505170 0.180831
0.848488 -0.504195 0.205514
0.918368 -0.502861 0.231095
0.971538 -0.501006 0.256222
0.996221 -0.498759 0.277347
1.008328 -0.497120 0.289172
-0.053592 0.043721 0.070899
-0.053940 0.044107 0.071706
-0.050950 0.057843 0.088608
0.043249 0.064711 0.100634
0.114301 0.075226 0.099939
0.244490 0.077212 0.115582
0.395777 0.071767 0.118470
0.529622 0.060597 0.115604
0.629510 0.049276 0.111660
0.707482 0.039948 0.108254
0.776455 0.032573 0.105818
0.845797 0.026635 0.104399
0.917375 0.024059 0.104915
0.971786 0.028916 0.109057
0.997040 0.041813 0.117683
1.015176 0.052943 0.125522
-0.026254 0.118738 0.094714
0.024388 0.115961 0.086732
0.035402 0.117316 0.088314
0.080653 0.130163 0.101686
0.132380 0.146493 0.120226
0.251663 0.160083 0.080548
0.402533 0.160930 0.072622
0.534759 0.158476 0.061591
0.633802 0.154359 0.052025
0.710988 0.149569 0.046637
0.779701 0.145018 0.045212
0.848327 0.140890 0.047295
0.919437 0.137841 0.053753
0.972854 0.136908 0.066188
0.997280 0.138252 0.083937
1.016013 0.135081 0.098871
0.117156 0.202394 0.149329
0.123721 0.200283 0.147463
0.129557 0.200195 0.148363
0.141821 0.203922 0.153837
0.178146 0.226499 0.170661
0.244907 0.253010 0.164542
0.400925 0.263263 0.031567
0.537874 0.262689 -0.062011
0.637553 0.260240 -0.077544
0.714896 0.256069 -0.081353
0.783152 0.251264 -0.079039
0.851857 0.246230 -0.071385
0.922365 0.241337 -0.052454
0.974340 0.236749 0.023583
0.997706 0.232286 0.056638
1.018189 0.222732 0.079020
0.189178 0.283344 0.210948
0.189871 0.282521 0.207620
0.191953 0.282810 0.205569
0.199094 0.284337 0.207461
0.220238 0.292012 0.214340
0.274181 0.312876 0.223775
0.390716 0.333895 0.103145
0.536245 0.333568 -0.104818
0.638557 0.330354 -0.122069
0.716711 0.325706 -0.124500
0.785627 0.320508 -0.121582
0.854489 0.314914 -0.114658
0.924704 0.309266 -0.101835
0.975808 0.303449 -0.075048
0.998190 0.297183 0.027233
1.020196 0.286079 0.060708
0.233044 0.341971 0.253610
0.232651 0.341543 0.249920
0.234486 0.341777 0.247039
0.241682 0.342974 0.248742
0.259548 0.346216 0.252546
0.303811 0.358765 0.259225
0.391482 0.379633 0.191285
0.532405 0.383024 -0.084923
0.638303 0.379054 -0.137740
0.717621 0.374126 -0.143103
0.787117 0.368608 -0.140634
0.856561 0.362873 -0.133232
0.926722 0.356931 -0.119351
0.976915 0.350804 -0.092478
0.998504 0.344014 0.010907
1.022076 0.332454 0.052202
0.264606 0.385309 0.285482
0.264249 0.385048 0.282175
0.266061 0.385269 0.278914
0.273651 0.386459 0.280666
0.292669 0.389578 0.284516
0.331989 0.397498 0.288962
0.407515 0.417299 0.253321
0.530661 0.424282 0.065080
0.637178 0.420748 -0.133187
0.718156 0.415380 -0.150015
0.788383 0.409547 -0.148937
0.858354 0.403495 -0.140695
0.928698 0.397439 -0.123892
0.978138 0.391106 -0.091380
0.998749 0.383848 0.018999
1.024055 0.371010 0.055778
0.298013 0.431320 0.319392
0.297678 0.431072 0.316560
0.299521 0.431231 0.313312
0.307309 0.432533 0.315178
0.327251 0.435844 0.319281
0.367065 0.443624 0.324324
0.427874 0.457754 0.308802
0.534609 0.474088 0.170070
0.634954 0.470698 -0.079533
0.717405 0.464290 -0.144929
0.789560 0.457418 -0.151961
0.860245 0.450448 -0.143511
0.930794 0.443693 -0.124717
0.979506 0.436741 -0.089979
0.999117 0.428142 0.027199
1.026251 0.411423 0.063374
0.343082 0.493450 0.364642
0.342864 0.493218 0.362393
0.344573 0.493388 0.359582
0.352072 0.494712 0.361457
0.371222 0.497988 0.365562
0.409474 0.505315 0.371601
0.463268 0.517709 0.367647
0.532917 0.532436 0.304301
0.632229 0.544189 0.171617
0.712543 0.534278 -0.052783
0.787495 0.524631 -0.140577
0.860893 0.515458 -0.148997
0.932388 0.507168 -0.135571
0.980704 0.498686 -0.105416
0.999376 0.487841 -0.021053
1.028876 0.463619 0.060354
0.396096 0.566378 0.418110
0.396020 0.566273 0.416563
0.397638 0.566491 0.414508
0.404536 0.567734 0.416266
0.421937 0.570721 0.420101
0.456443 0.577024 0.426353
0.504301 0.587535 0.428965
0.557057 0.600080 0.413903
0.620504 0.612561 0.339725
0.704735 0.622708 0.229150
0.778556 0.609453 0.089041
0.856277 0.597653 -0.121556
0.931683 0.587022 -0.145738
0.981232 0.576712 -0.130568
0.999553 0.563025 -0.093250
1.031444 0.531003 0.028653
0.451884 0.642944 0.474829
0.451856 0.642900 0.473799
0.453480 0.643077 0.472360
0.459698 0.644207 0.473947
0.475372 0.646760 0.477388
0.505858 0.652093 0.483200
0.548243 0.660823 0.488338
0.592980 0.671312 0.485638
0.639064 0.682155 0.467573
0.693869 0.693494 0.403917
0.769165 0.702581 0.301633
0.844600 0.689552 0.172490
0.924913 0.677616 -0.040934
0.979963 0.665081 -0.134746
0.999563 0.648594 -0.130609
1.033280 0.609492 -0.094432
0.508202 0.720024 0.532443
0.508259 0.720052 0.531822
0.509933 0.720311 0.530993
0.515737 0.721231 0.532341
0.530110 0.723595 0.535601
0.557215 0.728107 0.540926
0.594749 0.735253 0.546687
0.634225 0.744186 0.548890
0.673044 0.753616 0.544175
0.713689 0.763087 0.527674
0.763546 0.774177 0.475243
0.835873 0.782230 0.371409
0.912920 0.771362 0.245705
0.974747 0.758667 0.107131
0.999153 0.739989 -0.112553
1.032623 0.694713 -0.135342
0.565165 0.797540 0.590766
0.565217 0.797491 0.590516
0.566984 0.797754 0.590154
0.572693 0.798699 0.591441
0.585898 0.800807 0.594334
0.610364 0.804908 0.599216
0.643710 0.810930 0.604972
0.678701 0.818192 0.608970
0.712959 0.826178 0.609420
0.747630 0.834768 0.604322
0.786216 0.844099 0.589720
0.835906 0.855103 0.541345
0.906230 0.862622 0.436865
0.967145 0.852306 0.309347
0.997439 0.833640 0.173807
1.027108 0.783170 -0.105423
0.621993 0.874418 0.648875
0.622156 0.874422 0.648760
0.624068 0.874613 0.648746
0.629818 0.875636 0.650063
0.642498 0.877604 0.652797
0.664481 0.881083 0.657091
0.693961 0.886368 0.662440
0.725231 0.892572 0.667033
0.755792 0.899323 0.669581
0.786327 0.906653 0.669257
0.819461 0.914537 0.664228
0.859020 0.923172 0.649340
0.909514 0.932989 0.602858
0.964724 0.939929 0.499082
0.994665 0.925367 0.365255
1.016213 0.874147 0.186923
0.673441 0.939046 0.700597
0.673722 0.939023 0.700625
0.675839 0.939388 0.700965
0.681631 0.940061 0.702160
0.693535 0.941458 0.704695
0.713390 0.944011 0.708682
0.739477 0.947450 0.713470
0.767258 0.951270 0.717882
0.794779 0.955332 0.721307
0.822356 0.959542 0.723045
0.851610 0.964068 0.722183
0.885616 0.969276 0.716248
0.925132 0.974703 0.700461
0.963804 0.980453 0.653968
0.994954 0.985758 0.554387
1.004054 0.954914 0.380845
0.775415 0.999523 0.799308
0.775699 0.999527 0.799531
0.777663 0.999554 0.799754
0.782296 0.999628 0.800629
0.790970 0.999650 0.802232
0.805064 0.999742 0.804952
0.824001 0.999938 0.808492
0.845223 1.000034 0.812047
0.867087 1.003092 0.815108
0.889222 1.007403 0.817303
0.912013 1.012265 0.818131
0.934514 1.017994 0.816563
0.956382 1.024891 0.810537
0.976616 1.033144 0.795751
0.993371 1.044368 0.759309
1.019437 1.059381 0.674354
0.168585 -0.517392 0.241994
0.178457 -0.517009 0.242379
0.219570 -0.515485 0.240229
0.152499 -0.506757 0.195057
-0.185726 -0.487717 -0.152443
-0.150513 -0.479558 -0.182295
0.349760 -0.493117 0.179989
0.512111 -0.497799 0.233959
0.620014 -0.499577 0.254887
0.700583 -0.500335 0.267912
0.770564 -0.500432 0.279338
0.840103 -0.500108 0.291191
0.912315 -0.499370 0.303734
0.968776 -0.498067 0.316324
0.995364 -0.496271 0.326533
1.005716 -0.495067 0.329868
-0.064342 0.060117 0.174392
-0.054513 0.047460 0.170039
-0.042700 0.055516 0.176113
0.042704 0.062129 0.196079
0.120541 0.072634 0.198080
0.217172 0.100508 0.200065
0.378686 0.093472 0.231721
0.517996 0.081506 0.241559
0.620492 0.070352 0.243641
0.699872 0.060919 0.241998
0.770084 0.053181 0.239017
0.840272 0.046589 0.235611
0.913076 0.042145 0.232315
0.969684 0.043116 0.229619
0.996374 0.050638 0.227170
1.012725 0.057093 0.220269
-0.116822 0.130236 0.185803
-0.117035 0.130554 0.185921
-0.109082 0.128475 0.188810
-0.072603 0.130145 0.198393
0.117235 0.129315 0.201666
0.229363 0.143524 0.196815
0.386442 0.140810 0.215057
0.522929 0.136077 0.221691
0.624139 0.132269 0.225051
0.702852 0.130366 0.226784
0.772459 0.130030 0.227839
0.842286 0.131030 0.228613
0.914902 0.133802 0.229687
0.970485 0.139559 0.232038
0.996671 0.148549 0.236352
1.013602 0.155819 0.240047
-0.082386 0.219094 0.186765
-0.066125 0.217739 0.181458
0.018681 0.215447 0.174538
0.070495 0.216058 0.172868
0.156657 0.220107 0.185381
0.240982 0.234619 0.185434
0.400096 0.234516 0.159589
0.533682 0.232141 0.156011
0.633026 0.228864 0.154362
0.710361 0.225205 0.155552
0.778918 0.222221 0.159040
0.847931 0.220110 0.164452
0.919097 0.219319 0.172263
0.972678 0.219972 0.183186
0.997222 0.221453 0.196293
1.015738 0.218032 0.206540
0.123038 0.296699 0.225889
0.134131 0.295038 0.223613
0.156645 0.290303 0.219807
0.183683 0.287466 0.221647
0.219523 0.290967 0.234709
0.272619 0.307367 0.247026
0.392064 0.324329 0.164897
0.535632 0.321882 0.126764
0.636610 0.318428 0.123329
0.714462 0.314063 0.126345
0.783148 0.309609 0.133029
0.851917 0.305196 0.142408
0.922337 0.301172 0.154490
0.974507 0.297485 0.169795
0.997737 0.293737 0.186935
1.018116 0.285157 0.198990
0.192788 0.352028 0.267930
0.200414 0.350529 0.266709
0.216741 0.346395 0.264355
0.236755 0.343655 0.264656
0.258721 0.345849 0.271054
0.303856 0.357308 0.280452
0.389648 0.376831 0.228622
0.532946 0.377677 0.124523
0.637380 0.373503 0.103102
0.716182 0.368471 0.105219
0.785555 0.363471 0.114555
0.854570 0.358314 0.127914
0.924921 0.353405 0.144489
0.975952 0.348464 0.164280
0.998160 0.343068 0.184131
1.020291 0.332997 0.196290
0.235495 0.393548 0.300963
0.241480 0.392206 0.299948
0.253898 0.388893 0.298009
0.270776 0.386572 0.296458
0.290628 0.389189 0.301364
0.330981 0.396678 0.308445
0.405093 0.416049 0.285083
0.530838 0.421534 0.157319
0.637322 0.417094 0.102175
0.717318 0.411742 0.096693
0.787373 0.406110 0.106398
0.856827 0.400518 0.123070
0.927253 0.395170 0.143780
0.977286 0.389838 0.166554
0.998540 0.383568 0.186356
1.022445 0.371844 0.197857
0.279108 0.437494 0.336029
0.283413 0.436386 0.335066
0.291538 0.433905 0.333280
0.304986 0.432294 0.330189
0.324323 0.435210 0.334608
0.364720 0.442475 0.341883
0.425542 0.456651 0.333944
0.533489 0.472516 0.220994
0.635649 0.467848 0.133913
0.717741 0.460943 0.100457
0.788876 0.454259 0.105238
0.859236 0.447677 0.123454
0.929674 0.441583 0.145739
0.978793 0.435481 0.168478
0.998962 0.427958 0.188509
1.024795 0.412226 0.200422
0.335420 0.496996 0.382470
0.337699 0.496278 0.381369
0.341551 0.494865 0.379807
0.350084 0.494358 0.375219
0.368168 0.497296 0.379369
0.406536 0.504124 0.386775
0.461239 0.516546 0.387406
0.530851 0.531681 0.334566
0.632007 0.542392 0.225922
0.713548 0.531705 0.147982
0.788060 0.521713 0.112570
0.860743 0.512906 0.117346
0.931741 0.505086 0.137643
0.980250 0.497449 0.161232
0.999343 0.487477 0.182858
1.027750 0.464424 0.197890
0.395167 0.568119 0.435631
0.395960 0.567786 0.434265
0.397646 0.567193 0.433568
0.402961 0.567420 0.428718
0.419486 0.570236 0.432614
0.454015 0.576274 0.439633
0.502720 0.586576 0.444696
0.555823 0.599367 0.433497
0.619424 0.612050 0.367001
0.704767 0.621205 0.271591
0.779634 0.607387 0.184919
0.857081 0.595529 0.131014
0.931723 0.585339 0.121402
0.981101 0.575656 0.140184
0.999604 0.562799 0.163193
1.030693 0.531769 0.184209
0.453051 0.643821 0.489940
0.453086 0.643710 0.488518
0.454510 0.643662 0.489119
0.458710 0.644040 0.485226
0.473656 0.646526 0.488671
0.504151 0.651587 0.494863
0.547289 0.660166 0.501323
0.592587 0.670650 0.500744
0.638729 0.681796 0.485368
0.693540 0.693190 0.426492
0.769230 0.701444 0.333043
0.845346 0.688100 0.233701
0.925736 0.676285 0.158727
0.980119 0.664287 0.122091
0.999553 0.648588 0.129910
1.032845 0.610247 0.155884
0.509383 0.720648 0.544325
0.509272 0.720689 0.543123
0.511036 0.720593 0.544926
0.515349 0.721288 0.542548
0.529192 0.723515 0.545635
0.556334 0.727827 0.551207
0.594424 0.735069 0.557710
0.634316 0.743685 0.560922
0.673295 0.753286 0.557417
0.713814 0.763032 0.542651
0.763469 0.773660 0.492797
0.835823 0.781456 0.394883
0.913436 0.770843 0.286687
0.975094 0.758296 0.192554
0.999167 0.740164 0.125151
1.032619 0.695421 0.114949
0.565992 0.798043 0.599742
0.565915 0.797957 0.598767
0.568303 0.798248 0.601480
0.572915 0.798925 0.600361
0.586054 0.800991 0.603188
0.610537 0.804922 0.608118
0.644106 0.810862 0.614120
0.679457 0.818139 0.618618
0.713800 0.826193 0.619646
0.748207 0.834768 0.615213
0.786499 0.844129 0.601497
0.836004 0.854970 0.555104
0.906114 0.862269 0.454441
0.967490 0.852276 0.337623
0.997569 0.833876 0.227794
1.027597 0.784111 0.120472
0.622646 0.874667 0.655277
0.622549 0.874614 0.654510
0.625769 0.875177 0.657704
0.630696 0.875929 0.657443
0.643433 0.877935 0.660148
0.665605 0.881355 0.664519
0.695208 0.886703 0.669949
0.726351 0.892790 0.674664
0.756903 0.899401 0.677491
0.787570 0.906832 0.677498
0.820283 0.914591 0.672580
0.859711 0.923257 0.658195
0.909705 0.932937 0.613071
0.964722 0.939682 0.511820
0.994664 0.925650 0.385494
1.016508 0.874762 0.234084
0.673926 0.939227 0.705176
0.673859 0.939269 0.704735
0.677906 0.939871 0.708064
0.683208 0.940461 0.708352
0.695390 0.941937 0.710954
0.715307 0.944412 0.714824
0.741313 0.947849 0.719686
0.768655 0.951488 0.724074
0.796164 0.955518 0.727475
0.823629 0.959795 0.729324
0.852728 0.964289 0.728615
0.886562 0.969322 0.722858
0.925748 0.974744 0.707255
0.964134 0.980592 0.661674
0.994945 0.985698 0.563771
1.004288 0.955312 0.399081
0.775452 0.999514 0.800194
0.775331 0.999509 0.799962
0.780882 0.999621 0.803703
0.785516 0.999576 0.804367
0.794551 0.999728 0.806290
0.808826 0.999796 0.809134
0.827349 0.999967 0.812616
0.848030 1.000038 0.816094
0.869452 1.003532 0.819015
0.891313 1.007786 0.821103
0.913688 1.012602 0.821910
0.935769 1.018294 0.820428
0.957249 1.025160 0.814326
0.977174 1.033365 0.799711
0.993509 1.044489 0.763855
1.019501 1.059450 0.679811
0.173715 -0.516307 0.341310
0.181580 -0.516077 0.340397
0.219558 -0.515280 0.338418
0.205929 -0.511857 0.326745
0.167410 -0.504265 0.301076
-0.100048 -0.481994 0.157442
0.225820 -0.472653 0.157247
0.465364 -0.484618 0.290937
0.592066 -0.489874 0.328297
0.680902 -0.492482 0.344322
0.755624 -0.493874 0.353798
0.828802 -0.494628 0.361062
0.904084 -0.494760 0.367403
0.964805 -0.494174 0.372765
0.994114 -0.493010 0.375955
1.002298 -0.492300 0.373435
-0.073588 0.064002 0.304222
-0.065270 0.047105 0.300621
-0.045364 0.052778 0.303008
0.045655 0.058807 0.304396
0.122608 0.067131 0.306031
0.224608 0.101416 0.285622
0.352012 0.130421 0.304339
0.498510 0.118791 0.332138
0.605555 0.106982 0.341079
0.687697 0.097255 0.342621
0.759909 0.089238 0.341291
0.831623 0.082465 0.338412
0.906170 0.077356 0.334703
0.965979 0.076015 0.330247
0.995168 0.079533 0.324599
1.008877 0.081932 0.313377
-0.125358 0.150177 0.319906
-0.121646 0.144726 0.318957
-0.099146 0.121761 0.315632
-0.041495 0.122656 0.315277
0.114808 0.124223 0.314171
0.229671 0.144871 0.285667
0.357984 0.164617 0.303339
0.503362 0.156517 0.326443
0.609401 0.149809 0.333554
0.690946 0.145129 0.334815
0.762829 0.142255 0.333699
0.834156 0.140780 0.331467
0.908294 0.141159 0.328701
0.967125 0.144384 0.325554
0.995620 0.150546 0.321866
1.010093 0.154987 0.314592
-0.191653 0.244016 0.321993
-0.191676 0.244062 0.321901
-0.184266 0.237997 0.320553
-0.161512 0.230350 0.322665
0.003373 0.227552 0.327931
0.241506 0.225142 0.307834
0.371478 0.237973 0.310161
0.512901 0.235570 0.323949
0.616514 0.234657 0.329246
0.696703 0.235058 0.331679
0.767385 0.236587 0.332956
0.838365 0.238819 0.333404
0.911747 0.241963 0.333548
0.969048 0.246287 0.333991
0.996225 0.251804 0.335164
1.012208 0.255706 0.336086
-0.180444 0.317000 0.304841
-0.176084 0.316309 0.301718
-0.164598 0.313933 0.295506
-0.148097 0.313563 0.295887
0.056780 0.312970 0.289145
0.242152 0.308345 0.289470
0.393691 0.306657 0.287037
0.528071 0.303808 0.286657
0.628023 0.300870 0.287329
0.705940 0.298228 0.289400
0.775054 0.296666 0.292679
0.844463 0.296037 0.296862
0.916763 0.296198 0.301680
0.971629 0.297375 0.307655
0.996967 0.298713 0.314221
1.014940 0.295846 0.318271
-0.116669 0.372550 0.317592
-0.107360 0.371835 0.314839
-0.064686 0.369401 0.307635
0.057175 0.367468 0.304136
0.170287 0.363147 0.297031
0.297913 0.358887 0.317926
0.388933 0.372772 0.301442
0.532484 0.369347 0.276341
0.633529 0.365677 0.277109
0.711345 0.361827 0.280190
0.780119 0.358357 0.284729
0.849120 0.355277 0.290297
0.920337 0.352680 0.296834
0.973478 0.350409 0.304508
0.997561 0.347679 0.311747
1.016935 0.340889 0.316111
0.062516 0.413580 0.334509
0.074697 0.412914 0.332264
0.109513 0.410269 0.326410
0.147130 0.407932 0.324011
0.233123 0.401404 0.321145
0.328757 0.397449 0.345126
0.402643 0.414373 0.346069
0.532563 0.416831 0.278182
0.635911 0.412007 0.272697
0.714366 0.407307 0.275730
0.783619 0.402939 0.280989
0.852701 0.398788 0.287640
0.923583 0.395255 0.295499
0.975267 0.391787 0.303654
0.998012 0.387457 0.310711
1.019418 0.378138 0.314956
