luts/7.cube
LUT_3D_SIZE 6
-0.035091 0.023329 0.029084
0.043312 0.063797 0.078263
0.398292 0.064831 0.081500
0.708752 0.024843 0.055850
0.918228 -0.036590 0.051365
1.015602 0.035420 0.085281
0.128430 0.199166 0.144926
0.141573 0.203612 0.149820
0.400266 0.269579 -0.040918
0.715269 0.262846 -0.110497
0.922846 0.247346 -0.098003
1.018556 0.226692 0.044553
0.263783 0.384921 0.276826
0.274303 0.386577 0.278509
0.407757 0.417513 0.248845
0.718259 0.416399 -0.163283
0.928870 0.398302 -0.143958
1.024284 0.371475 -0.027908
0.395571 0.566103 0.412587
0.405155 0.567888 0.414597
0.504940 0.587800 0.426588
0.704633 0.622819 0.222214
0.931659 0.587713 -0.162933
1.031535 0.531428 -0.079244
0.564866 0.797482 0.588316
0.572942 0.798754 0.590132
0.644066 0.810994 0.603547
0.747612 0.834839 0.602551
0.906232 0.862726 0.433979
1.026998 0.783366 -0.126023
0.775653 0.999541 0.799710
0.782064 0.999626 0.800671
0.823831 0.999936 0.808494
0.889163 1.007380 0.816997
0.956378 1.024876 0.810202
1.019432 1.059373 0.673936
0.173715 -0.516307 0.341310
0.205929 -0.511857 0.326745
0.225820 -0.472653 0.157247
0.680902 -0.492482 0.344322
0.904084 -0.494760 0.367403
1.002298 -0.492300 0.373435
-0.191653 0.244016 0.321993
-0.161512 0.230350 0.322665
0.371478 0.237973 0.310161
0.696703 0.235058 0.331679
0.911747 0.241963 0.333548
1.012208 0.255706 0.336086
0.062516 0.413580 0.334509
0.147130 0.407932 0.324011
0.402643 0.414373 0.346069
0.714366 0.407307 0.275730
0.923583 0.395255 0.295499
1.019418 0.378138 0.314956
0.367296 0.575993 0.446230
0.382100 0.574036 0.448934
0.502563 0.585638 0.473074
0.705106 0.618416 0.337012
0.931346 0.584593 0.269289
1.029482 0.536999 0.293923
0.566922 0.798817 0.611531
0.576950 0.800007 0.616907
0.646935 0.811359 0.628582
0.750050 0.834850 0.631600
0.905928 0.861546 0.480064
1.027928 0.787139 0.229159
0.775600 0.999527 0.802938
0.794419 0.999741 0.811980
0.834828 1.000011 0.819571
0.895589 1.008639 0.827784
0.959223 1.025766 0.820860
1.019629 1.059581 0.689824
0.186870 -0.513220 0.556936
0.216999 -0.511154 0.545154
0.252436 -0.464096 0.333977
0.630351 -0.472674 0.433633
0.881335 -0.482009 0.470008
0.999798 -0.483509 0.466608
-0.214759 0.289703 0.541710
-0.146047 0.230094 0.533823
0.384792 0.256285 0.430151
0.668429 0.262114 0.467760
0.895922 0.260366 0.469306
1.004053 0.266446 0.451547
-0.322801 0.455905 0.524286
-0.309974 0.449257 0.524189
0.398790 0.417934 0.493876
0.693368 0.421125 0.479249
0.911301 0.421864 0.478516
1.013180 0.425870 0.478106
0.178354 0.603656 0.483820
0.209956 0.602111 0.484557
0.516030 0.589889 0.532827
0.708238 0.613183 0.467753
0.928236 0.603866 0.457938
1.026245 0.588632 0.467704
0.546120 0.806448 0.630249
0.561089 0.806373 0.635540
0.670315 0.815768 0.669919
0.761773 0.836616 0.677548
0.905331 0.860600 0.559096
1.027508 0.813279 0.430590
0.777022 0.999618 0.817760
0.795563 0.999807 0.824724
0.867682 1.003358 0.852363
0.917136 1.012954 0.862040
0.968415 1.028843 0.858080
1.020480 1.060486 0.751948
0.193705 -0.511510 0.775018
0.214286 -0.510330 0.766430
0.383012 -0.484432 0.658366
0.553180 -0.424715 0.550277
0.822463 -0.442949 0.613739
0.995598 -0.459228 0.610067
-0.209464 0.282117 0.759783
-0.153534 0.235953 0.751316
0.413702 0.246063 0.673993
0.619688 0.331248 0.611257
0.853146 0.322202 0.642678
0.998860 0.308270 0.616493
-0.311108 0.439911 0.776751
-0.290211 0.431131 0.774499
0.419150 0.419302 0.718140
0.637260 0.461366 0.632326
0.869040 0.455885 0.667321
0.999673 0.448905 0.652934
-0.454429 0.657059 0.764006
-0.438812 0.650204 0.764145
0.324205 0.625530 0.747736
0.688064 0.630881 0.679713
0.902867 0.634645 0.699880
1.008287 0.649422 0.709754
0.273993 0.848771 0.685139
0.313038 0.848432 0.689468
0.603012 0.839848 0.723512
0.780954 0.841404 0.774879
0.910889 0.864285 0.722595
1.026018 0.845023 0.706286
0.756453 1.000006 0.845231
0.785091 1.000027 0.858814
0.874743 1.005858 0.900067
0.939905 1.018162 0.930986
0.979925 1.032629 0.937965
1.022459 1.062526 0.874169
0.164813 -0.511523 0.997909
0.195928 -0.510867 0.997042
0.417709 -0.499051 0.979492
0.613778 -0.451146 0.894069
0.745047 -0.364114 0.813272
0.957585 -0.371105 0.811155
-0.220282 0.258195 0.994262
-0.180156 0.237903 0.993313
0.398824 0.238267 0.974922
0.645549 0.312132 0.904134
0.789791 0.411838 0.844966
0.976764 0.411720 0.840716
-0.290884 0.411583 0.998163
-0.267874 0.406267 0.997920
0.441365 0.420130 0.983666
0.670979 0.449953 0.926081
0.807992 0.515089 0.862711
0.981393 0.518266 0.867308
-0.408725 0.599308 1.002122
-0.385519 0.595796 1.000989
0.410918 0.599478 0.996521
0.718744 0.636743 0.960872
0.850306 0.677672 0.899171
0.990921 0.690168 0.912721
-0.610574 0.892533 0.999801
-0.585890 0.889009 0.999738
-0.192197 0.876696 0.998471
0.656210 0.870002 0.993442
0.915504 0.878029 0.958142
0.999011 0.897213 0.967720
0.367408 1.050356 0.892204
0.451684 1.050326 0.901565
0.690114 1.047665 0.933072
0.862964 1.044199 0.963609
0.989547 1.041632 0.995107
1.025429 1.065446 0.992566
0.126915 -0.514196 1.175583
0.164420 -0.513728 1.173090
0.388861 -0.505534 1.142230
0.617061 -0.471179 1.063483
0.751475 -0.402327 0.998164
0.920352 -0.256400 0.979939
-0.241315 0.224951 1.171107
-0.209182 0.229606 1.169159
0.358311 0.228364 1.138566
0.636283 0.288747 1.066947
0.790617 0.383786 0.999718
0.953119 0.488535 0.990970
-0.297046 0.381744 1.186911
-0.273561 0.380330 1.185117
0.453237 0.417038 1.143186
0.668813 0.439851 1.079293
0.815632 0.497661 1.003347
0.962529 0.572808 0.994562
-0.381928 0.544034 1.210704
-0.357452 0.545168 1.209027
0.432093 0.573710 1.174845
0.726938 0.642443 1.108998
0.864609 0.673221 1.031079
0.979186 0.725993 0.999287
-0.562672 0.810529 1.239091
-0.536142 0.812036 1.237292
0.220327 0.819004 1.216811
0.682874 0.838082 1.181109
0.927580 0.885382 1.096045
0.995268 0.914608 1.023560
-0.654326 1.020617 1.171280
-0.614907 1.019321 1.170224
-0.321315 1.013305 1.164920
0.552350 1.007355 1.158478
0.863332 1.000027 1.153009
1.008661 0.999925 1.064341
