luts/8.cube
LUT_3D_SIZE 6
-0.069007 -0.069007 -0.063405
-0.037082 -0.062290 -0.060472
0.149732 0.080676 0.085334
0.574193 0.235641 0.239132
0.863276 0.386830 0.388486
0.947093 0.448574 0.449506
-0.058731 -0.028739 -0.056748
0.031916 0.038648 -0.047430
0.158078 0.147202 0.098971
0.571642 0.307836 0.248218
0.863469 0.426655 0.395796
0.947748 0.469297 0.454309
0.126755 0.265298 0.130095
0.145867 0.264561 0.130092
0.137140 0.189919 0.114842
0.569656 0.443189 0.278407
0.865026 0.525971 0.417570
0.950329 0.537281 0.470796
0.335370 0.630434 0.337320
0.347417 0.630333 0.338118
0.471935 0.631568 0.347103
0.575594 0.614526 0.346864
0.870420 0.681092 0.464788
0.954828 0.624591 0.495861
0.525311 0.903576 0.526275
0.531394 0.903600 0.527057
0.602253 0.905078 0.532941
0.692640 0.907420 0.542022
0.948926 0.956165 0.602794
0.966200 0.768154 0.546549
0.765321 1.132598 0.765345
0.767972 1.132611 0.765952
0.788059 1.133144 0.767889
0.801799 1.133639 0.769110
0.841435 1.134577 0.773785
1.038517 1.151090 0.806586
-0.296186 -0.564365 -0.292902
-0.299246 -0.564669 -0.288288
-0.287561 -0.564129 -0.263789
0.503312 -0.730292 -0.154048
0.860306 -0.663950 0.351563
0.857929 -0.664816 0.323503
0.032888 0.077755 0.098339
0.072917 0.076322 0.107039
0.164021 -0.023731 0.077851
0.585145 0.189586 0.216854
0.870767 0.361279 0.371494
0.946617 0.435936 0.441139
0.126827 0.265494 0.213684
0.096606 0.277227 0.128383
0.147854 0.208333 0.136999
0.569754 0.428791 0.281673
0.866247 0.514085 0.420377
0.948881 0.531351 0.478253
0.337730 0.630582 0.407401
0.309664 0.634469 0.322434
0.455386 0.631049 0.351385
0.579643 0.619223 0.355790
0.870196 0.672870 0.466777
0.954009 0.620043 0.503028
0.526804 0.903841 0.564438
0.510043 0.904249 0.515696
0.588785 0.904515 0.535756
0.688278 0.907008 0.545467
0.952141 0.958941 0.608974
0.965359 0.764843 0.552579
0.766038 1.132727 0.780550
0.762467 1.132868 0.762886
0.779315 1.133573 0.762347
0.791602 1.135327 0.753658
0.836409 1.136450 0.760139
1.038960 1.152612 0.799228
-0.294436 -0.563776 -0.200285
-0.289789 -0.563694 -0.190576
-0.278800 -0.563323 -0.188307
0.525759 -0.725990 0.372983
0.867014 -0.660396 0.483308
0.859336 -0.663318 0.427016
0.129356 0.189888 0.359187
0.061561 0.068683 0.381309
0.172302 0.129169 0.330460
0.571054 0.250112 0.454814
0.862181 0.397187 0.525738
0.946366 0.457800 0.540501
0.127371 0.249691 0.318504
0.145601 0.255654 0.321644
0.193995 0.274455 0.347716
0.712907 0.252697 0.311685
0.949981 0.445272 0.471107
0.943569 0.525275 0.546344
0.340407 0.630933 0.498098
0.345580 0.630146 0.490386
0.274933 0.665319 0.319609
0.603797 0.647269 0.411452
0.906036 0.653456 0.500675
0.947183 0.625129 0.579537
0.528672 0.904339 0.622690
0.532222 0.903956 0.617313
0.500849 0.921140 0.512440
0.673693 0.913995 0.569655
0.967041 0.972306 0.636522
0.960041 0.765412 0.626193
0.766464 1.132824 0.792869
0.762370 1.133180 0.785935
0.766572 1.131508 0.764025
0.780369 1.134074 0.748608
0.832395 1.135268 0.760245
1.039014 1.151977 0.805717
-0.318565 -0.730390 0.594800
-0.290972 -0.729065 0.602124
0.311264 -0.721752 0.620997
0.492270 -0.719178 0.590952
0.858428 -0.659886 0.635454
0.859139 -0.662345 0.502843
0.257341 0.316006 0.640191
0.190842 0.191385 0.663923
0.418350 0.265365 0.636846
0.571824 0.278010 0.632943
0.862688 0.402099 0.663669
0.946542 0.460465 0.612987
0.282944 0.447746 0.635904
0.286861 0.437426 0.632940
0.286797 0.303144 0.827255
0.662291 0.298752 0.718366
0.952156 0.435168 0.666678
0.944350 0.503613 0.603441
0.339575 0.617111 0.631505
0.347474 0.620244 0.634028
0.349014 0.650760 0.656430
0.626532 0.649895 0.654282
0.937287 0.771110 0.777983
0.957199 0.807547 0.810375
0.532623 0.905334 0.727538
0.536255 0.905026 0.723210
0.536910 0.911695 0.695104
0.712720 0.949921 0.730911
0.968526 0.965279 0.730992
0.966826 0.857749 0.809671
0.766397 1.132840 0.793191
0.758449 1.133759 0.785847
0.751717 1.132826 0.759780
0.879950 1.115880 0.882058
0.894469 1.115018 0.887871
1.031116 1.123566 0.923047
-0.085684 -0.688858 0.861790
0.133373 -0.687721 0.864496
0.401000 -0.680856 0.872997
0.495076 -0.682212 0.845984
0.813247 -0.661890 0.838727
0.856032 -0.661483 0.586733
0.363547 0.399995 0.874007
0.322409 0.322513 0.889124
0.468852 0.369651 0.872105
0.605485 0.382371 0.873155
0.893469 0.438717 0.906367
0.947654 0.466294 0.735167
0.386487 0.507063 0.875101
0.389003 0.496906 0.872198
0.396828 0.404832 0.926899
0.611478 0.428757 0.930948
0.975787 0.451708 0.972649
0.945173 0.509776 0.726281
0.434653 0.668012 0.879551
0.437181 0.661848 0.878292
0.414370 0.639596 0.928837
0.717934 0.744741 0.919810
0.970278 0.752026 0.965173
0.954168 0.773117 0.836092
0.558483 0.929466 0.930202
0.563425 0.931262 0.931674
0.570744 0.944716 0.942818
0.707191 0.971428 0.967472
0.923465 0.929624 0.926418
0.991902 0.969071 0.968096
0.768475 1.133348 0.842345
0.762880 1.133903 0.838616
0.767190 1.131929 0.832254
0.884125 1.115584 0.901530
1.007261 1.096815 0.993805
1.024283 1.099540 1.010367
-0.081466 -0.688630 0.862238
0.096508 -0.688297 0.863238
0.316876 -0.684455 0.867061
0.389927 -0.683696 0.859833
0.492068 -0.682473 0.846103
0.879566 -0.647438 0.859874
0.399310 0.421581 0.938099
0.372080 0.372082 0.938190
0.454031 0.404587 0.937869
0.575293 0.416291 0.939085
0.699441 0.432006 0.940998
0.974555 0.505212 0.945695
0.419270 0.504407 0.940106
0.422865 0.498044 0.939756
0.425905 0.456935 0.937964
0.566122 0.465686 0.937403
0.690296 0.479066 0.939615
0.975782 0.547563 0.946645
0.451288 0.611675 0.944585
0.454529 0.606889 0.944147
0.452867 0.578354 0.942474
0.751133 0.780093 0.947652
0.795745 0.745647 0.944938
0.981270 0.781423 0.963212
0.514354 0.779794 0.956320
0.517149 0.777110 0.955768
0.516965 0.761512 0.954389
0.735868 0.838031 0.957447
0.966483 0.972405 0.990733
0.999255 0.969246 0.994028
0.706483 1.010614 0.986322
0.708907 1.011109 0.986501
0.712764 1.011913 0.986604
0.836844 1.009114 0.991992
0.969730 1.005563 0.999016
1.002229 1.003543 1.000808
