luts/8.cube
LUT_3D_SIZE 16
-0.069007 -0.069007 -0.063405
-0.053210 -0.067073 -0.062103
-0.033304 -0.063911 -0.060704
-0.037082 -0.062290 -0.060472
-0.038243 -0.062316 -0.060508
-0.011325 -0.062898 -0.060166
0.149732 0.080676 0.085334
0.366187 0.135434 0.140642
0.486859 0.193471 0.197521
0.574193 0.235641 0.239132
0.682595 0.289750 0.292484
0.784566 0.343060 0.345112
0.863276 0.386830 0.388486
0.917281 0.423239 0.424533
0.945447 0.446925 0.447954
0.947093 0.448574 0.449506
-0.064816 -0.050033 -0.059575
-0.045116 -0.045116 -0.057806
-0.033699 -0.064995 -0.060946
-0.038636 -0.065876 -0.061277
-0.039466 -0.065263 -0.061167
-0.017483 -0.066532 -0.060995
0.149268 0.075355 0.084570
0.366907 0.132703 0.141261
0.487396 0.191255 0.197665
0.574592 0.233447 0.239029
0.682969 0.287800 0.292198
0.784751 0.341153 0.344681
0.863296 0.385198 0.387923
0.917477 0.421836 0.424042
0.945632 0.445775 0.447548
0.947008 0.447113 0.448860
-0.050100 0.046223 -0.045361
-0.048707 0.050891 -0.042141
0.061502 0.075280 0.022644
-0.030982 -0.057100 -0.059299
-0.036951 -0.059152 -0.059838
0.026469 -0.050698 -0.056168
0.151761 0.100175 0.088590
0.364068 0.163310 0.141770
0.485312 0.219412 0.199528
0.572949 0.258961 0.241473
0.681806 0.308405 0.295009
0.784192 0.357593 0.347595
0.863095 0.398414 0.390797
0.917364 0.432394 0.426638
0.945675 0.454426 0.449960
0.947076 0.453324 0.450770
-0.058731 -0.028739 -0.056748
-0.062057 -0.029411 -0.057009
-0.053567 -0.020761 -0.055951
0.031916 0.038648 -0.047430
-0.030153 -0.037875 -0.056406
0.067663 0.076784 0.025794
0.158078 0.147202 0.098971
0.361423 0.220386 0.149469
0.483357 0.272274 0.206563
0.571642 0.307836 0.248218
0.681168 0.349858 0.301214
0.783955 0.391743 0.353248
0.863469 0.426655 0.395796
0.918031 0.455881 0.431300
0.946375 0.474264 0.454303
0.947748 0.469297 0.454309
-0.058867 -0.030648 -0.056912
-0.061596 -0.031153 -0.057124
-0.055944 -0.030130 -0.056691
-0.036616 -0.028386 -0.055693
-0.062248 -0.062248 -0.061567
0.102770 0.133480 0.082987
0.175169 0.203781 0.121132
0.359518 0.273270 0.160892
0.481785 0.323681 0.216223
0.570480 0.356665 0.257092
0.680715 0.393592 0.309133
0.783880 0.430018 0.360515
0.863994 0.459955 0.402352
0.918959 0.484852 0.437536
0.947210 0.499657 0.460190
0.948550 0.490782 0.459271
0.085508 0.142009 0.088169
0.082352 0.141859 0.088132
0.092575 0.142285 0.088467
0.105539 0.142842 0.089345
0.103503 0.134922 0.084009
-0.069637 -0.069637 -0.063587
0.178604 0.242198 0.128559
0.358902 0.317212 0.173674
0.480942 0.367260 0.226775
0.569812 0.399428 0.266692
0.680315 0.433464 0.317656
0.783957 0.465962 0.368262
0.864614 0.492209 0.409411
0.919729 0.513542 0.444054
0.948337 0.525789 0.466628
0.949205 0.514174 0.464828
0.126755 0.265298 0.130095
0.124208 0.265924 0.130634
0.139076 0.264601 0.129863
0.145867 0.264561 0.130092
0.155743 0.264541 0.130425
0.170431 0.258187 0.130122
0.137140 0.189919 0.114842
0.349824 0.345301 0.181014
0.480947 0.408829 0.238935
0.569656 0.443189 0.278407
0.680153 0.475570 0.328103
0.784234 0.504103 0.377443
0.865026 0.525971 0.417570
0.920791 0.542982 0.451257
0.949540 0.551882 0.473521
0.950329 0.537281 0.470796
0.183452 0.380164 0.186459
0.181673 0.380487 0.186603
0.195142 0.379554 0.186666
0.200876 0.379537 0.186910
0.220305 0.379607 0.187949
0.265077 0.379658 0.190688
0.313102 0.374132 0.191525
0.301320 0.341633 0.173575
0.477503 0.448169 0.250987
0.570431 0.495762 0.294930
0.680827 0.527734 0.343070
0.785051 0.551784 0.390457
0.865999 0.567601 0.428717
0.922374 0.578190 0.460504
0.950985 0.581703 0.481797
0.951324 0.561385 0.477274
0.255299 0.501858 0.257733
0.253871 0.502087 0.257704
0.263866 0.501521 0.258111
0.270186 0.501495 0.258431
0.293670 0.501628 0.259700
0.345103 0.501921 0.263031
0.408445 0.502457 0.268248
0.450786 0.496614 0.268988
0.462010 0.469603 0.255902
0.569060 0.551381 0.314083
0.682859 0.589949 0.363771
0.786672 0.610048 0.408561
0.867510 0.619674 0.444215
0.924675 0.622935 0.473302
0.953198 0.619408 0.493112
0.952872 0.589571 0.485327
0.335370 0.630434 0.337320
0.334151 0.630625 0.337141
0.341882 0.630255 0.337788
0.347417 0.630333 0.338118
0.368945 0.630414 0.339457
0.416089 0.630902 0.342608
0.471935 0.631568 0.347103
0.514610 0.632201 0.351090
0.546415 0.627841 0.351555
0.575594 0.614526 0.346864
0.685365 0.657796 0.389213
0.790163 0.677117 0.432335
0.870420 0.681092 0.464788
0.927564 0.676860 0.489865
0.955992 0.665681 0.507804
0.954828 0.624591 0.495861
0.411554 0.744969 0.413076
0.410474 0.744995 0.412817
0.416691 0.744709 0.413610
0.421076 0.744891 0.413892
0.438386 0.745053 0.415019
0.477860 0.745661 0.417888
0.526117 0.746427 0.421861
0.563998 0.747065 0.425352
0.597617 0.747689 0.428698
0.640197 0.747207 0.432431
0.712187 0.752176 0.443103
0.798584 0.753101 0.463646
0.875118 0.749408 0.490555
0.932329 0.738640 0.510826
0.960131 0.719651 0.526615
0.957656 0.666390 0.509465
0.475764 0.836201 0.476971
0.474820 0.836229 0.476752
0.480114 0.836228 0.477632
0.483417 0.836285 0.477879
0.496590 0.836313 0.478840
0.528173 0.836939 0.481232
0.570092 0.837652 0.484728
0.604775 0.838476 0.487913
0.634773 0.839279 0.491011
0.672312 0.840137 0.495005
0.733947 0.843959 0.503615
0.843903 0.867631 0.531346
0.889176 0.830825 0.526970
0.938647 0.806908 0.536807
0.965988 0.780533 0.549895
0.961349 0.714856 0.526384
0.525311 0.903576 0.526275
0.524463 0.903712 0.526035
0.528943 0.903474 0.526755
0.531394 0.903600 0.527057
0.541152 0.903691 0.527770
0.565990 0.904242 0.529836
0.602253 0.905078 0.532941
0.634936 0.905757 0.535946
0.661991 0.906456 0.538770
0.692640 0.907420 0.542022
0.738896 0.908753 0.547213
0.814342 0.916628 0.560410
0.948926 0.956165 0.602794
0.957252 0.889667 0.576465
0.973098 0.845728 0.576592
0.966200 0.768154 0.546549
0.562185 0.952397 0.562997
0.561333 0.952364 0.562669
0.565499 0.952359 0.563590
0.567363 0.952427 0.563718
0.574439 0.952534 0.564229
0.593524 0.953070 0.565862
0.624371 0.953668 0.568621
0.655735 0.954611 0.571694
0.681077 0.955372 0.574183
0.706254 0.956012 0.576830
0.741123 0.957133 0.580755
0.794742 0.959212 0.587263
0.876761 0.970124 0.603713
1.006670 1.006672 0.729425
0.989811 0.927187 0.626483
0.972518 0.826654 0.570587
0.594855 0.978890 0.595513
0.594134 0.978857 0.595208
0.597696 0.978933 0.596003
0.599104 0.978982 0.596216
0.603925 0.978918 0.596440
0.617833 0.979357 0.597687
0.642558 0.980008 0.600032
0.671351 0.981065 0.602991
0.695402 0.981800 0.605521
0.716881 0.982545 0.607911
0.742708 0.983631 0.611171
0.781224 0.984967 0.615759
0.836183 0.987393 0.623186
0.922685 0.997473 0.668130
1.028256 1.028258 0.742972
0.989556 0.903487 0.620788
0.765321 1.132598 0.765345
0.765188 1.132613 0.765350
0.766786 1.132631 0.765698
0.767972 1.132611 0.765952
0.771869 1.132723 0.766363
0.779654 1.132866 0.767145
0.788059 1.133144 0.767889
0.793551 1.133286 0.768448
0.796908 1.133386 0.768598
0.801799 1.133639 0.769110
0.811486 1.133808 0.770253
0.825113 1.134102 0.771837
0.841435 1.134577 0.773785
0.867976 1.135392 0.777238
0.927604 1.141755 0.787528
1.038517 1.151090 0.806586
-0.296635 -0.564643 -0.294160
-0.295448 -0.564604 -0.293899
-0.296246 -0.564648 -0.295697
-0.302122 -0.564840 -0.296548
-0.308504 -0.564982 -0.296994
-0.306151 -0.564895 -0.296431
-0.289158 -0.564402 -0.294412
-0.171083 -0.561946 -0.287067
0.312219 -0.746867 -0.360161
0.499850 -0.731469 -0.311260
0.673352 -0.706475 -0.206514
0.797482 -0.680808 0.168712
0.859063 -0.665094 0.245957
0.879873 -0.659222 0.265630
0.878022 -0.659861 0.261436
0.857276 -0.665635 0.237226
-0.065373 -0.049678 -0.043302
-0.048169 -0.048169 -0.042954
-0.022731 -0.045507 -0.038987
-0.028663 -0.043277 -0.035668
-0.030954 -0.045198 -0.036238
0.029380 -0.049135 -0.034346
0.150054 0.082902 0.096480
0.367086 0.131784 0.148537
0.487976 0.187963 0.201444
0.575286 0.229548 0.241243
0.683406 0.284278 0.293350
0.785076 0.338422 0.345401
0.863512 0.383148 0.388582
0.917602 0.420580 0.424837
0.945655 0.445247 0.448606
0.947046 0.447298 0.450353
-0.054583 0.045306 -0.047904
-0.010406 0.050427 0.027109
0.048730 0.059937 0.025952
-0.027030 -0.044510 -0.044097
-0.031405 -0.045788 -0.044497
0.038046 -0.030579 -0.034014
0.152289 0.103779 0.098157
0.362765 0.161133 0.147387
0.484606 0.216232 0.203253
0.572439 0.255811 0.244457
0.681515 0.306083 0.297493
0.783806 0.356066 0.349782
0.863000 0.397686 0.392915
0.917139 0.432192 0.428602
0.945589 0.454673 0.451856
0.947000 0.454169 0.452853
-0.063580 -0.029950 -0.060690
-0.041110 -0.024527 -0.032757
-0.042020 -0.021430 -0.041568
-0.021649 -0.021649 -0.040746
-0.026912 -0.013265 -0.040390
0.077742 0.092838 0.061530
0.156711 0.148156 0.106843
0.360293 0.219045 0.154681
0.482783 0.270412 0.210100
0.571133 0.305848 0.251103
0.680834 0.348262 0.303623
0.783780 0.390746 0.355491
0.863249 0.426132 0.397909
0.917759 0.455789 0.433263
0.946340 0.474555 0.456266
0.947523 0.470005 0.456293
-0.063710 -0.031724 -0.060344
-0.043048 -0.027091 -0.033234
-0.043616 -0.027508 -0.042232
-0.017043 -0.028537 -0.041338
-0.065357 -0.065357 -0.051262
0.105170 0.137594 0.095031
0.174611 0.204127 0.127987
0.358537 0.272319 0.165641
0.481240 0.322491 0.219573
0.570035 0.355529 0.259896
0.680307 0.392702 0.311526
0.783746 0.429440 0.362711
0.863854 0.459763 0.404435
0.918718 0.484883 0.439499
0.947205 0.499989 0.462056
0.948430 0.491482 0.461267
0.081941 0.141833 0.087790
0.092805 0.142147 0.099985
0.098177 0.141396 0.097075
0.105355 0.141619 0.097492
0.103163 0.133606 0.092429
-0.070988 -0.070988 -0.053348
0.177714 0.241622 0.134803
0.358061 0.316433 0.178044
0.480348 0.366397 0.229944
0.569365 0.398601 0.269411
0.679968 0.432840 0.320000
0.783797 0.465548 0.370407
0.864220 0.492083 0.411298
0.919599 0.513727 0.446011
0.948217 0.525991 0.468479
0.949132 0.514786 0.466790
0.125631 0.265589 0.133590
0.127830 0.265036 0.138181
0.140665 0.263152 0.136026
0.145274 0.263161 0.136166
0.155307 0.263149 0.136497
0.169984 0.256724 0.136206
0.136309 0.188189 0.121366
0.348972 0.344575 0.185220
0.480385 0.408231 0.241944
0.569267 0.442512 0.280953
0.679934 0.475046 0.330320
0.783966 0.503834 0.379541
0.864879 0.525972 0.419498
0.920702 0.543109 0.453194
0.949427 0.552190 0.475390
0.950256 0.537857 0.472735
0.183685 0.380014 0.191526
0.181139 0.380533 0.190957
0.194805 0.378771 0.190679
0.200486 0.378775 0.190920
0.219805 0.378765 0.191865
0.264612 0.379001 0.194623
0.312676 0.373520 0.195417
0.300661 0.340786 0.177960
0.477033 0.447625 0.253828
0.570048 0.495212 0.297273
0.680519 0.527236 0.345112
0.784809 0.551405 0.392395
0.865865 0.567468 0.430566
0.922406 0.578305 0.462429
0.950962 0.581929 0.483620
0.951352 0.561864 0.479191
0.256045 0.501739 0.262555
0.251807 0.502376 0.259884
0.263739 0.501043 0.260899
0.269848 0.501073 0.261217
0.292955 0.501200 0.262450
0.344317 0.501474 0.265738
0.407885 0.502052 0.270875
0.450349 0.496215 0.271674
0.461713 0.469416 0.258787
0.568781 0.550906 0.316261
0.682565 0.589538 0.365673
0.786460 0.609668 0.410298
0.867337 0.619555 0.445988
0.924499 0.623006 0.475028
0.953140 0.619688 0.494836
0.952822 0.589987 0.487119
0.336223 0.630392 0.341649
0.331866 0.630917 0.338213
0.341961 0.629972 0.339922
0.347243 0.630049 0.340240
0.368386 0.630136 0.341477
0.415362 0.630617 0.344623
0.471488 0.631294 0.349128
0.514433 0.631960 0.353071
0.546207 0.627636 0.353535
0.575502 0.614263 0.348849
0.685130 0.657517 0.390971
0.789947 0.676812 0.433983
0.870282 0.680893 0.466425
0.927532 0.676897 0.491566
0.955896 0.665867 0.509438
0.954775 0.624950 0.497628
0.412298 0.744964 0.416660
0.408395 0.745246 0.413302
0.416849 0.744648 0.415419
0.421063 0.744661 0.415636
0.438056 0.744806 0.416778
0.477292 0.745470 0.419616
0.525782 0.746245 0.423562
0.563894 0.746992 0.426991
0.597530 0.747659 0.430396
0.640098 0.747002 0.434012
0.712108 0.751981 0.444691
0.798500 0.753035 0.465217
0.874984 0.749466 0.491976
0.932285 0.738536 0.512425
0.960086 0.719814 0.528145
0.957609 0.666675 0.511106
0.476465 0.836173 0.479685
0.473193 0.836311 0.477079
0.480468 0.836159 0.479230
0.483578 0.836171 0.479407
0.496439 0.836197 0.480321
0.527819 0.836811 0.482695
0.569840 0.837528 0.486177
0.604769 0.838362 0.489511
0.634663 0.839181 0.492428
0.672250 0.840040 0.496432
0.733988 0.844068 0.505093
0.843826 0.867270 0.532570
0.889189 0.830650 0.528274
0.938536 0.806849 0.538181
0.965938 0.780595 0.551356
0.961307 0.714892 0.528002
0.525824 0.903644 0.528353
0.523278 0.903728 0.526373
0.529305 0.903428 0.528331
0.531726 0.903542 0.528508
0.541235 0.903684 0.529207
0.565900 0.904169 0.531215
0.602200 0.904999 0.534277
0.634992 0.905782 0.537425
0.661996 0.906411 0.540009
0.692654 0.907379 0.543301
0.738903 0.908698 0.548567
0.814294 0.916642 0.561750
0.948961 0.956317 0.604094
0.957321 0.889793 0.577754
0.973096 0.845830 0.578019
0.966019 0.768391 0.547925
0.562590 0.952465 0.564629
0.560639 0.952357 0.563231
0.565898 0.952347 0.564938
0.567653 0.952411 0.565055
0.574688 0.952505 0.565616
0.593663 0.953035 0.567146
0.624503 0.953633 0.569953
0.655774 0.954587 0.572979
0.681187 0.955356 0.575525
0.706459 0.956002 0.578120
0.741171 0.957114 0.582034
0.794742 0.959200 0.588569
0.876850 0.970135 0.604967
1.006691 1.006693 0.730205
0.989894 0.927308 0.627901
0.972511 0.826784 0.571948
0.595064 0.978940 0.596694
0.593768 0.978871 0.595867
0.598126 0.978934 0.597303
0.599512 0.978982 0.597479
0.604275 0.978911 0.597746
0.618124 0.979345 0.598975
0.642758 0.979998 0.601264
0.671600 0.981061 0.604262
0.695619 0.981795 0.606796
0.717170 0.982546 0.609170
0.742825 0.983634 0.612424
0.781337 0.984971 0.617023
0.836371 0.987417 0.624509
0.922939 0.997511 0.669358
1.028243 1.028245 0.743794
0.989437 0.903549 0.621710
0.765378 1.132592 0.765727
0.765373 1.132593 0.765747
0.767013 1.132555 0.766201
0.768255 1.132516 0.766587
0.772165 1.132631 0.766989
0.779790 1.132823 0.767423
0.788057 1.133172 0.767791
0.793372 1.133356 0.767580
0.796543 1.133599 0.767301
0.801314 1.133849 0.767388
0.810900 1.134090 0.768385
0.824557 1.134375 0.770045
0.841127 1.134820 0.772321
0.867723 1.135529 0.775964
0.927544 1.141899 0.786473
1.038544 1.151223 0.805915
-0.296176 -0.564309 -0.290480
-0.297254 -0.564499 -0.290613
-0.295863 -0.564529 -0.289527
-0.302112 -0.564826 -0.295585
-0.308503 -0.564967 -0.295920
-0.306095 -0.564857 -0.293735
-0.288955 -0.564289 -0.285102
-0.170101 -0.561729 -0.268334
0.313424 -0.746608 -0.323761
0.500562 -0.731071 -0.259467
0.673814 -0.705938 -0.050850
0.797837 -0.680290 0.247928
0.859359 -0.664655 0.297174
0.880018 -0.659032 0.308871
0.878266 -0.659375 0.301435
0.857371 -0.665342 0.274072
-0.066950 -0.067827 0.018169
-0.027766 -0.027766 0.047941
0.053048 0.028406 0.073335
-0.036120 -0.046059 -0.035811
-0.040694 -0.044346 0.012738
0.075046 0.059036 0.097123
0.149804 0.097190 0.148169
0.361610 0.146562 0.220111
0.484199 0.202564 0.269651
0.572114 0.243749 0.304585
0.681030 0.296757 0.346454
0.783423 0.349174 0.388701
0.862661 0.392464 0.424105
0.916861 0.428165 0.453460
0.945499 0.451527 0.472033
0.946952 0.452733 0.469426
0.014879 0.074812 0.084540
0.042557 0.068690 0.078725
0.059403 0.066798 0.076841
0.051423 0.052693 0.066536
0.012748 -0.036450 0.018441
0.041200 -0.051511 -0.026605
0.156890 0.071290 0.094283
0.371405 0.115571 0.142746
0.492247 0.173766 0.194738
0.578975 0.215869 0.233593
0.686286 0.272562 0.285894
0.787362 0.328704 0.338678
0.865394 0.375143 0.382822
0.918686 0.414317 0.420235
0.946244 0.439996 0.444705
0.947042 0.443259 0.447434
-0.063409 -0.029462 -0.053046
-0.042835 -0.026663 -0.030996
0.024515 0.034533 0.043123
-0.030520 -0.024242 0.025079
0.041449 0.056965 0.047858
0.077334 0.090865 0.072438
0.156690 0.138088 0.112736
0.361438 0.200327 0.158127
0.483176 0.250792 0.211674
0.571688 0.287077 0.252235
0.681206 0.332197 0.304424
0.784097 0.377720 0.356273
0.863634 0.415870 0.399017
0.918053 0.447627 0.434423
0.946200 0.467619 0.456761
0.947241 0.465626 0.458413
-0.063507 -0.031203 -0.051170
-0.035264 -0.014506 0.033972
-0.037489 -0.010259 -0.014222
0.012785 -0.020958 0.019330
-0.064776 -0.063800 -0.032422
0.106612 0.138792 0.104235
0.173095 0.197731 0.132937
0.358587 0.263580 0.169139
0.481088 0.312731 0.221670
0.570027 0.345678 0.261604
0.680470 0.383778 0.313060
0.783749 0.421621 0.364017
0.863804 0.453197 0.405869
0.918728 0.479379 0.440856
0.947296 0.495243 0.463203
0.948054 0.488156 0.463485
0.082249 0.142009 0.099984
0.097168 0.140658 0.123587
0.091577 0.145418 0.102249
0.106100 0.142082 0.105963
0.104177 0.134338 0.101515
-0.065157 -0.064635 -0.034017
0.177468 0.239355 0.140972
0.357635 0.312347 0.181867
0.480071 0.361204 0.232567
0.569175 0.392948 0.271558
0.679839 0.427291 0.321871
0.783757 0.460729 0.372132
0.864110 0.487891 0.413008
0.920016 0.510532 0.448042
0.948232 0.522995 0.469868
0.948961 0.512648 0.469248
0.125979 0.265552 0.161416
0.136520 0.262832 0.182161
0.120247 0.267774 0.136377
0.143593 0.262292 0.142367
0.153258 0.262216 0.142677
0.168708 0.256093 0.142491
0.139395 0.192896 0.130029
0.348843 0.342787 0.189649
0.479882 0.404886 0.244674
0.568925 0.438401 0.283170
0.679651 0.470744 0.332200
0.783726 0.499792 0.381241
0.864739 0.522480 0.421258
0.920785 0.540557 0.455120
0.949340 0.549944 0.476815
0.949908 0.536317 0.475149
0.184377 0.380050 0.229522
0.191371 0.378675 0.242772
0.171988 0.382733 0.186976
0.197596 0.378126 0.195344
0.214846 0.378172 0.196191
0.259310 0.378331 0.198757
0.310119 0.373089 0.199820
0.303202 0.341971 0.183960
0.476759 0.445933 0.257004
0.569672 0.492031 0.299505
0.680119 0.523515 0.346923
0.784442 0.547720 0.394022
0.865739 0.564294 0.432340
0.922196 0.575805 0.464259
0.950668 0.579853 0.485102
0.951108 0.560569 0.481556
0.256719 0.501823 0.297885
0.261582 0.501121 0.307438
0.243107 0.504119 0.255062
0.266800 0.500777 0.264582
0.286388 0.500838 0.265594
0.337196 0.501083 0.268711
0.403638 0.501644 0.273915
0.448867 0.496042 0.275028
0.462624 0.470456 0.263275
0.568646 0.549291 0.318899
0.682026 0.586835 0.367566
0.786152 0.606779 0.412076
0.867118 0.616615 0.447663
0.924232 0.620550 0.476856
0.952912 0.617557 0.496347
0.952492 0.588817 0.489412
0.336857 0.630542 0.370203
0.340483 0.630033 0.377544
0.324348 0.632035 0.333422
0.344766 0.629812 0.343068
0.362141 0.629959 0.344040
0.408252 0.630386 0.347079
0.467246 0.631062 0.351648
0.512477 0.631666 0.355805
0.545372 0.627798 0.356571
0.576530 0.615513 0.352775
0.685046 0.656174 0.393336
0.789676 0.674737 0.435884
0.869886 0.678533 0.468052
0.927585 0.674827 0.493540
0.955881 0.664040 0.511208
0.954680 0.623752 0.499917
0.412834 0.744858 0.439067
0.415955 0.744836 0.445297
0.401984 0.745890 0.408930
0.419271 0.744393 0.418040
0.433158 0.744617 0.418985
0.471098 0.745138 0.421682
0.521866 0.745941 0.425776
0.561908 0.746676 0.429451
0.596176 0.747487 0.432824
0.639304 0.747119 0.436861
0.713331 0.753246 0.448393
0.798429 0.751879 0.467486
0.874613 0.747597 0.493766
0.932122 0.736991 0.514466
0.960017 0.718289 0.530086
0.957387 0.665598 0.513126
0.476853 0.836178 0.497677
0.479554 0.836153 0.503049
0.467853 0.836600 0.473350
0.482471 0.836038 0.481806
0.492947 0.836181 0.482548
0.522871 0.836553 0.484772
0.566261 0.837355 0.488300
0.602859 0.838194 0.491671
0.633399 0.838981 0.494703
0.671008 0.839927 0.498608
0.733072 0.844037 0.507293
0.845051 0.868282 0.535490
0.889058 0.829851 0.530188
0.938149 0.805528 0.539786
0.965598 0.779419 0.552932
0.961058 0.713953 0.529902
0.526117 0.903547 0.542860
0.528591 0.903591 0.547747
0.518738 0.903634 0.523143
0.531032 0.903457 0.530608
0.538821 0.903704 0.531262
0.561972 0.904162 0.533018
0.598863 0.904828 0.536249
0.633267 0.905637 0.539375
0.660911 0.906268 0.542063
0.691552 0.907228 0.545358
0.737724 0.908759 0.550568
0.813621 0.916647 0.563693
0.949546 0.956675 0.606397
0.957243 0.889317 0.579534
0.972819 0.844847 0.579542
0.965764 0.767306 0.549705
0.562852 0.952484 0.576399
0.565203 0.952489 0.581119
0.556967 0.952306 0.560548
0.567444 0.952434 0.567112
0.573053 0.952382 0.567528
0.590728 0.952906 0.569095
0.621509 0.953540 0.571692
0.654122 0.954419 0.574767
0.680297 0.955243 0.577409
0.705569 0.955951 0.580011
0.740204 0.956993 0.583883
0.793675 0.959041 0.590310
0.876348 0.970526 0.606981
1.006980 1.006982 0.731600
0.989907 0.926860 0.629581
0.972335 0.826098 0.573749
0.595371 0.979002 0.605959
0.597568 0.979016 0.610313
0.590846 0.978702 0.593652
0.599542 0.978911 0.599418
0.603647 0.979092 0.599808
0.616143 0.979270 0.600751
0.640457 0.979965 0.603006
0.669926 0.980822 0.605884
0.694905 0.981847 0.608705
0.716569 0.982519 0.610956
0.742220 0.983495 0.614118
0.780609 0.984919 0.618655
0.835587 0.987281 0.626085
0.922533 0.997589 0.671358
1.028410 1.028413 0.745251
0.989557 0.903420 0.623749
0.765650 1.132683 0.771061
0.767081 1.132488 0.773250
0.764723 1.132664 0.765311
0.767936 1.132471 0.767035
0.770990 1.132535 0.767100
0.777795 1.132829 0.766961
0.785566 1.133266 0.766180
0.790538 1.133749 0.764750
0.793538 1.134110 0.763212
0.798376 1.134328 0.762730
0.808438 1.134672 0.763550
0.822703 1.135052 0.765447
0.839541 1.135300 0.768160
0.866503 1.136134 0.772343
0.926833 1.142447 0.783751
1.038665 1.151667 0.803696
-0.296186 -0.564365 -0.292902
-0.296894 -0.564441 -0.291684
-0.297192 -0.564611 -0.289079
-0.299246 -0.564669 -0.288288
-0.306250 -0.564814 -0.290684
-0.303657 -0.564719 -0.281577
-0.287561 -0.564129 -0.263789
-0.164636 -0.561352 -0.235053
0.317133 -0.746020 -0.261467
0.503312 -0.730292 -0.154048
0.675920 -0.705132 0.223661
0.799500 -0.679427 0.316187
0.860306 -0.663950 0.351563
0.880818 -0.658365 0.358964
0.878900 -0.658837 0.350264
0.857929 -0.664816 0.323503
-0.003239 -0.014063 0.090362
0.067500 0.067500 0.101458
0.062504 0.056626 0.096428
0.060355 0.045700 0.085154
0.056291 0.052053 0.090824
0.106200 0.095601 0.151353
0.171644 0.120470 0.212000
0.361184 0.147595 0.275807
0.483955 0.203495 0.322142
0.571967 0.244634 0.352984
0.680831 0.297534 0.388422
0.783505 0.349966 0.424425
0.862533 0.393079 0.454704
0.916917 0.428785 0.479549
0.945531 0.452133 0.494591
0.947133 0.453332 0.488539
0.019197 0.047049 0.097751
0.059437 0.065362 0.098586
0.095880 0.101026 0.134831
0.085870 0.088026 0.118396
0.096469 0.097811 0.136752
0.116673 0.115669 0.170354
0.170999 0.130711 0.211241
0.359243 0.157514 0.267625
0.482492 0.210618 0.312233
0.570735 0.250719 0.343166
0.679865 0.302775 0.379860
0.782689 0.354653 0.417425
0.861773 0.397432 0.449126
0.916378 0.432886 0.475244
0.945553 0.455966 0.491196
0.946735 0.457335 0.486972
0.032888 0.077755 0.098339
0.055370 0.069745 0.092219
0.073372 0.073852 0.099809
0.072917 0.076322 0.107039
0.047366 -0.019540 0.062491
0.051632 -0.075846 -0.052778
0.164021 -0.023731 0.077851
0.372256 0.065406 0.122607
0.493621 0.138899 0.174645
0.585145 0.189586 0.216854
0.693895 0.252059 0.271204
0.793685 0.312021 0.325675
0.870767 0.361279 0.371494
0.923140 0.403761 0.411416
0.948947 0.430163 0.436108
0.946617 0.435936 0.441139
-0.059199 -0.011587 0.036317
0.059737 0.067558 0.097527
0.090226 0.088594 0.127010
-0.053267 0.049619 0.023933
-0.036896 -0.013607 0.055684
0.101784 0.129018 0.101671
0.166786 0.172406 0.125888
0.362921 0.235627 0.166474
0.483272 0.282414 0.218005
0.572625 0.315905 0.258139
0.683288 0.356966 0.310161
0.786460 0.398470 0.361518
0.865824 0.433266 0.403791
0.920325 0.462551 0.439130
0.948403 0.479673 0.460103
0.946498 0.477412 0.465444
0.083541 0.142753 0.137809
0.106038 0.148028 0.158624
0.117841 0.152509 0.170705
0.069035 0.151852 0.094166
0.107057 0.141175 0.107982
0.020104 0.033552 0.049787
0.178413 0.232974 0.142388
0.359483 0.301866 0.180904
0.481070 0.347903 0.230650
0.570602 0.378561 0.269621
0.681832 0.413350 0.320344
0.785784 0.447995 0.370850
0.866264 0.476602 0.412279
0.921168 0.500324 0.447129
0.949549 0.513415 0.467977
0.947839 0.505345 0.471936
0.126827 0.265494 0.213684
0.137247 0.262813 0.223562
0.142908 0.261854 0.223246
0.096606 0.277227 0.128383
0.147807 0.263380 0.144453
0.165005 0.258072 0.144513
0.147854 0.208333 0.136999
0.350716 0.339722 0.190410
0.480281 0.397518 0.243645
0.569754 0.428791 0.281673
0.681030 0.460727 0.330901
0.785093 0.490293 0.380133
0.866247 0.514085 0.420377
