luts/9.cube
LUT_3D_SIZE 16
-0.177463 -0.198298 -0.220860
-0.170902 -0.198413 -0.220973
-0.137611 -0.198971 -0.221464
0.124063 -0.204290 -0.230996
0.151317 -0.205303 -0.231859
0.208626 -0.208376 -0.234449
0.291023 -0.215093 -0.240190
0.402910 -0.228668 -0.251922
0.548416 -0.253122 -0.273577
0.693639 -0.283570 -0.301227
0.807942 -0.310648 -0.326330
0.888658 -0.331007 -0.345447
0.945202 -0.345793 -0.359378
0.986077 -0.356653 -0.369717
1.015654 -0.364640 -0.377336
1.029267 -0.368378 -0.380834
-0.178125 -0.191590 -0.221335
-0.171584 -0.191724 -0.221460
-0.138529 -0.192299 -0.221928
0.120720 -0.197801 -0.232385
0.149411 -0.200439 -0.232900
0.207254 -0.202924 -0.235605
0.289955 -0.208605 -0.241582
0.402079 -0.221284 -0.253538
0.547768 -0.245590 -0.275253
0.693177 -0.276678 -0.302836
0.807499 -0.304551 -0.327752
0.888283 -0.325694 -0.346697
0.944877 -0.341151 -0.360489
0.985820 -0.352702 -0.370711
1.015442 -0.361177 -0.378149
1.029097 -0.365398 -0.381573
-0.180850 -0.158284 -0.223345
-0.174458 -0.158453 -0.223456
-0.142364 -0.159212 -0.223929
0.104676 -0.165870 -0.238100
0.140850 -0.177438 -0.237247
0.201225 -0.176970 -0.240469
0.285300 -0.176910 -0.247426
0.398433 -0.184825 -0.260281
0.545041 -0.208940 -0.282341
0.691016 -0.244030 -0.309526
0.805773 -0.276332 -0.333810
0.886821 -0.301442 -0.352045
0.943700 -0.320381 -0.365192
0.984752 -0.334869 -0.374765
1.014541 -0.345863 -0.381738
1.028323 -0.352272 -0.384641
-0.166137 -0.060361 -0.198852
-0.161193 -0.059009 -0.198591
-0.137194 -0.052676 -0.197521
-0.032138 -0.026200 -0.203164
0.120770 -0.108840 -0.245765
0.188131 -0.092391 -0.249951
0.277335 -0.030864 -0.261310
0.394998 0.066009 -0.278871
0.543814 -0.066872 -0.301991
0.690622 -0.150542 -0.327802
0.805559 -0.205046 -0.350053
0.886592 -0.243930 -0.366134
0.943121 -0.272802 -0.377181
0.984032 -0.294902 -0.384761
1.013515 -0.311886 -0.389971
1.026991 -0.323396 -0.391166
-0.155393 0.141187 -0.190639
-0.151294 0.141489 -0.190432
-0.131638 0.142799 -0.189576
-0.066596 0.145382 -0.187807
0.097482 0.150035 -0.198473
0.162594 0.179969 -0.242803
0.261342 0.215080 -0.286848
0.387783 0.236293 -0.313117
0.542000 0.237386 -0.335625
0.690927 0.211106 -0.357810
0.806444 0.158387 -0.376549
0.887632 -0.056924 -0.389626
0.944331 -0.167605 -0.397871
0.985178 -0.216634 -0.403098
1.014597 -0.249677 -0.406128
1.028001 -0.272673 -0.405387
-0.121228 0.249391 -0.166737
-0.114479 0.249547 -0.166478
-0.075633 0.250221 -0.165273
0.110074 0.251573 -0.162813
0.145242 0.253365 -0.167204
0.173905 0.257077 -0.187814
0.243206 0.296745 -0.234921
0.362576 0.331777 -0.318671
0.530572 0.342439 -0.368972
0.686852 0.329456 -0.392753
0.805102 0.302931 -0.408564
0.887481 0.266001 -0.418383
0.944640 0.218254 -0.423593
0.985877 0.152252 -0.426053
1.015400 -0.084993 -0.426655
1.028880 -0.172274 -0.423613
0.081496 0.350699 -0.108348
0.094190 0.350827 -0.107712
0.132174 0.351356 -0.104939
0.177662 0.352339 -0.100056
0.197679 0.353618 -0.108561
0.222975 0.356246 -0.133440
0.255428 0.360741 -0.179716
0.347074 0.403261 -0.268026
0.507726 0.430156 -0.382486
0.675586 0.425191 -0.427241
0.799715 0.405166 -0.444238
0.884745 0.376269 -0.451514
0.943419 0.340894 -0.453517
0.985425 0.300763 -0.452863
1.015473 0.255801 -0.450682
1.029250 0.201553 -0.445071
0.176769 0.452321 0.136250
0.182541 0.452424 0.136811
0.204758 0.452897 0.139192
0.232295 0.453660 0.141330
0.250425 0.454752 0.135621
0.274956 0.456981 0.113793
0.307078 0.460990 -0.080085
0.353211 0.467193 -0.200851
0.484354 0.507729 -0.349284
0.654321 0.515638 -0.449781
0.787516 0.500065 -0.480315
0.877719 0.472958 -0.488272
0.939343 0.439220 -0.487744
0.983142 0.402101 -0.483789
1.014259 0.363181 -0.478387
1.028723 0.320422 -0.469685
0.246940 0.559544 0.224014
0.251230 0.559613 0.224368
0.268539 0.560043 0.225780
0.287879 0.560610 0.226434
0.304538 0.561626 0.223606
0.328310 0.563542 0.214387
0.360625 0.567096 0.185221
0.406125 0.573249 -0.066651
0.478719 0.581346 -0.276747
0.626227 0.604675 -0.437469
0.764894 0.596246 -0.506175
0.863249 0.569640 -0.525244
0.930324 0.533929 -0.525479
0.977518 0.494742 -0.518974
1.010846 0.454754 -0.510168
1.026678 0.411847 -0.497855
0.308146 0.664145 0.291833
0.311546 0.664185 0.292090
0.325604 0.664556 0.293129
0.340538 0.665018 0.293480
0.355209 0.665811 0.291747
0.377074 0.667416 0.286503
0.407788 0.670284 0.271119
0.450695 0.675686 0.222828
0.514193 0.684063 -0.162525
0.608824 0.691999 -0.365360
0.734005 0.694650 -0.498257
0.837847 0.670576 -0.549685
0.912929 0.632161 -0.561549
0.966292 0.588604 -0.556889
1.003658 0.544191 -0.545883
1.022121 0.497035 -0.529867
0.360315 0.757684 0.347329
0.363050 0.757760 0.347516
0.374567 0.757975 0.348363
0.386946 0.758458 0.348632
0.399548 0.759112 0.347508
0.418731 0.760348 0.344263
0.446461 0.762610 0.335262
0.485370 0.766849 0.309674
0.540111 0.774187 0.227704
0.615388 0.783271 -0.245811
0.712206 0.789762 -0.425992
0.805804 0.771962 -0.536480
0.885353 0.733922 -0.581108
0.946325 0.686542 -0.590073
0.990193 0.636844 -0.582809
1.013397 0.583067 -0.564994
0.401449 0.833496 0.390397
0.403719 0.833565 0.390557
0.413275 0.833748 0.391261
0.424164 0.834111 0.391558
0.434789 0.834629 0.390778
0.451212 0.835653 0.388712
0.475255 0.837352 0.383140
0.509290 0.840610 0.368382
0.556450 0.846349 0.327407
0.618222 0.854653 0.201487
0.694632 0.863165 -0.300027
0.784049 0.868584 -0.460167
0.853699 0.834026 -0.559362
0.917486 0.786224 -0.603085
0.968157 0.732791 -0.611521
0.998114 0.672589 -0.599189
0.432338 0.891119 0.422380
0.434239 0.891103 0.422522
0.442208 0.891321 0.423068
0.452225 0.891605 0.423458
0.461117 0.892088 0.422880
0.474956 0.892824 0.421473
0.495307 0.894226 0.417959
0.524269 0.896591 0.409041
0.564390 0.900860 0.386035
0.616510 0.907660 0.327629
0.679495 0.915926 0.148649
0.751798 0.923509 -0.333395
0.833888 0.928345 -0.479829
0.887280 0.882635 -0.572794
0.939174 0.828563 -0.617624
0.975212 0.763952 -0.622674
0.455581 0.934784 0.446360
0.457183 0.934838 0.446463
0.463935 0.934997 0.446935
0.473381 0.935309 0.447392
0.480834 0.935699 0.446984
0.492449 0.936297 0.445995
0.509521 0.937299 0.443658
0.533803 0.939134 0.438047
0.567446 0.942318 0.424442
0.611802 0.947516 0.391695
0.665308 0.954678 0.316922
0.726102 0.962444 -0.041794
0.793653 0.969191 -0.355104
0.869730 0.973697 -0.491988
0.910928 0.920690 -0.579610
0.946949 0.854661 -0.622613
0.472657 0.967061 0.463914
0.474022 0.967109 0.464004
0.479772 0.967316 0.464418
0.488913 0.967539 0.464918
0.495167 0.967873 0.464593
0.504915 0.968396 0.463885
0.519177 0.969200 0.462278
0.539434 0.970524 0.458627
0.567470 0.972879 0.450211
0.604964 0.976821 0.430704
0.651073 0.982608 0.388208
0.703836 0.989770 0.299037
0.761278 0.996815 -0.151836
0.824926 1.002894 -0.372104
0.895613 1.007063 -0.499999
0.921186 0.941018 -0.580344
0.479126 0.979387 0.470520
0.480262 0.979339 0.470592
0.485206 0.979509 0.470939
0.494309 0.979752 0.471545
0.499568 0.980014 0.471293
0.507752 0.980461 0.470703
0.519558 0.981029 0.469484
0.536190 0.982134 0.466888
0.558966 0.983950 0.461207
0.589517 0.986834 0.448685
0.628326 0.991442 0.421617
0.673839 0.997560 0.366902
0.724148 1.004543 0.253729
0.779174 1.011217 -0.237267
0.839706 1.016766 -0.405417
0.907039 1.020561 -0.521621
-0.177562 -0.198368 -0.213024
-0.171001 -0.198494 -0.213137
-0.137728 -0.199036 -0.213635
0.123643 -0.204516 -0.222478
0.151069 -0.205453 -0.225451
0.208452 -0.208550 -0.227245
0.290883 -0.215312 -0.231497
0.402782 -0.228921 -0.241830
0.548356 -0.253362 -0.263005
0.693567 -0.283790 -0.291308
0.807878 -0.310848 -0.317423
0.888601 -0.331173 -0.337599
0.945150 -0.345915 -0.352532
0.986032 -0.356820 -0.363760
1.015627 -0.364782 -0.372190
1.029243 -0.368427 -0.376438
-0.178190 -0.191651 -0.213519
-0.171672 -0.191808 -0.213631
-0.138645 -0.192383 -0.214142
0.120035 -0.197608 -0.223452
0.148291 -0.198682 -0.224343
0.206725 -0.201868 -0.227041
0.289815 -0.208917 -0.233046
0.402128 -0.222987 -0.245261
0.547924 -0.248213 -0.267663
0.693300 -0.279411 -0.296072
0.807618 -0.306976 -0.321721
0.888401 -0.327675 -0.341167
0.944959 -0.342619 -0.355383
0.985866 -0.353676 -0.365863
1.015445 -0.361778 -0.373573
1.029063 -0.365519 -0.377162
-0.180914 -0.158373 -0.215634
-0.174524 -0.158550 -0.215767
-0.142480 -0.159308 -0.216234
0.103935 -0.165796 -0.229456
0.139774 -0.175709 -0.228852
0.200692 -0.175829 -0.232144
0.285156 -0.177263 -0.239183
0.398516 -0.186942 -0.252327
0.545140 -0.212136 -0.275026
0.691219 -0.247201 -0.303005
0.805890 -0.279068 -0.327925
0.886938 -0.303612 -0.346683
0.943702 -0.321966 -0.360165
0.984794 -0.335919 -0.370032
1.014544 -0.346437 -0.377203
1.028300 -0.352359 -0.380286
-0.165968 -0.059632 -0.192993
-0.160684 -0.058122 -0.192330
-0.136680 -0.051665 -0.191200
-0.030847 -0.024450 -0.196505
0.119767 -0.106948 -0.237665
0.187630 -0.090240 -0.242029
0.277202 -0.034808 -0.253536
0.394890 0.056845 -0.271200
0.543731 -0.079481 -0.294852
0.690561 -0.156009 -0.321384
0.805459 -0.208749 -0.344252
0.886497 -0.246550 -0.360846
0.943037 -0.274621 -0.372167
0.983963 -0.296041 -0.380099
1.013479 -0.312538 -0.385536
1.026968 -0.323517 -0.386869
-0.155251 0.141349 -0.185931
-0.149391 0.141848 -0.183705
-0.129650 0.143126 -0.182812
-0.063069 0.145666 -0.180969
0.097720 0.150172 -0.191505
0.162337 0.180373 -0.235024
0.261166 0.214776 -0.279786
0.387787 0.235037 -0.306430
0.542027 0.235227 -0.329349
0.690905 0.208010 -0.352100
0.806398 0.153526 -0.371339
0.887575 -0.072037 -0.384712
0.944271 -0.170810 -0.393216
0.985123 -0.218249 -0.398705
1.014565 -0.250441 -0.401935
1.027977 -0.272825 -0.401273
-0.120997 0.249475 -0.160234
-0.112516 0.249691 -0.158303
-0.072337 0.250355 -0.157027
0.111631 0.251707 -0.154405
0.145599 0.253476 -0.158994
0.174019 0.257127 -0.180135
0.243173 0.296683 -0.228051
0.362626 0.331228 -0.312977
0.530662 0.341411 -0.363600
0.686890 0.328065 -0.387742
0.805104 0.301239 -0.403864
0.887457 0.264186 -0.413904
0.944603 0.216267 -0.419321
0.985831 0.149764 -0.421906
1.015371 -0.088272 -0.422652
1.028854 -0.172583 -0.419721
0.082005 0.350786 -0.092253
0.094447 0.350889 -0.091687
0.132353 0.351419 -0.088192
0.177812 0.352401 -0.081810
0.197804 0.353681 -0.092421
0.223065 0.356293 -0.121310
0.255473 0.360751 -0.171129
0.347001 0.403079 -0.262160
0.507818 0.429621 -0.377867
0.675699 0.424363 -0.422885
0.799751 0.404226 -0.440039
0.884750 0.375284 -0.447446
0.943401 0.339914 -0.449577
0.985394 0.299878 -0.449028
1.015447 0.255123 -0.446934
1.029224 0.201308 -0.441395
0.176991 0.452387 0.148445
0.181575 0.452453 0.146510
0.203942 0.452912 0.148685
0.232198 0.453684 0.150775
0.250330 0.454786 0.145736
0.274895 0.457009 0.126816
0.307015 0.461007 -0.045645
0.353219 0.467199 -0.193013
0.484341 0.507548 -0.344856
0.654387 0.515170 -0.445982
0.787588 0.499371 -0.476607
0.877746 0.472323 -0.484660
0.939347 0.438564 -0.484175
0.983124 0.401502 -0.480249
1.014237 0.362744 -0.474897
1.028695 0.320297 -0.466208
0.247095 0.559613 0.231463
0.249971 0.559619 0.229326
0.267433 0.560051 0.230710
0.287619 0.560633 0.231484
0.304283 0.561637 0.228837
0.328099 0.563547 0.220095
0.360420 0.567094 0.192545
0.406005 0.573243 0.037151
0.478703 0.581336 -0.271302
0.626233 0.604488 -0.433973
0.764955 0.595856 -0.502934
0.863260 0.569098 -0.521995
0.930350 0.533446 -0.522266
0.977509 0.494357 -0.515732
1.010827 0.454468 -0.506953
1.026649 0.411773 -0.494625
0.308266 0.664192 0.297428
0.310394 0.664183 0.295520
0.324513 0.664555 0.296543
0.340226 0.665028 0.297046
0.354927 0.665816 0.295363
0.376828 0.667415 0.290306
0.407505 0.670275 0.275407
0.450451 0.675627 0.228944
0.514008 0.684044 -0.151120
0.608804 0.691980 -0.361393
0.733980 0.694561 -0.495264
0.837893 0.670284 -0.546820
0.912938 0.631896 -0.558731
0.966293 0.588312 -0.553959
1.003641 0.544030 -0.542935
1.022090 0.496957 -0.526886
0.360367 0.757725 0.351754
0.362062 0.757758 0.350226
0.373656 0.757973 0.351035
0.386693 0.758466 0.351436
0.399263 0.759117 0.350323
0.418494 0.760353 0.347190
0.446206 0.762600 0.338413
0.485152 0.766831 0.313412
0.539928 0.774163 0.233950
0.615287 0.783255 -0.239357
0.712172 0.789742 -0.422718
0.805820 0.771766 -0.533866
0.885319 0.733665 -0.578524
0.946338 0.686343 -0.587433
0.990162 0.636742 -0.580117
1.013365 0.583010 -0.562219
0.401539 0.833534 0.393993
0.403036 0.833566 0.392860
0.412577 0.833749 0.393522
0.423955 0.834121 0.393902
0.434594 0.834636 0.393159
0.451019 0.835656 0.391126
0.475057 0.837348 0.385697
0.509095 0.840597 0.371167
0.556278 0.846326 0.331006
0.618025 0.854627 0.209202
0.694588 0.863152 -0.295132
0.784028 0.868565 -0.457229
0.853678 0.833946 -0.556893
0.917453 0.786145 -0.600682
0.968147 0.732549 -0.609035
0.998183 0.672578 -0.596642
0.432381 0.891152 0.425388
0.433722 0.891108 0.424603
0.441736 0.891327 0.425145
0.452094 0.891617 0.425582
0.460975 0.892064 0.425053
0.474815 0.892832 0.423632
0.495149 0.894229 0.420196
0.524133 0.896588 0.411405
0.564227 0.900847 0.388716
0.616354 0.907642 0.331282
0.679313 0.915958 0.160697
0.751817 0.923495 -0.329102
0.833869 0.928327 -0.477095
0.887297 0.882608 -0.570418
0.939130 0.828527 -0.615296
0.975167 0.763899 -0.620276
0.455648 0.934814 0.448852
0.456880 0.934850 0.448386
0.463629 0.935008 0.448859
0.473328 0.935325 0.449353
0.480772 0.935714 0.448947
0.492380 0.936310 0.447974
0.509387 0.937308 0.445656
0.533713 0.939140 0.440157
0.567354 0.942319 0.426709
0.611689 0.947513 0.394343
0.665234 0.954674 0.320725
0.726054 0.962442 0.066091
0.793594 0.969179 -0.351225
0.869712 0.973681 -0.489350
0.910908 0.920620 -0.577307
0.946990 0.854620 -0.620309
0.472715 0.967087 0.466054
0.473893 0.967126 0.465853
0.479639 0.967332 0.466233
0.488898 0.967558 0.466770
0.495146 0.967891 0.466473
0.504932 0.968413 0.465742
0.519179 0.969217 0.464159
0.539394 0.970527 0.460545
0.567429 0.972889 0.452232
0.604927 0.976829 0.432927
0.651027 0.982610 0.390922
0.703833 0.989776 0.303099
0.761252 0.996812 -0.139569
0.824894 1.002887 -0.368469
0.895596 1.007052 -0.497439
0.921158 0.941067 -0.578057
0.479149 0.979320 0.472354
0.480313 0.979351 0.472425
0.485257 0.979531 0.472781
0.494360 0.979775 0.473350
0.499618 0.979937 0.473103
0.507801 0.980381 0.472529
0.519607 0.981051 0.471341
0.536237 0.982156 0.468740
0.559010 0.983971 0.463126
0.589544 0.986853 0.450713
0.628349 0.991352 0.423911
0.673855 0.997572 0.369817
0.724160 1.004547 0.258917
0.779174 1.011217 -0.230914
0.839696 1.016760 -0.402204
0.907021 1.020550 -0.519149
-0.177906 -0.198662 -0.173646
-0.171365 -0.198787 -0.173802
-0.138234 -0.199350 -0.174463
0.121820 -0.205403 -0.179246
0.150038 -0.206153 -0.194573
0.207705 -0.209302 -0.192089
0.290303 -0.216192 -0.187608
0.402348 -0.229906 -0.189792
0.548029 -0.254390 -0.208940
0.693363 -0.284739 -0.242258
0.807634 -0.311672 -0.274694
0.888430 -0.331929 -0.300780
0.945009 -0.346578 -0.321011
0.985940 -0.357373 -0.336790
1.015511 -0.365234 -0.348967
1.029143 -0.368850 -0.356610
-0.178554 -0.191972 -0.174300
-0.172043 -0.192128 -0.174458
-0.139147 -0.192701 -0.175109
0.118148 -0.198550 -0.180815
0.147245 -0.199380 -0.193727
0.205968 -0.202650 -0.192020
0.289248 -0.209832 -0.189686
0.401676 -0.224033 -0.194447
0.547595 -0.249274 -0.215174
0.693074 -0.280367 -0.248278
0.807430 -0.307816 -0.279857
0.888252 -0.328403 -0.304977
0.944737 -0.343286 -0.324193
0.985771 -0.354240 -0.339076
1.015329 -0.362241 -0.350490
1.028962 -0.365890 -0.357417
-0.181269 -0.158791 -0.177102
-0.174881 -0.158962 -0.177251
-0.142958 -0.159716 -0.177897
0.100174 -0.164576 -0.186080
0.134273 -0.165932 -0.187227
0.198249 -0.170023 -0.190710
0.284641 -0.178868 -0.198298
0.398878 -0.196033 -0.213356
0.545829 -0.225516 -0.239981
0.691783 -0.260486 -0.272460
0.806402 -0.290566 -0.300915
0.887323 -0.312777 -0.322152
0.943954 -0.328701 -0.337436
0.984979 -0.340380 -0.348742
1.014558 -0.348896 -0.356929
1.028199 -0.352825 -0.360778
-0.165212 -0.056373 -0.164528
-0.159911 -0.054751 -0.163854
-0.133735 -0.046785 -0.160106
-0.024187 -0.013190 -0.163591
0.114770 -0.095398 -0.197838
0.185253 -0.078309 -0.203227
0.276505 -0.047374 -0.215672
0.394363 -0.054779 -0.234444
0.543286 -0.116421 -0.261383
0.690150 -0.177459 -0.291798
0.805127 -0.223943 -0.317790
0.886151 -0.257572 -0.336658
0.942817 -0.282301 -0.349765
0.983769 -0.300984 -0.359093
1.013324 -0.315187 -0.365608
1.026867 -0.324008 -0.367879
-0.154619 0.142060 -0.163611
-0.148741 0.142544 -0.161309
-0.118675 0.144626 -0.148751
-0.037715 0.146938 -0.146473
0.098786 0.150757 -0.156723
0.161323 0.182432 -0.197363
0.260411 0.213451 -0.246298
0.388000 0.229298 -0.275072
0.542088 0.225320 -0.300392
0.690836 0.193511 -0.325946
0.806216 0.129321 -0.347492
0.887443 -0.112012 -0.362626
0.944088 -0.183790 -0.372458
0.984985 -0.225104 -0.378973
1.014432 -0.253827 -0.383053
1.027886 -0.273462 -0.383076
-0.119985 0.249840 -0.126815
-0.111405 0.250054 -0.124328
-0.052692 0.250959 -0.111566
0.118554 0.252271 -0.107356
0.147206 0.253939 -0.114080
0.174420 0.257371 -0.140183
0.243035 0.296533 -0.194823
0.362757 0.328885 -0.286774
0.531070 0.336693 -0.339255
0.687020 0.321807 -0.365023
0.805103 0.293836 -0.382722
0.887353 0.255988 -0.393965
0.944560 0.207313 -0.400295
0.985647 0.138597 -0.403632
1.015256 -0.100431 -0.404992
1.028746 -0.173866 -0.402455
0.084126 0.351043 0.092829
0.096204 0.351191 0.093386
0.133049 0.351688 0.095658
0.178443 0.352694 0.100965
0.198360 0.353928 0.093038
0.223455 0.356476 0.046428
0.255645 0.360880 -0.124594
0.346901 0.402317 -0.234674
0.508133 0.427212 -0.357164
0.675965 0.420721 -0.403336
0.799895 0.399884 -0.421381
0.884775 0.370796 -0.429500
0.943327 0.335662 -0.432221
0.985260 0.296107 -0.432134
1.015337 0.252263 -0.430442
1.029110 0.200211 -0.425131
0.177891 0.452637 0.189453
0.182457 0.452721 0.188130
0.200304 0.453031 0.182046
0.231614 0.453833 0.184106
0.249896 0.454915 0.180821
0.274620 0.457109 0.168574
0.306893 0.461090 0.124733
0.353251 0.467225 -0.152821
0.484337 0.506591 -0.324857
0.654693 0.513048 -0.429101
0.787760 0.496578 -0.460280
0.877823 0.469297 -0.468638
0.939356 0.435759 -0.468409
0.983036 0.399164 -0.464754
1.014139 0.361075 -0.459584
1.028576 0.319682 -0.451002
0.247763 0.559850 0.260046
0.250628 0.559856 0.258291
0.262382 0.560075 0.250278
0.286454 0.560732 0.251526
0.303228 0.561683 0.249455
0.327211 0.563568 0.242362
0.359763 0.567089 0.220146
0.405505 0.573221 0.136265
0.478653 0.581275 -0.246042
0.626314 0.603422 -0.418632
0.765223 0.594106 -0.488719
0.863441 0.566989 -0.507822
0.930443 0.531391 -0.508086
0.977475 0.492639 -0.501604
1.010742 0.453268 -0.492813
1.026523 0.411331 -0.480445
0.308817 0.664344 0.319816
0.310910 0.664350 0.318137
0.319689 0.664543 0.310623
0.338979 0.665039 0.311525
0.353720 0.665876 0.310154
0.375635 0.667410 0.305786
0.406441 0.670230 0.292749
0.449554 0.675550 0.252667
0.513334 0.683970 -0.075158
0.608718 0.691899 -0.343784
0.734111 0.693595 -0.482388
0.838011 0.668884 -0.534414
0.913114 0.630377 -0.546104
0.966315 0.586995 -0.541177
1.003575 0.543051 -0.530011
1.021970 0.496617 -0.513736
0.360839 0.757903 0.369907
0.362509 0.757936 0.368441
0.369628 0.757961 0.362281
0.385596 0.758504 0.362987
0.398145 0.759137 0.362053
0.417355 0.760349 0.359261
0.445099 0.762559 0.351358
0.484077 0.766751 0.328702
0.539028 0.774056 0.258444
0.614664 0.783174 -0.208157
0.712109 0.789656 -0.408338
0.805842 0.771110 -0.522363
0.885430 0.732743 -0.567237
0.946394 0.685350 -0.575908
0.990194 0.635986 -0.568326
1.013235 0.582692 -0.550131
0.401906 0.833652 0.408950
0.403364 0.833685 0.407861
0.409532 0.833751 0.403164
0.423149 0.834165 0.403822
0.433699 0.834666 0.403156
0.450088 0.835669 0.401289
0.474083 0.837332 0.396327
0.508126 0.840582 0.382917
0.555343 0.846278 0.345781
0.617328 0.854535 0.238150
0.694019 0.863075 -0.272223
0.783962 0.868483 -0.444406
0.853671 0.833484 -0.546195
0.917493 0.785455 -0.590169
0.968137 0.732110 -0.598313
0.997973 0.672306 -0.585506
0.432696 0.891217 0.437832
0.434007 0.891251 0.437089
0.439603 0.891351 0.433876
0.451546 0.891673 0.434489
0.460368 0.892111 0.433986
0.474182 0.892868 0.432722
0.494481 0.894243 0.429479
0.523384 0.896626 0.421265
0.563529 0.900795 0.399989
0.615764 0.907637 0.346229
0.678942 0.915907 0.199849
0.751436 0.923435 -0.309797
0.833788 0.928250 -0.465079
0.887260 0.882191 -0.560162
0.939071 0.828047 -0.605289
0.975068 0.763681 -0.609980
0.455898 0.934940 0.459374
0.457117 0.934976 0.458928
0.462355 0.935057 0.457020
0.473057 0.935396 0.457607
0.480444 0.935704 0.457223
0.492013 0.936341 0.456306
0.509003 0.937353 0.454154
0.533269 0.939166 0.448939
0.566883 0.942317 0.436188
0.611286 0.947488 0.405478
0.664886 0.954634 0.336507
0.725806 0.962396 0.147438
0.793489 0.969134 -0.333900
0.869699 0.973609 -0.477846
0.910887 0.920388 -0.567365
0.946820 0.854442 -0.610542
0.472932 0.967198 0.474973
0.474083 0.967236 0.474818
0.479114 0.967311 0.474020
0.488832 0.967643 0.474594
0.495095 0.967960 0.474305
0.504813 0.968396 0.473638
0.519083 0.969194 0.472124
0.539289 0.970588 0.468691
0.567246 0.972938 0.460725
0.604762 0.976858 0.442250
0.650891 0.982626 0.402197
0.703626 0.989778 0.319992
0.761083 0.996793 -0.034003
0.824810 1.002864 -0.352539
0.895523 1.007005 -0.486225
0.921036 0.940948 -0.568124
0.479328 0.979406 0.480034
0.480492 0.979447 0.480091
0.485436 0.979528 0.480435
0.494537 0.979771 0.481023
0.499804 0.980032 0.480789
0.507938 0.980479 0.480243
0.519776 0.981140 0.479086
0.536392 0.982248 0.476596
0.559172 0.983958 0.471183
0.589680 0.986884 0.459217
0.628417 0.991423 0.433500
0.673963 0.997625 0.381938
0.724210 1.004566 0.279648
0.779171 1.011215 -0.200352
0.839656 1.016735 -0.388000
0.906981 1.020489 -0.508480
-0.178587 -0.199231 0.090792
-0.172467 -0.199367 0.090428
-0.141980 -0.199865 0.088836
0.070873 -0.200762 0.084196
0.147898 -0.207483 -0.085535
0.206172 -0.210782 0.027712
0.273047 -0.211085 0.164797
0.370448 -0.212817 0.260292
0.518497 -0.234074 0.315563
0.669910 -0.266927 0.329126
0.789257 -0.297281 0.313293
0.874217 -0.320893 0.274033
0.934605 -0.338754 0.205929
0.978881 -0.352454 -0.071325
1.011456 -0.362930 -0.219727
1.028150 -0.369174 -0.291457
-0.179174 -0.192990 0.089221
-0.172747 -0.192729 0.088718
-0.142508 -0.193251 0.087096
0.068608 -0.194191 0.082430
0.145082 -0.200756 -0.086142
0.204415 -0.204222 0.021743
0.272490 -0.204814 0.162922
0.371580 -0.207716 0.255549
0.519769 -0.229992 0.308279
0.670935 -0.263540 0.319815
0.790093 -0.294291 0.302281
0.874838 -0.318072 0.261085
0.934968 -0.335966 0.188892
0.979096 -0.349674 -0.109901
1.011485 -0.360096 -0.226539
1.027953 -0.366192 -0.292517
-0.181735 -0.162327 0.082009
-0.175410 -0.162162 0.081484
-0.143864 -0.160499 0.078964
0.057456 -0.161733 0.074194
0.132001 -0.167600 -0.083510
0.196658 -0.171978 -0.015555
0.270036 -0.174316 0.154076
0.376559 -0.183400 0.229903
0.525524 -0.211254 0.268969
0.675765 -0.248407 0.269206
0.793810 -0.281018 0.241128
0.877561 -0.305596 0.184823
0.936849 -0.323685 -0.049417
0.979991 -0.337317 -0.193062
1.011618 -0.347515 -0.253484
1.027198 -0.353122 -0.296924
-0.187686 0.046831 0.065007
-0.181566 0.045688 0.064298
-0.151243 0.040306 0.061123
0.011801 0.026358 0.054611
0.097737 -0.011047 0.052330
0.179893 -0.052366 0.020355
0.274110 -0.085000 -0.071037
0.392552 -0.124027 -0.116364
0.541904 -0.172386 -0.167683
0.688972 -0.219603 -0.216267
0.804110 -0.256503 -0.253829
0.885351 -0.282496 -0.280172
0.942128 -0.300676 -0.298569
0.983238 -0.313850 -0.311818
1.012907 -0.323336 -0.321398
1.026574 -0.327709 -0.325817
-0.153349 0.143485 -0.094865
-0.147402 0.143941 -0.091488
-0.116983 0.145886 -0.070853
0.076605 0.149527 0.085007
0.102372 0.151478 0.080208
0.160178 0.185429 -0.056506
0.260319 0.206551 -0.151873
0.388890 0.211336 -0.191253
0.542189 0.196428 -0.227385
0.690405 0.148622 -0.263210
0.805681 -0.072338 -0.292176
0.886791 -0.166858 -0.312416
0.943479 -0.211803 -0.325959
0.984448 -0.241987 -0.335287
1.013989 -0.263693 -0.341632
1.027518 -0.277717 -0.343226
-0.117882 0.250583 0.097270
-0.109090 0.250784 0.100185
-0.045703 0.251674 0.112472
0.128559 0.253235 0.132847
0.150700 0.254639 0.130132
0.175909 0.257649 0.113642
0.242837 0.294999 -0.080803
