luts/9.cube
LUT_3D_SIZE 6
-0.177463 -0.198298 -0.220860
0.124063 -0.204290 -0.230996
0.291023 -0.215093 -0.240190
0.693639 -0.283570 -0.301227
0.945202 -0.345793 -0.359378
1.029267 -0.368378 -0.380834
-0.166137 -0.060361 -0.198852
-0.032138 -0.026200 -0.203164
0.277335 -0.030864 -0.261310
0.690622 -0.150542 -0.327802
0.943121 -0.272802 -0.377181
1.026991 -0.323396 -0.391166
0.081496 0.350699 -0.108348
0.177662 0.352339 -0.100056
0.255428 0.360741 -0.179716
0.675586 0.425191 -0.427241
0.943419 0.340894 -0.453517
1.029250 0.201553 -0.445071
0.308146 0.664145 0.291833
0.340538 0.665018 0.293480
0.407788 0.670284 0.271119
0.608824 0.691999 -0.365360
0.912929 0.632161 -0.561549
1.022121 0.497035 -0.529867
0.432338 0.891119 0.422380
0.452225 0.891605 0.423458
0.495307 0.894226 0.417959
0.616510 0.907660 0.327629
0.833888 0.928345 -0.479829
0.975212 0.763952 -0.622674
0.479126 0.979387 0.470520
0.494309 0.979752 0.471545
0.519558 0.981029 0.469484
0.589517 0.986834 0.448685
0.724148 1.004543 0.253729
0.907039 1.020561 -0.521621
-0.178587 -0.199231 0.090792
0.070873 -0.200762 0.084196
0.273047 -0.211085 0.164797
0.669910 -0.266927 0.329126
0.934605 -0.338754 0.205929
1.028150 -0.369174 -0.291457
-0.187686 0.046831 0.065007
0.011801 0.026358 0.054611
0.274110 -0.085000 -0.071037
0.688972 -0.219603 -0.216267
0.942128 -0.300676 -0.298569
1.026574 -0.327709 -0.325817
0.092027 0.351739 0.204986
0.178702 0.353099 0.181455
0.256343 0.360930 0.135350
0.676860 0.411588 -0.360815
0.943212 0.324768 -0.395017
1.028797 0.194166 -0.390524
0.310881 0.665428 0.417175
0.335847 0.665064 0.336996
0.403989 0.670105 0.323009
0.608559 0.691728 -0.305715
0.913526 0.626646 -0.520487
1.021760 0.494913 -0.486701
0.436859 0.891353 0.497223
0.450140 0.891737 0.450900
0.492763 0.894191 0.446797
0.614214 0.907367 0.373619
0.833681 0.928166 -0.440670
0.974973 0.762872 -0.589506
0.480513 0.979526 0.500813
0.494626 0.979924 0.495291
0.519842 0.981266 0.493575
0.589611 0.986942 0.475325
0.724076 1.004542 0.315355
0.906926 1.020398 -0.487058
-0.187989 -0.207364 0.577679
0.030395 -0.208987 0.577230
0.252559 -0.210084 0.572470
0.612257 -0.193194 0.609546
0.880042 -0.275853 0.613210
0.982275 -0.322173 0.562482
-0.196326 0.029931 0.576092
-0.076250 -0.074114 0.575683
0.248153 -0.080364 0.571098
0.612282 0.063040 0.601909
0.880782 -0.214930 0.603862
0.981037 -0.272406 0.557661
-0.229849 0.366984 0.571658
-0.154223 0.366109 0.571227
0.220902 0.364374 0.570488
0.619855 0.360387 0.553761
0.896368 0.299656 0.554736
0.986398 0.266970 0.546603
0.177238 0.679302 0.612043
0.242008 0.678963 0.605389
0.351686 0.675106 0.562480
0.618350 0.684420 0.559575
0.907390 0.600899 0.470018
0.995928 0.503139 0.499582
0.414286 0.897051 0.651535
0.434573 0.897093 0.647377
0.479511 0.896087 0.627696
0.636536 0.899788 0.640251
0.834597 0.924530 0.478856
0.974073 0.757785 0.306861
0.476067 0.982527 0.653570
0.491389 0.982900 0.653411
0.523710 0.983303 0.657819
0.612982 0.984907 0.665753
0.751604 0.997609 0.640920
0.907653 1.017172 0.432575
-0.202207 -0.219891 0.863780
0.053495 -0.221588 0.863266
0.327145 -0.224141 0.858527
0.622619 -0.217924 0.837838
0.838187 -0.191032 0.789070
0.944215 -0.264792 0.721190
-0.214507 0.147671 0.862977
-0.114717 -0.113528 0.862639
0.312647 -0.120665 0.858091
0.622092 -0.108776 0.837439
0.838543 0.068557 0.786007
0.943728 -0.196220 0.719571
-0.257826 0.442333 0.861073
-0.194912 0.431360 0.861033
0.209447 0.357923 0.860751
0.621301 0.355325 0.839330
0.841441 0.363164 0.773344
0.947651 0.321984 0.720106
-0.288296 0.691086 0.840717
-0.241382 0.690877 0.840534
0.081181 0.690542 0.840818
0.604039 0.686359 0.842322
0.839468 0.686548 0.823881
0.928357 0.679626 0.830726
0.311829 0.908620 0.794874
0.344057 0.908545 0.792245
0.409514 0.907465 0.780295
0.658233 0.911575 0.830104
0.853184 0.915025 0.841142
0.942662 0.827384 0.811778
0.442221 0.988466 0.748467
0.459858 0.988746 0.748407
0.497397 0.988869 0.751438
0.693084 0.996153 0.847229
0.818574 0.997156 0.858823
0.918478 1.009561 0.831539
-0.216592 -0.232806 1.075856
-0.102845 -0.234305 1.075542
0.295262 -0.236634 1.072547
0.580603 -0.238959 1.059493
0.845231 -0.214528 1.034617
0.912170 -0.185049 0.894270
-0.226509 0.079140 1.075285
-0.143099 -0.142227 1.074996
0.279952 -0.147049 1.072131
0.574694 -0.152996 1.059382
0.845088 -0.100856 1.034521
0.912294 0.090948 0.894132
-0.262793 0.414029 1.075264
-0.202733 0.403002 1.075145
0.194608 0.350831 1.073905
0.548468 0.346081 1.062604
0.845432 0.356092 1.035526
0.912632 0.368758 0.895183
-0.319338 0.650882 1.068787
-0.277350 0.646536 1.068853
-0.119081 0.628142 1.069512
0.600931 0.683324 1.061682
0.845070 0.681930 1.040456
0.915737 0.686117 0.954287
-0.286476 0.923480 1.036027
-0.240969 0.923370 1.035958
0.065136 0.923330 1.036124
0.588431 0.922884 1.037960
0.830468 0.920763 1.041805
0.914374 0.918795 1.039747
0.308346 1.001398 0.898461
0.339090 1.001513 0.898415
0.395799 1.001572 0.899342
0.644424 1.006257 0.953559
0.842400 1.010380 1.027358
0.916860 1.010531 1.027512
-0.223602 -0.239157 1.166224
-0.141805 -0.240471 1.166036
0.223531 -0.241783 1.164068
0.454592 -0.244147 1.156758
0.714523 -0.235618 1.136453
0.916099 -0.198916 1.114684
-0.230097 -0.143303 1.165607
-0.155185 -0.154408 1.165465
0.215525 -0.156953 1.163528
0.451653 -0.161751 1.156253
0.713631 -0.147632 1.136188
0.916093 -0.016521 1.114681
-0.257285 0.346879 1.166479
-0.197495 0.344181 1.166376
0.185566 0.346967 1.164834
0.445034 0.343897 1.158439
0.713239 0.345790 1.138295
0.916504 0.363070 1.115355
-0.299729 0.548762 1.165053
-0.254030 0.547440 1.164888
0.050453 0.548302 1.164184
0.598991 0.681733 1.154512
0.769312 0.680022 1.140532
0.917828 0.684306 1.118724
-0.340624 0.774110 1.149418
-0.304407 0.773523 1.149308
-0.201347 0.773791 1.149727
0.580360 0.837099 1.144631
0.829339 0.919729 1.136522
0.913431 0.917768 1.134433
-0.121500 1.009762 1.112359
0.145386 1.009778 1.112375
0.271311 1.009814 1.112408
0.620297 1.010100 1.112630
0.842484 1.010461 1.113026
0.916920 1.010611 1.113125
