luts/_Orange and Teal ● 16.cube
# Created by Adobe Lightroom plugin Export LUT (1.16.0)
# www.johnrellis.com/lightroom/exportlut.htm
# Preset: _Orange and Teal ●
# Color profile: C:\Program Files (x86)\Common Files\Adobe\Color\Profiles\Recommended\sRGB Color Space Profile.icm
LUT_3D_SIZE 6
DOMAIN_MIN 0.0 0.0 0.0
DOMAIN_MAX 1.0 1.0 1.0
0.000000 0.000000 0.000000
0.216770 0.008301 0.000000
0.427100 0.047669 0.000000
0.635920 0.100130 0.000000
0.836790 0.145357 0.000000
1.000000 0.181674 0.000000
0.000000 0.185611 0.018769
0.210544 0.188479 0.007568
0.425452 0.200443 0.000000
0.635645 0.217014 0.000000
0.837034 0.236942 0.000000
1.000000 0.257023 0.000000
0.000000 0.377447 0.070405
0.211337 0.378302 0.061799
0.420661 0.381201 0.029328
0.635431 0.390570 0.000000
0.837461 0.396551 0.000000
1.000000 0.402930 0.000000
0.000000 0.569909 0.128695
0.211978 0.570489 0.123140
0.422736 0.572351 0.105531
0.632776 0.575402 0.062684
0.837736 0.577234 0.000000
1.000000 0.577295 0.000000
0.007080 0.771511 0.191745
0.217594 0.771756 0.187869
0.429023 0.772396 0.175692
0.640345 0.773617 0.149508
0.850919 0.775357 0.094057
1.000000 0.761746 0.000000
0.179599 0.978485 0.307774
0.283207 0.978607 0.304784
0.461402 0.979004 0.295262
0.660273 0.979736 0.275700
0.866117 0.980804 0.238193
1.000000 0.982208 0.156191
0.000000 0.029633 0.197940
0.198642 0.028840 0.193240
0.421271 0.037690 0.178103
0.631342 0.093416 0.161715
0.835019 0.134981 0.128023
1.000000 0.164034 0.026886
0.000000 0.198856 0.204349
0.200015 0.200015 0.200015
0.417578 0.205631 0.188815
0.631006 0.217929 0.168643
0.835019 0.234867 0.134096
1.000000 0.249668 0.037690
0.000000 0.383215 0.220737
0.201053 0.384222 0.215946
0.416480 0.386694 0.205722
0.630915 0.393378 0.185397
0.834989 0.398871 0.152804
1.000000 0.403418 0.071839
0.000000 0.573510 0.243565
0.200778 0.574060 0.240757
0.417884 0.575677 0.231937
0.629847 0.578485 0.214572
0.835264 0.579706 0.185977
1.000000 0.579461 0.122316
0.000000 0.773007 0.282322
0.206607 0.773251 0.279667
0.423713 0.773892 0.271427
0.636805 0.775051 0.255344
0.848234 0.776730 0.226749
1.000000 0.763882 0.186709
0.177401 0.978698 0.371801
0.281102 0.978851 0.369360
0.458961 0.979309 0.361456
0.657588 0.980102 0.345342
0.863218 0.981262 0.315984
1.000000 0.982727 0.259434
0.000000 0.079377 0.397192
0.136995 0.086000 0.394965
0.398230 0.102052 0.388708
0.623346 0.113405 0.378424
0.831022 0.137667 0.357702
1.000000 0.184512 0.338262
0.000000 0.227298 0.398993
0.149722 0.223606 0.397528
0.398749 0.227268 0.391760
0.621637 0.231205 0.381170
0.829404 0.244022 0.362768
1.000000 0.260990 0.338506
0.000000 0.397742 0.407416
0.159487 0.398230 0.405463
0.400000 0.400000 0.400000
0.618708 0.404211 0.390509
0.827817 0.409735 0.374884
1.000000 0.411444 0.345251
0.000000 0.581933 0.422065
0.165286 0.582696 0.420111
0.401190 0.584314 0.413855
0.620142 0.586572 0.404608
0.828733 0.587549 0.389502
1.000000 0.586511 0.360540
0.000000 0.776974 0.443458
0.171023 0.777035 0.443702
0.407599 0.777737 0.438483
0.625544 0.778927 0.428321
0.839658 0.780575 0.411505
1.000000 0.770230 0.387304
0.143313 0.979583 0.503014
0.260624 0.979797 0.501183
0.445808 0.980346 0.495583
0.647120 0.981292 0.484382
0.854124 0.982666 0.464546
1.000000 0.984283 0.428992
0.000000 0.147738 0.595972
0.000000 0.152926 0.594720
0.356146 0.164309 0.591058
0.598505 0.176822 0.584771
0.817777 0.196933 0.572656
1.000000 0.251408 0.560998
0.000000 0.263340 0.596735
0.000000 0.258488 0.595941
0.359411 0.261692 0.592676
0.598657 0.267796 0.586511
0.816464 0.281285 0.574670
1.000000 0.321172 0.565270
0.000000 0.421485 0.601129
0.001343 0.421637 0.600122
0.363745 0.421424 0.597223
0.599268 0.425025 0.591485
0.814450 0.434668 0.581506
1.000000 0.458656 0.576379
0.000000 0.595666 0.609491
0.008057 0.596033 0.608515
0.365667 0.597467 0.605615
0.600031 0.600031 0.600031
0.817685 0.602594 0.589960
1.000000 0.600977 0.570397
0.000000 0.785763 0.622370
0.000000 0.785733 0.620966
0.350927 0.785580 0.617029
0.602960 0.785580 0.614679
0.823301 0.787503 0.604395
1.000000 0.782467 0.587732
0.000000 0.988678 0.615076
0.000000 0.988312 0.613519
0.392798 0.983337 0.651423
0.621912 0.983917 0.648615
0.835904 0.985443 0.635920
1.000000 0.987213 0.613733
0.000000 0.231418 0.795102
0.000000 0.234836 0.794430
0.287877 0.243259 0.792538
0.566094 0.255833 0.789029
0.801419 0.273533 0.783749
1.000000 0.320897 0.765743
0.000000 0.312413 0.795438
0.000000 0.312779 0.794888
0.295872 0.317235 0.793118
0.567803 0.325597 0.789731
0.800961 0.338872 0.784451
1.000000 0.378424 0.767819
0.000000 0.449897 0.798032
0.000000 0.450599 0.797421
0.310887 0.458534 0.795224
0.571710 0.464302 0.791867
0.799863 0.473548 0.786557
1.000000 0.497383 0.773739
0.000000 0.613428 0.803098
0.000000 0.613519 0.802640
0.284215 0.614588 0.801022
0.572564 0.623774 0.796902
0.799588 0.628168 0.791531
1.000000 0.642817 0.783078
0.000000 0.791958 0.810605
0.000000 0.792508 0.810117
0.280644 0.794064 0.808591
0.565270 0.796811 0.805539
0.799985 0.800015 0.799985
1.000000 0.800778 0.788785
0.000000 0.996277 0.822080
0.000000 0.995911 0.820829
0.000000 0.994812 0.817197
0.516747 0.992828 0.811307
0.806912 0.989929 0.818235
1.000000 0.991913 0.804898
0.000000 0.365393 0.992706
0.000000 0.369024 0.992340
0.262242 0.379553 0.991211
0.552544 0.398322 0.989136
0.786801 0.426642 0.985962
1.000000 0.461677 0.981598
0.000000 0.414160 0.992920
0.000000 0.422797 0.992248
0.282994 0.431189 0.991150
0.559014 0.446815 0.989136
0.788663 0.470649 0.986023
1.000000 0.498329 0.981872
0.000000 0.488930 0.996277
0.000000 0.502647 0.995148
0.323308 0.543603 0.991669
0.571466 0.553094 0.989837
0.791287 0.566094 0.987091
1.000000 0.581720 0.983398
0.000000 0.612238 1.000000
0.000000 0.611841 1.000000
0.000000 0.614221 1.000000
0.569726 0.678737 0.993225
0.789883 0.686793 0.990600
1.000000 0.697414 0.986908
0.000000 0.790494 1.000000
0.000000 0.791501 1.000000
0.000000 0.794797 1.000000
0.457099 0.801633 1.000000
0.784176 0.830442 0.996338
1.000000 0.837491 0.992493
0.000000 0.982513 1.000000
0.000000 0.983185 1.000000
0.000000 0.985168 1.000000
0.402319 0.988800 1.000000
0.745113 0.994049 1.000000
1.000000 1.000000 1.000000
