luts/_Orange and Blue ● 16.cube
# Created by Adobe Lightroom plugin Export LUT (1.16.0)
# www.johnrellis.com/lightroom/exportlut.htm
# Preset: _Orange and Blue ●
# Color profile: C:\Program Files (x86)\Common Files\Adobe\Color\Profiles\Recommended\sRGB Color Space Profile.icm
LUT_3D_SIZE 6
DOMAIN_MIN 0.0 0.0 0.0
DOMAIN_MAX 1.0 1.0 1.0
0.000000 0.000000 0.000000
0.216770 0.008301 0.000000
0.427100 0.047669 0.000000
0.635920 0.100130 0.000000
0.836790 0.145357 0.000000
1.000000 0.181674 0.000000
0.000000 0.186160 0.018830
0.210544 0.188479 0.007568
0.425452 0.200443 0.000000
0.635645 0.217014 0.000000
0.837034 0.236942 0.000000
1.000000 0.257023 0.000000
0.000000 0.378424 0.070619
0.211337 0.378302 0.061799
0.420661 0.381201 0.029328
0.635431 0.390570 0.000000
0.837461 0.396551 0.000000
1.000000 0.402930 0.000000
0.000000 0.571313 0.128969
0.191012 0.571191 0.123293
0.422736 0.572351 0.105531
0.632776 0.575402 0.062684
0.837736 0.577234 0.000000
1.000000 0.577295 0.000000
0.000000 0.773404 0.192142
0.148653 0.773098 0.188144
0.429023 0.772396 0.175692
0.640345 0.773617 0.149508
0.850919 0.775357 0.094057
1.000000 0.761746 0.000000
0.000000 0.980774 0.308171
0.182162 0.980529 0.305089
0.442908 0.979767 0.295384
0.660273 0.979736 0.275700
0.866117 0.980804 0.238193
1.000000 0.982208 0.156191
0.000000 0.029633 0.197940
0.198642 0.028840 0.193240
0.421271 0.037690 0.178103
0.631342 0.093416 0.161715
0.835019 0.134981 0.128023
1.000000 0.164034 0.026886
0.000000 0.190036 0.205386
0.200015 0.200015 0.200015
0.417578 0.205631 0.188815
0.631006 0.217929 0.168643
0.835019 0.234867 0.134096
1.000000 0.249668 0.037690
0.000000 0.383185 0.239597
0.187076 0.384924 0.216007
0.416480 0.386694 0.205722
0.630915 0.393378 0.185397
0.834989 0.398871 0.152804
1.000000 0.403418 0.071839
0.000000 0.575494 0.243778
0.155978 0.575311 0.240879
0.417884 0.575677 0.231937
0.629847 0.578485 0.214572
0.835264 0.579706 0.185977
1.000000 0.579461 0.122316
0.000000 0.775265 0.282628
0.098604 0.774990 0.279911
0.419471 0.774105 0.271458
0.636805 0.775051 0.255344
0.848234 0.776730 0.226749
1.000000 0.763882 0.186709
0.000000 0.981262 0.372107
0.156832 0.981018 0.369635
0.433021 0.980346 0.361578
0.657588 0.980102 0.345342
0.863218 0.981262 0.315984
1.000000 0.982727 0.259434
0.000000 0.079377 0.397192
0.136995 0.086000 0.394965
0.398230 0.102052 0.388708
0.623346 0.113405 0.378424
0.831022 0.137667 0.357702
1.000000 0.184512 0.338262
0.000000 0.227298 0.398993
0.149722 0.223606 0.397528
0.398749 0.227268 0.391760
0.621637 0.231205 0.381170
0.829404 0.244022 0.362768
1.000000 0.260990 0.338506
0.000000 0.381842 0.409277
0.178073 0.386297 0.406867
0.400000 0.400000 0.400000
0.618708 0.404211 0.390509
0.827817 0.409735 0.374884
1.000000 0.411444 0.345251
0.000000 0.581872 0.454719
0.143191 0.582635 0.445716
0.389410 0.585138 0.413916
0.620142 0.586572 0.404608
0.828733 0.587549 0.389502
1.000000 0.586511 0.360540
0.000000 0.776944 0.478584
0.000000 0.778836 0.455451
0.377325 0.779141 0.438605
0.625544 0.778927 0.428321
0.839658 0.780575 0.411505
1.000000 0.770230 0.387304
0.000000 0.983001 0.503288
0.000000 0.982849 0.501457
0.394537 0.982269 0.495766
0.647120 0.981292 0.484382
0.854124 0.982666 0.464546
1.000000 0.984283 0.428992
0.000000 0.147738 0.595972
0.000000 0.152926 0.594720
0.356146 0.164309 0.591058
0.598505 0.176822 0.584771
0.817777 0.196933 0.572656
1.000000 0.251408 0.560998
0.000000 0.263340 0.596735
0.000000 0.258488 0.595941
0.359411 0.261692 0.592676
0.598657 0.267796 0.586511
0.816464 0.281285 0.574670
1.000000 0.321172 0.565270
0.000000 0.414405 0.601678
0.021180 0.418158 0.600397
0.363745 0.421424 0.597223
0.599268 0.425025 0.591485
0.814450 0.434668 0.581506
1.000000 0.458656 0.576379
0.000000 0.572717 0.612207
0.125093 0.575494 0.610925
0.379675 0.584131 0.607233
0.600031 0.600031 0.600031
0.817685 0.602594 0.589960
1.000000 0.600977 0.570397
0.000000 0.785672 0.671321
0.000000 0.785641 0.665370
0.333715 0.785519 0.647303
0.592218 0.786435 0.614740
0.823301 0.787503 0.604395
1.000000 0.782467 0.587732
0.000000 0.988617 0.672450
0.000000 0.988220 0.665949
0.376410 0.983276 0.682399
0.596735 0.985412 0.648707
0.835904 0.985443 0.635920
1.000000 0.987213 0.613733
0.000000 0.231418 0.795102
0.000000 0.234836 0.794430
0.287877 0.243259 0.792538
0.566094 0.255833 0.789029
0.801419 0.273533 0.783749
1.000000 0.320897 0.765743
0.000000 0.312413 0.795438
0.000000 0.312779 0.794888
0.295872 0.317235 0.793118
0.567803 0.325597 0.789731
0.800961 0.338872 0.784451
1.000000 0.378424 0.767819
0.000000 0.449897 0.798032
0.000000 0.450599 0.797421
0.310887 0.458534 0.795224
0.571710 0.464302 0.791867
0.799863 0.473548 0.786557
1.000000 0.497383 0.773739
0.000000 0.598444 0.804379
0.000000 0.600824 0.803738
0.292699 0.608942 0.801511
0.572564 0.623774 0.796902
0.799588 0.628168 0.791531
1.000000 0.642817 0.783078
0.000000 0.760922 0.814267
0.000000 0.763272 0.813565
0.326818 0.770199 0.811429
0.577996 0.782620 0.807248
0.799985 0.800015 0.799985
1.000000 0.800778 0.788785
0.000000 0.996124 0.892058
0.000000 0.995758 0.887297
0.000000 0.994690 0.872953
0.499275 0.992737 0.846464
0.796597 0.990814 0.818265
1.000000 0.991913 0.804898
0.000000 0.365393 0.992706
0.000000 0.369024 0.992340
0.262242 0.379553 0.991211
0.552544 0.398322 0.989136
0.786801 0.426642 0.985962
1.000000 0.461677 0.981598
0.000000 0.414160 0.992920
0.000000 0.422797 0.992248
0.282994 0.431189 0.991150
0.559014 0.446815 0.989136
0.788663 0.470649 0.986023
1.000000 0.498329 0.981872
0.000000 0.488930 0.996277
0.000000 0.502647 0.995148
0.323308 0.543603 0.991669
0.571466 0.553094 0.989837
0.791287 0.566094 0.987091
1.000000 0.581720 0.983398
0.000000 0.607172 1.000000
0.000000 0.609247 1.000000
0.000000 0.614221 1.000000
0.569726 0.678737 0.993225
0.789883 0.686793 0.990600
1.000000 0.697414 0.986908
0.000000 0.765194 1.000000
0.000000 0.768124 1.000000
0.000000 0.777188 1.000000
0.465797 0.794339 1.000000
0.784176 0.830442 0.996338
1.000000 0.837491 0.992493
0.000000 0.938628 1.000000
0.000000 0.940948 1.000000
0.000000 0.947875 1.000000
0.450874 0.960449 1.000000
0.758328 0.978363 1.000000
1.000000 1.000000 1.000000
