luts/_Orange and Teal ● 16.cube
# Created by Adobe Lightroom plugin Export LUT (1.16.0)
# www.johnrellis.com/lightroom/exportlut.htm
# Preset: _Orange and Teal ●
# Color profile: C:\Program Files (x86)\Common Files\Adobe\Color\Profiles\Recommended\sRGB Color Space Profile.icm
LUT_3D_SIZE 16
DOMAIN_MIN 0.0 0.0 0.0
DOMAIN_MAX 1.0 1.0 1.0
0.000000 0.000000 0.000000
0.072053 0.000916 0.000000
0.144381 0.003235 0.000000
0.216770 0.008301 0.000000
0.287602 0.017456 0.000000
0.357488 0.030945 0.000000
0.427100 0.047669 0.000000
0.496681 0.065095 0.000000
0.566155 0.083101 0.000000
0.635920 0.100130 0.000000
0.704891 0.116823 0.000000
0.771023 0.131258 0.000000
0.836790 0.145357 0.000000
0.902220 0.158328 0.000000
0.967224 0.170504 0.000000
1.000000 0.181674 0.000000
0.000732 0.061494 0.003845
0.072358 0.061891 0.001312
0.144289 0.065003 0.000000
0.216556 0.068635 0.000000
0.287266 0.074098 0.000000
0.357061 0.082002 0.000000
0.426703 0.091768 0.000000
0.496162 0.103487 0.000000
0.565850 0.115633 0.000000
0.635706 0.128328 0.000000
0.704738 0.141024 0.000000
0.770962 0.153109 0.000000
0.836820 0.164614 0.000000
0.902312 0.175937 0.000000
0.967315 0.186770 0.000000
1.000000 0.196597 0.000000
0.002014 0.122560 0.011139
0.072023 0.123445 0.008820
0.140871 0.124666 0.004608
0.215640 0.130098 0.000000
0.286259 0.133211 0.000000
0.356207 0.137636 0.000000
0.426001 0.143709 0.000000
0.495766 0.150820 0.000000
0.565637 0.158816 0.000000
0.635676 0.167788 0.000000
0.704616 0.177035 0.000000
0.770993 0.186099 0.000000
0.836912 0.195346 0.000000
0.902495 0.204471 0.000000
0.967590 0.213260 0.000000
1.000000 0.221592 0.000000
0.000000 0.185611 0.018769
0.071473 0.186221 0.016876
0.140719 0.187106 0.013123
0.210544 0.188479 0.007568
0.285222 0.193912 0.000000
0.355413 0.196841 0.000000
0.425452 0.200443 0.000000
0.495521 0.205051 0.000000
0.565545 0.210605 0.000000
0.635645 0.217014 0.000000
0.704311 0.223697 0.000000
0.770932 0.230167 0.000000
0.837034 0.236942 0.000000
0.902678 0.243839 0.000000
0.967895 0.250706 0.000000
1.000000 0.257023 0.000000
0.000000 0.249790 0.031525
0.070253 0.249943 0.029847
0.140810 0.250645 0.026032
0.211063 0.251499 0.020661
0.280797 0.252903 0.012818
0.354894 0.257847 0.000000
0.425238 0.260349 0.000000
0.495247 0.263462 0.000000
0.565454 0.267247 0.000000
0.635645 0.271885 0.000000
0.704128 0.276432 0.000000
0.770871 0.280949 0.000000
0.837186 0.285954 0.000000
0.903014 0.290898 0.000000
0.968322 0.295811 0.000000
1.000000 0.300389 0.000000
0.000000 0.313695 0.050538
0.069215 0.313970 0.048981
0.140902 0.314275 0.045228
0.211307 0.314916 0.040101
0.281193 0.315892 0.031312
0.350896 0.317113 0.019654
0.424903 0.321904 0.001617
0.495186 0.324132 0.000000
0.565332 0.326909 0.000000
0.635615 0.330297 0.000000
0.703700 0.333196 0.000000
0.770809 0.336309 0.000000
0.837339 0.339635 0.000000
0.903380 0.343084 0.000000
0.968780 0.346502 0.000000
1.000000 0.349676 0.000000
0.000000 0.377447 0.070405
0.069673 0.377539 0.069276
0.140749 0.377844 0.066346
0.211337 0.378302 0.061799
0.281254 0.379034 0.055085
0.351110 0.379950 0.044617
0.420661 0.381201 0.029328
0.495064 0.386145 0.005249
0.565301 0.388220 0.000000
0.635431 0.390570 0.000000
0.703334 0.392340 0.000000
0.770657 0.394324 0.000000
0.837461 0.396551 0.000000
0.903655 0.398901 0.000000
0.969238 0.401099 0.000000
1.000000 0.402930 0.000000
0.000000 0.440864 0.090822
0.070558 0.440986 0.089601
0.141543 0.441260 0.087007
0.211460 0.441657 0.083680
0.281437 0.442206 0.077913
0.351293 0.442908 0.069886
0.420935 0.443946 0.057984
0.490608 0.445228 0.041169
0.565179 0.450568 0.011444
0.634760 0.451972 0.000000
0.702968 0.452979 0.000000
0.770596 0.454139 0.000000
0.837583 0.455543 0.000000
0.903960 0.456977 0.000000
0.969726 0.458259 0.000000
1.000000 0.459174 0.000000
0.000000 0.504295 0.110506
0.071015 0.504417 0.109468
0.141573 0.504601 0.107546
0.211948 0.504906 0.104097
0.281498 0.505394 0.099672
0.351354 0.506065 0.093172
0.421057 0.506950 0.083497
0.490913 0.508080 0.071382
0.560754 0.509453 0.053162
0.634211 0.513909 0.020752
0.702693 0.514488 0.000000
0.770443 0.515160 0.000000
0.837644 0.515923 0.000000
0.904204 0.516686 0.000000
0.970123 0.517266 0.000000
1.000000 0.517510 0.000000
0.000000 0.569909 0.128695
0.069581 0.570001 0.127810
0.141512 0.570184 0.125917
0.211978 0.570489 0.123140
0.282231 0.570977 0.119112
0.352544 0.571618 0.113375
0.422736 0.572351 0.105531
0.492775 0.573236 0.095399
0.562799 0.574212 0.081575
0.632776 0.575402 0.062684
0.702419 0.576623 0.034180
0.770352 0.576989 0.000000
0.837736 0.577234 0.000000
0.904448 0.577478 0.000000
0.970520 0.577539 0.000000
1.000000 0.577295 0.000000
0.000000 0.636713 0.147158
0.066957 0.636744 0.146426
0.140749 0.636896 0.145144
0.212131 0.637110 0.142580
0.283330 0.637446 0.138918
0.353887 0.637873 0.133913
0.424292 0.638392 0.127169
0.494728 0.639063 0.118654
0.564904 0.639826 0.107393
0.635065 0.640681 0.093019
0.705074 0.641657 0.072755
0.770840 0.639612 0.050202
0.837919 0.639185 0.011414
0.904753 0.639063 0.000000
0.970977 0.638727 0.000000
1.000000 0.638117 0.000000
0.000000 0.703853 0.167941
0.068940 0.703883 0.167300
0.141787 0.704005 0.166018
0.213626 0.704158 0.163851
0.284581 0.704372 0.160433
0.355566 0.704707 0.156130
0.426337 0.705074 0.150301
0.496803 0.705531 0.142580
0.567193 0.706111 0.132998
0.637537 0.706752 0.120760
0.707729 0.707515 0.104555
0.777707 0.708278 0.082979
0.839841 0.702968 0.064881
0.905119 0.701167 0.025422
0.971466 0.700587 0.000000
1.000000 0.699641 0.000000
0.007080 0.771511 0.191745
0.078126 0.771542 0.191196
0.147494 0.771633 0.190005
0.217594 0.771756 0.187869
0.287999 0.771908 0.185092
0.358465 0.772122 0.181003
0.429023 0.772396 0.175692
0.499580 0.772763 0.168765
0.570031 0.773159 0.160281
0.640345 0.773617 0.149508
0.710689 0.774166 0.135683
0.780880 0.774746 0.117983
0.850919 0.775357 0.094057
0.909270 0.766690 0.079866
0.972045 0.762875 0.042847
1.000000 0.761746 0.000000
0.046082 0.839841 0.220432
0.100374 0.839872 0.219852
0.160555 0.839933 0.218723
0.226505 0.839994 0.216892
0.294804 0.840116 0.214115
0.364080 0.840269 0.210391
0.433753 0.840482 0.205570
0.503838 0.840696 0.199252
0.573938 0.840940 0.191562
0.644068 0.841276 0.181735
0.714290 0.841642 0.169711
0.784390 0.842008 0.154360
0.854520 0.842435 0.134646
0.924559 0.842863 0.107607
0.979187 0.830838 0.095308
1.000000 0.824216 0.060578
0.104097 0.908629 0.256992
0.138918 0.908659 0.256321
0.187350 0.908690 0.255314
0.245731 0.908751 0.253544
0.309026 0.908812 0.251072
0.375158 0.908934 0.247623
0.442756 0.909087 0.243076
0.511223 0.909239 0.237369
0.580224 0.909483 0.230106
0.649592 0.909697 0.221225
0.719234 0.909972 0.210147
0.788968 0.910246 0.196536
0.858824 0.910552 0.179171
0.928862 0.910857 0.156741
0.998993 0.911162 0.126009
1.000000 0.895384 0.113039
0.179599 0.978485 0.307774
0.201541 0.978515 0.307317
0.236088 0.978546 0.306371
0.283207 0.978607 0.304784
0.338262 0.978698 0.302556
0.398322 0.978851 0.299382
0.461402 0.979004 0.295262
0.526513 0.979217 0.290166
0.592889 0.979461 0.283696
0.660273 0.979736 0.275700
0.728359 0.980072 0.265660
0.797024 0.980407 0.253330
0.866117 0.980804 0.238193
0.935607 0.981231 0.218601
1.000000 0.981689 0.192874
1.000000 0.982208 0.156191
0.000000 0.006317 0.065522
0.066102 0.007782 0.063600
0.140963 0.008453 0.060670
0.215061 0.005768 0.050263
0.283604 0.024598 0.050721
0.353826 0.037842 0.042237
0.423896 0.052918 0.030793
0.494148 0.068147 0.016663
0.564324 0.083284 0.000000
0.634516 0.098634 0.000000
0.704005 0.113313 0.000000
0.770474 0.127718 0.000000
0.836576 0.141146 0.000000
0.902220 0.153872 0.000000
0.967376 0.165988 0.000000
1.000000 0.176608 0.000000
0.000000 0.066072 0.068605
0.066468 0.066468 0.066468
0.139834 0.068513 0.063416
0.212284 0.072114 0.058839
0.283238 0.077729 0.052888
0.353704 0.084993 0.044404
0.423926 0.093843 0.032715
0.494209 0.103731 0.018158
0.564355 0.114626 0.000519
0.634638 0.126009 0.000000
0.703914 0.138033 0.000000
0.770443 0.149813 0.000000
0.836576 0.161349 0.000000
0.902281 0.172122 0.000000
0.967498 0.182528 0.000000
1.000000 0.192142 0.000000
0.000000 0.126467 0.073945
0.067323 0.127413 0.071290
0.138796 0.128359 0.068177
0.212039 0.131289 0.063233
0.283116 0.134188 0.057099
0.353521 0.138369 0.048371
0.423774 0.143832 0.036408
0.494087 0.150271 0.020935
0.564324 0.157839 0.002899
0.634607 0.166140 0.000000
0.703853 0.174929 0.000000
0.770535 0.183780 0.000000
0.836667 0.192721 0.000000
0.902464 0.201663 0.000000
0.967651 0.210208 0.000000
1.000000 0.217838 0.000000
0.000000 0.189029 0.079255
0.066438 0.189395 0.077607
0.138827 0.189975 0.075319
0.209689 0.191165 0.070954
0.282750 0.194797 0.063630
0.353399 0.197299 0.054658
0.423713 0.200717 0.042939
0.494087 0.205081 0.027253
0.564416 0.210239 0.008087
0.634730 0.216220 0.000000
0.703700 0.222477 0.000000
0.770443 0.228855 0.000000
0.836820 0.235386 0.000000
0.902617 0.242130 0.000000
0.967987 0.248508 0.000000
1.000000 0.254490 0.000000
0.000000 0.251987 0.087465
0.065705 0.252323 0.086458
0.138796 0.252750 0.084077
0.209842 0.253574 0.080049
0.279850 0.254734 0.074403
0.353124 0.258549 0.064698
0.423560 0.260868 0.053101
0.494118 0.263676 0.037324
0.564385 0.267399 0.016907
0.634852 0.271702 0.000000
0.703456 0.276188 0.000000
0.770382 0.280491 0.000000
0.836881 0.285252 0.000000
0.902922 0.290013 0.000000
0.968322 0.294652 0.000000
1.000000 0.298894 0.000000
0.000000 0.315221 0.098146
0.065644 0.315435 0.097261
0.138888 0.315801 0.095338
0.209781 0.316411 0.091798
0.280125 0.317266 0.086213
0.350134 0.318395 0.079042
0.423621 0.322484 0.066651
0.494057 0.324590 0.052094
0.564355 0.327214 0.031830
0.634852 0.330419 0.006653
0.703090 0.333288 0.000000
0.770321 0.336248 0.000000
0.837003 0.339513 0.000000
0.903136 0.342840 0.000000
0.968719 0.346014 0.000000
1.000000 0.348821 0.000000
0.000000 0.378637 0.111025
0.065919 0.378759 0.110018
0.139071 0.379065 0.108064
0.209995 0.379461 0.104891
0.280278 0.380102 0.100313
0.350347 0.381079 0.093599
0.420142 0.382269 0.084565
0.493965 0.386755 0.069734
0.564477 0.388739 0.051545
0.634577 0.390967 0.027161
0.702663 0.392676 0.000000
0.770199 0.394568 0.000000
0.837095 0.396674 0.000000
0.903441 0.398932 0.000000
0.969116 0.400977 0.000000
1.000000 0.402655 0.000000
0.000000 0.441810 0.125154
0.067140 0.441962 0.124239
0.139193 0.442206 0.122713
0.210239 0.442573 0.119539
0.280339 0.443122 0.115297
0.350225 0.443885 0.109651
0.420203 0.444862 0.101656
0.490059 0.446021 0.091524
0.564355 0.450965 0.073243
0.633997 0.452308 0.053620
0.702358 0.453315 0.025666
0.769986 0.454627 0.000000
0.837125 0.455909 0.000000
0.903624 0.457221 0.000000
0.969543 0.458412 0.000000
1.000000 0.459266 0.000000
0.000000 0.505028 0.139986
0.067659 0.505150 0.139193
0.139498 0.505394 0.137942
0.210239 0.505638 0.135195
0.280369 0.506157 0.131563
0.350439 0.506828 0.126223
0.420447 0.507652 0.119295
0.490333 0.508782 0.110353
0.560266 0.510155 0.098482
0.633448 0.514275 0.079316
0.702022 0.514885 0.058503
0.769863 0.515587 0.026825
0.837186 0.516350 0.000000
0.903838 0.517021 0.000000
0.969909 0.517571 0.000000
1.000000 0.517723 0.000000
0.000000 0.570550 0.154635
0.063935 0.570672 0.153902
0.138552 0.570855 0.152499
0.210269 0.571160 0.150240
0.281102 0.571588 0.146822
0.351598 0.572168 0.142336
0.421851 0.572900 0.135805
0.492256 0.573785 0.127779
0.562249 0.574823 0.117708
0.632288 0.575982 0.104524
0.701869 0.577020 0.087373
0.769894 0.577356 0.065156
0.837278 0.577691 0.029236
0.904082 0.577905 0.000000
0.970275 0.577905 0.000000
1.000000 0.577630 0.000000
0.000000 0.637171 0.170748
0.062409 0.637201 0.169986
0.137789 0.637385 0.168704
0.210330 0.637598 0.166659
0.281804 0.637903 0.163638
0.352789 0.638331 0.159213
0.423590 0.638849 0.153628
0.493996 0.639521 0.146334
0.564324 0.640253 0.137331
0.634546 0.641108 0.125673
0.704616 0.642115 0.111147
0.770382 0.639918 0.096254
0.837522 0.639612 0.072938
0.904417 0.639460 0.032258
0.970703 0.639155 0.000000
1.000000 0.638422 0.000000
0.000000 0.704189 0.188876
0.063416 0.704280 0.188296
0.139071 0.704372 0.187198
0.211734 0.704494 0.185153
0.283177 0.704768 0.182132
0.354589 0.705043 0.178286
0.425269 0.705440 0.173098
0.496040 0.705928 0.166690
0.566613 0.706477 0.158511
0.636988 0.707088 0.148013
0.707210 0.707790 0.135042
0.777310 0.708614 0.118318
0.839384 0.703212 0.105776
0.904784 0.701534 0.081666
0.971191 0.700984 0.035828
1.000000 0.700038 0.000000
0.000000 0.771786 0.210208
0.073487 0.771817 0.209689
0.144625 0.771878 0.208713
0.215885 0.772000 0.206790
0.286595 0.772183 0.204166
0.357397 0.772396 0.200504
0.428199 0.772671 0.195560
0.498817 0.773037 0.189517
0.569299 0.773434 0.181949
0.639704 0.773892 0.172580
0.710140 0.774380 0.160586
0.780362 0.774960 0.145968
0.850492 0.775570 0.126772
0.908812 0.766903 0.116030
0.971801 0.763241 0.091829
1.000000 0.762112 0.036011
0.037873 0.840024 0.236637
0.096803 0.840055 0.236088
0.158328 0.840085 0.235050
0.225132 0.840177 0.233249
0.293675 0.840299 0.230808
0.363043 0.840452 0.227390
0.432929 0.840635 0.222904
0.503075 0.840879 0.217044
0.573236 0.841154 0.210056
0.643458 0.841459 0.201205
0.713680 0.841794 0.190280
0.783902 0.842191 0.176730
0.854002 0.842618 0.159579
0.924102 0.843046 0.137484
0.978759 0.831022 0.127565
1.000000 0.824582 0.102480
0.102083 0.908721 0.271000
0.137087 0.908751 0.270573
0.185733 0.908782 0.269596
0.244450 0.908843 0.267857
0.308263 0.908934 0.265415
0.374334 0.909056 0.262272
0.441993 0.909178 0.257908
0.510521 0.909361 0.252537
0.579675 0.909575 0.245792
0.649042 0.909819 0.237613
0.718624 0.910094 0.227237
0.788418 0.910369 0.214694
0.858366 0.910674 0.198825
0.928374 0.910979 0.178836
0.998474 0.911284 0.152590
1.000000 0.895537 0.141665
0.179171 0.978515 0.319860
0.201205 0.978546 0.319341
0.235660 0.978607 0.318364
0.283055 0.978637 0.316930
0.337774 0.978759 0.314672
0.397833 0.978882 0.311681
0.460914 0.979065 0.307713
0.525994 0.979278 0.302708
0.592401 0.979522 0.296483
0.659846 0.979797 0.288853
0.727901 0.980133 0.279362
0.796536 0.980499 0.267735
0.865660 0.980865 0.253269
0.935149 0.981292 0.234928
1.000000 0.981781 0.211307
1.000000 0.982300 0.178408
0.000000 0.016114 0.131899
0.052705 0.017334 0.130343
0.131960 0.017456 0.128115
0.210483 0.014099 0.125856
0.283116 0.014008 0.118379
0.353918 0.016724 0.108736
0.422217 0.045838 0.107179
0.491829 0.067292 0.103029
0.562585 0.080537 0.092714
0.633051 0.094911 0.079469
0.702876 0.108858 0.062074
0.769650 0.123262 0.036957
0.836118 0.136202 0.002502
0.902037 0.148806 0.000000
0.967529 0.159579 0.000000
1.000000 0.169314 0.000000
0.000000 0.075074 0.133303
0.052583 0.073243 0.132387
0.132937 0.074250 0.130282
0.208316 0.074983 0.126986
0.281071 0.075654 0.120638
0.350988 0.084657 0.116640
0.421180 0.095003 0.112520
0.491859 0.103792 0.104341
0.562493 0.113436 0.093904
0.633143 0.123751 0.080934
0.702785 0.135225 0.063416
0.769650 0.146334 0.038636
0.836149 0.157198 0.003754
0.902098 0.167849 0.000000
0.967590 0.177584 0.000000
1.000000 0.186069 0.000000
0.000000 0.132662 0.136568
0.055756 0.132753 0.135317
0.133333 0.133333 0.133333
0.206882 0.134737 0.130373
0.278996 0.137148 0.126345
0.350164 0.140749 0.121370
0.421057 0.145357 0.114992
0.491951 0.150668 0.106691
0.562646 0.157443 0.096437
0.633204 0.164981 0.083314
0.702632 0.173404 0.066133
0.769619 0.181918 0.041444
0.836210 0.190402 0.006317
0.902159 0.198703 0.000000
0.967742 0.206302 0.000000
1.000000 0.213199 0.000000
0.000000 0.192538 0.140932
0.059754 0.193118 0.140108
0.133486 0.194003 0.137758
0.206241 0.195041 0.134737
0.279057 0.196963 0.130770
0.350256 0.199161 0.125490
0.421210 0.202152 0.118959
0.492103 0.205966 0.110567
0.562646 0.210697 0.100221
0.633295 0.216007 0.087160
0.702480 0.221927 0.070130
0.769558 0.227970 0.047028
0.836210 0.234226 0.011810
0.902342 0.240421 0.000000
0.967926 0.246220 0.000000
1.000000 0.251255 0.000000
0.000000 0.254978 0.147799
0.056306 0.255467 0.144991
0.133883 0.255863 0.143374
0.206699 0.256535 0.140841
0.277867 0.257572 0.136843
0.350256 0.260075 0.131380
0.421271 0.262211 0.124727
0.492042 0.264805 0.116426
0.562707 0.268223 0.106264
0.633356 0.272190 0.093294
0.702205 0.276341 0.076997
0.769467 0.280461 0.054932
0.836240 0.284916 0.019593
0.902464 0.289281 0.000000
0.968200 0.293523 0.000000
1.000000 0.297124 0.000000
0.000000 0.317784 0.152956
0.056153 0.317845 0.151949
0.133944 0.318242 0.150576
0.206912 0.318730 0.148318
0.277928 0.319585 0.144717
0.348547 0.320653 0.139742
0.421302 0.323735 0.132418
0.492164 0.325689 0.124208
0.562860 0.328191 0.114229
0.633387 0.331151 0.101747
0.701900 0.333867 0.086549
0.769314 0.336706 0.065949
0.836301 0.339788 0.033692
0.902678 0.342840 0.000000
0.968475 0.345708 0.000000
1.000000 0.348028 0.000000
0.000000 0.380529 0.161654
0.056886 0.380682 0.160800
0.134157 0.380957 0.159335
0.207248 0.381353 0.157076
0.278050 0.382055 0.153658
0.348669 0.382849 0.149050
0.418830 0.383978 0.143099
0.492103 0.387732 0.134096
0.562860 0.389624 0.124300
0.633082 0.391730 0.112581
0.701472 0.393408 0.098512
0.769223 0.395270 0.079652
0.836301 0.397406 0.051667
0.902831 0.399451 0.006806
0.968780 0.401251 0.000000
1.000000 0.402655 0.000000
0.000000 0.443488 0.171481
0.058595 0.443519 0.170718
0.134554 0.443793 0.169375
0.207095 0.444160 0.167361
0.278294 0.444739 0.164187
0.348638 0.445411 0.159976
0.419013 0.446296 0.154330
0.488899 0.447486 0.147250
0.562829 0.451759 0.136233
0.632624 0.453132 0.125277
0.701167 0.454170 0.112581
0.769039 0.455360 0.095521
0.836332 0.456703 0.072053
0.903044 0.457893 0.033082
0.969085 0.459052 0.000000
1.000000 0.459663 0.000000
0.000000 0.506462 0.182345
0.058045 0.506554 0.181735
0.135012 0.506737 0.180484
0.207218 0.507012 0.178500
0.278141 0.507530 0.175662
0.348882 0.508141 0.171633
0.419104 0.508995 0.166445
0.489174 0.510094 0.159854
0.559319 0.511376 0.151614
0.632197 0.515038 0.139742
0.700862 0.515709 0.127993
0.768948 0.516381 0.113039
0.836423 0.517144 0.092805
0.903227 0.517815 0.062806
0.969390 0.518303 0.008728
1.000000 0.518364 0.000000
0.000000 0.571679 0.193790
0.053346 0.571771 0.193088
0.133150 0.571984 0.191958
0.206851 0.572290 0.190188
0.278752 0.572717 0.187411
0.349828 0.573266 0.183719
0.420417 0.573968 0.178805
0.490974 0.574823 0.172824
0.561273 0.575860 0.165133
0.631434 0.576959 0.155764
0.700740 0.577722 0.144625
0.769009 0.578058 0.131319
0.836545 0.578393 0.113863
0.903471 0.578637 0.089693
0.969787 0.578698 0.049104
1.000000 0.578271 0.000000
0.000000 0.638087 0.206699
0.050172 0.638087 0.206210
0.132296 0.638270 0.205173
0.207187 0.638453 0.203311
0.279179 0.638819 0.200687
0.350866 0.639185 0.197208
0.421912 0.639673 0.192813
0.492622 0.640345 0.187015
0.563226 0.641047 0.179873
0.633600 0.641932 0.171237
0.703761 0.642847 0.160616
0.769314 0.640528 0.150607
0.836728 0.640314 0.135714
0.903807 0.640162 0.115267
0.970214 0.639857 0.084840
1.000000 0.639155 0.023774
0.000000 0.704860 0.221836
0.051179 0.704921 0.221347
0.133577 0.705013 0.220432
0.208225 0.705165 0.218814
0.280705 0.705379 0.216373
0.352392 0.705684 0.213046
0.423743 0.706081 0.208804
0.494728 0.706538 0.203311
0.565454 0.707088 0.196628
0.635920 0.707698 0.188266
0.706264 0.708400 0.178256
0.776486 0.709163 0.165743
0.838437 0.703731 0.156710
0.904143 0.702235 0.140810
0.970733 0.701625 0.116152
1.000000 0.700679 0.075532
0.000000 0.772274 0.240482
0.063569 0.772305 0.239933
0.139315 0.772366 0.239017
0.212345 0.772457 0.237400
0.284001 0.772641 0.235050
0.355444 0.772885 0.231937
0.426429 0.773159 0.227848
0.497322 0.773495 0.222568
0.568017 0.773892 0.216068
0.638666 0.774319 0.208042
0.709133 0.774838 0.198459
0.779416 0.775418 0.186526
0.849607 0.776028 0.172091
0.907988 0.767330 0.164096
0.971283 0.763943 0.146883
1.000000 0.762783 0.115908
0.025940 0.840330 0.263859
0.089723 0.840330 0.263279
0.154360 0.840421 0.262516
0.222019 0.840482 0.260899
0.291386 0.840604 0.258549
0.361273 0.840757 0.255467
0.431373 0.840940 0.251560
0.501640 0.841184 0.246464
0.571984 0.841459 0.240146
0.642329 0.841764 0.232609
0.712642 0.842130 0.223178
0.782895 0.842527 0.211734
0.853086 0.842924 0.197757
0.923247 0.843351 0.180240
0.977966 0.831357 0.172213
1.000000 0.825193 0.153567
0.097200 0.908904 0.295109
0.133791 0.908904 0.294621
0.183078 0.908965 0.293736
0.242435 0.909026 0.292241
0.306432 0.909117 0.289921
0.372808 0.909239 0.286992
0.440742 0.909392 0.283085
0.509361 0.909575 0.278202
0.578485 0.909789 0.272038
0.647913 0.910033 0.264683
0.717617 0.910307 0.255467
0.787442 0.910582 0.244205
0.857420 0.910887 0.230564
0.927459 0.911192 0.213504
0.997681 0.911498 0.191836
1.000000 0.895811 0.182956
0.178256 0.978576 0.340551
0.200320 0.978607 0.340185
0.235050 0.978668 0.339330
0.282322 0.978698 0.337896
0.337255 0.978851 0.335851
0.397192 0.978973 0.332982
0.460151 0.979156 0.329229
0.525200 0.979370 0.324559
0.591547 0.979644 0.318730
0.658991 0.979919 0.311650
0.726986 0.980255 0.302861
0.795651 0.980621 0.292119
0.864714 0.981018 0.278904
0.934234 0.981476 0.262364
1.000000 0.981933 0.241367
1.000000 0.982483 0.213199
0.000000 0.029633 0.197940
0.017670 0.028321 0.197269
0.117800 0.027375 0.195743
0.198642 0.028840 0.193240
0.277256 0.029450 0.191623
0.349828 0.032441 0.185275
0.421271 0.037690 0.178103
0.492378 0.044068 0.169223
0.561913 0.069703 0.165133
0.631342 0.093416 0.161715
0.701015 0.108919 0.153841
0.768215 0.122408 0.142580
0.835019 0.134981 0.128023
0.901396 0.146304 0.108492
0.967224 0.156191 0.079835
1.000000 0.164034 0.026886
0.000000 0.087373 0.198917
0.018585 0.081971 0.198581
0.119783 0.082734 0.197116
0.199161 0.084565 0.194705
0.275700 0.085695 0.192294
0.348333 0.087221 0.186831
0.420356 0.089448 0.179751
0.490974 0.097108 0.173220
0.560784 0.111971 0.169589
0.631006 0.125460 0.164034
0.700893 0.135317 0.154604
0.768154 0.146304 0.143557
0.835050 0.156710 0.129152
0.901396 0.166384 0.109834
0.967254 0.174807 0.081147
1.000000 0.181918 0.028473
0.000000 0.140749 0.201053
0.033295 0.140566 0.200229
0.121706 0.139803 0.199039
0.199771 0.140841 0.196811
0.274205 0.141878 0.193881
0.347082 0.142977 0.189059
0.418616 0.146487 0.183871
0.489021 0.154025 0.180026
0.560021 0.160037 0.173678
0.631067 0.166598 0.165743
0.700710 0.174258 0.156466
0.768093 0.182376 0.145327
0.834958 0.190555 0.130953
0.901457 0.197940 0.111635
0.967346 0.204868 0.083497
1.000000 0.210086 0.031983
0.000000 0.198856 0.204349
0.034699 0.199008 0.203494
0.123690 0.199283 0.202060
0.200015 0.200015 0.200015
0.273503 0.201175 0.197208
0.345922 0.203189 0.193484
0.417578 0.205631 0.188815
0.488930 0.209079 0.183230
0.560143 0.212894 0.176577
0.631006 0.217929 0.168643
0.700496 0.223362 0.159426
0.767971 0.229191 0.148135
0.835019 0.234867 0.134096
0.901488 0.240574 0.114931
0.967437 0.245579 0.087434
1.000000 0.249668 0.037690
0.000000 0.258946 0.208255
0.040162 0.259251 0.207736
0.125368 0.259831 0.206516
0.200473 0.260655 0.204227
0.273564 0.261540 0.201358
0.345983 0.263188 0.197696
0.417731 0.264988 0.193149
0.489113 0.267338 0.187411
0.560174 0.270420 0.180697
0.631128 0.273930 0.172793
0.700221 0.277836 0.163729
0.767849 0.281987 0.152651
0.834958 0.286046 0.138674
0.901549 0.290135 0.120150
0.967620 0.293706 0.093355
1.000000 0.296513 0.046174
0.000000 0.320745 0.214481
0.045197 0.321050 0.213840
0.125399 0.321599 0.211612
0.200931 0.322148 0.209506
0.273716 0.322881 0.206851
0.345403 0.323857 0.203250
0.417975 0.325994 0.198398
0.489265 0.327794 0.192721
0.560204 0.330205 0.186160
0.631159 0.332982 0.178225
0.699886 0.335485 0.169406
0.767727 0.338262 0.158602
0.834958 0.341222 0.144869
0.901701 0.344091 0.126864
0.967773 0.346593 0.101167
1.000000 0.348394 0.058228
0.000000 0.383215 0.220737
0.038178 0.383490 0.219120
0.125429 0.383795 0.217655
0.201053 0.384222 0.215946
0.274083 0.384771 0.213474
0.345495 0.385534 0.210147
0.416480 0.386694 0.205722
0.489265 0.389471 0.199527
0.560296 0.391302 0.193149
0.630915 0.393378 0.185397
0.699489 0.395026 0.176577
0.767575 0.396857 0.166140
0.834989 0.398871 0.152804
