luts/Augusta ● 16.cube
# Created by Adobe Lightroom plugin Export LUT (1.16.0)
# www.johnrellis.com/lightroom/exportlut.htm
# Preset: Augusta ●
# Color profile: C:\Program Files (x86)\Common Files\Adobe\Color\Profiles\Recommended\sRGB Color Space Profile.icm
LUT_3D_SIZE 6
DOMAIN_MIN 0.0 0.0 0.0
DOMAIN_MAX 1.0 1.0 1.0
0.000000 0.000000 0.000000
0.226139 0.013764 0.010895
0.445991 0.015778 0.000000
0.660578 0.063905 0.000000
0.860410 0.097261 0.000000
1.000000 0.091554 0.000000
0.001648 0.184970 0.023072
0.207431 0.185519 0.004761
0.434638 0.200870 0.000000
0.654505 0.218204 0.000000
0.857481 0.225132 0.000000
1.000000 0.213870 0.000000
0.000000 0.371038 0.059968
0.203677 0.371252 0.041444
0.412024 0.371618 0.000000
0.639765 0.387945 0.000000
0.850462 0.391547 0.000000
1.000000 0.383764 0.000000
0.000000 0.562829 0.102235
0.195987 0.563012 0.089021
0.411749 0.563684 0.036500
0.622858 0.564569 0.000000
0.841520 0.567590 0.000000
1.000000 0.559991 0.000000
0.000000 0.762905 0.127260
0.170993 0.762905 0.115785
0.407416 0.762875 0.067720
0.627253 0.762356 0.000000
0.847440 0.760983 0.000000
1.000000 0.742306 0.000000
0.000000 0.969421 0.127810
0.096376 0.969482 0.104402
0.389227 0.969482 0.000000
0.622980 0.969177 0.000000
0.850156 0.968322 0.000000
1.000000 0.966766 0.000000
0.000000 0.047456 0.215030
0.201968 0.042390 0.202090
0.421515 0.054017 0.187167
0.637964 0.100282 0.172335
0.848966 0.127413 0.127993
1.000000 0.131136 0.000000
0.000000 0.196445 0.206149
0.198764 0.199985 0.204623
0.410346 0.205264 0.193973
0.634211 0.218936 0.173770
0.846799 0.229862 0.128511
1.000000 0.227420 0.000000
0.000000 0.372503 0.219669
0.196719 0.372534 0.214206
0.401556 0.372442 0.197299
0.625788 0.387030 0.176181
0.841367 0.392370 0.129976
1.000000 0.386053 0.000000
0.000000 0.562493 0.234775
0.191073 0.562737 0.229740
0.405951 0.563226 0.213565
0.615351 0.563958 0.178866
0.834775 0.568353 0.126894
1.000000 0.561089 0.000000
0.000000 0.762264 0.248783
0.169833 0.762264 0.242893
0.404211 0.762295 0.223789
0.623102 0.761929 0.181674
0.842802 0.760647 0.071351
1.000000 0.743709 0.000000
0.000000 0.969024 0.258549
0.113191 0.969116 0.247959
0.389654 0.969268 0.210330
0.620539 0.969207 0.099275
0.846525 0.968658 0.000000
1.000000 0.967315 0.000000
0.000000 0.101656 0.409979
0.155612 0.107851 0.403082
0.399725 0.117494 0.387366
0.623835 0.133150 0.380438
0.832792 0.165194 0.364813
1.000000 0.205966 0.347997
0.000000 0.236484 0.399512
0.170809 0.233677 0.394598
0.393957 0.231754 0.384039
0.616144 0.241001 0.380163
0.827085 0.261662 0.369421
1.000000 0.270878 0.345006
0.000000 0.388952 0.394659
0.170413 0.388708 0.392065
0.401099 0.400031 0.395880
0.607294 0.400946 0.383764
0.823026 0.410101 0.372778
1.000000 0.407691 0.340673
0.000000 0.568841 0.406653
0.175540 0.569238 0.405463
0.396002 0.570581 0.399603
0.603418 0.569940 0.383825
0.821256 0.575616 0.370703
1.000000 0.572412 0.331640
0.000000 0.762844 0.423255
0.177584 0.762356 0.424475
0.398718 0.762570 0.414527
0.613336 0.762448 0.394263
0.830533 0.761410 0.358618
1.000000 0.749874 0.305394
0.000000 0.967681 0.451545
0.175296 0.967895 0.445930
0.400244 0.968414 0.428229
0.617731 0.969085 0.388220
0.837064 0.969451 0.301701
1.000000 0.968658 0.000000
0.000000 0.183658 0.602075
0.004700 0.187930 0.598566
0.376074 0.194369 0.589471
0.601831 0.197574 0.575372
0.818906 0.221286 0.564355
1.000000 0.289311 0.558129
0.000000 0.285740 0.595483
0.083345 0.282841 0.592065
0.377539 0.281895 0.584894
0.597681 0.280705 0.572747
0.814359 0.299748 0.564752
1.000000 0.353918 0.563104
0.000000 0.427619 0.589746
0.119661 0.427283 0.586786
0.380377 0.428229 0.581231
0.593317 0.426856 0.572107
0.806882 0.444617 0.569085
1.000000 0.482124 0.575677
0.000000 0.585779 0.586389
0.095766 0.585443 0.584649
0.372839 0.586877 0.581750
0.603479 0.600061 0.586694
0.808133 0.598596 0.574395
1.000000 0.603357 0.562737
0.000000 0.770932 0.595941
0.000000 0.770291 0.594873
0.365087 0.768917 0.592554
0.603632 0.767910 0.591485
0.812467 0.766903 0.572992
1.000000 0.767239 0.555932
0.000000 0.977050 0.573816
0.000000 0.976104 0.574060
0.396551 0.968627 0.620783
0.617060 0.968963 0.609949
0.825589 0.970459 0.574578
1.000000 0.971221 0.493965
0.000000 0.282689 0.788937
0.000000 0.285100 0.787442
0.338323 0.290990 0.783108
0.581750 0.297887 0.775692
0.804135 0.304662 0.765438
1.000000 0.356085 0.748806
0.000000 0.351781 0.786221
0.000000 0.355200 0.784237
0.349950 0.357366 0.780514
0.583307 0.360754 0.773648
0.801877 0.364569 0.764034
0.997803 0.410040 0.750454
0.000000 0.470405 0.783993
0.000000 0.473304 0.782040
0.375708 0.487373 0.776425
0.588769 0.488411 0.770443
0.797452 0.489021 0.761776
0.993866 0.520531 0.755886
0.000000 0.616876 0.782925
0.000000 0.617426 0.781552
0.347021 0.620172 0.777676
0.593469 0.631037 0.771267
0.795560 0.628992 0.763210
0.994965 0.653834 0.765652
0.000000 0.779965 0.783322
0.000000 0.779965 0.782193
0.322026 0.780056 0.778988
0.579339 0.781247 0.774716
0.803830 0.791318 0.777340
1.000000 0.795132 0.769680
0.000000 0.984070 0.793057
0.000000 0.983185 0.792111
0.000000 0.980713 0.789548
0.530968 0.976928 0.785733
0.808621 0.973297 0.793301
1.000000 0.975708 0.762112
0.000000 0.451545 0.985718
0.145418 0.454597 0.985138
0.387243 0.462898 0.983398
0.600275 0.476570 0.980194
0.804440 0.492134 0.975616
0.997833 0.508690 0.969787
0.000000 0.493416 0.985199
0.223178 0.504295 0.983978
0.413703 0.510338 0.982391
0.610803 0.519402 0.979492
0.806973 0.529808 0.975280
0.996704 0.541009 0.969818
0.000000 0.544488 0.988739
0.134646 0.563867 0.986694
0.459052 0.606958 0.981567
0.629725 0.609613 0.979248
0.811368 0.611994 0.975677
0.994690 0.614588 0.970855
0.000000 0.638178 0.994232
0.000000 0.641901 0.993591
0.246006 0.654444 0.991485
0.638972 0.716579 0.982300
0.812650 0.716304 0.979004
0.992584 0.716365 0.974182
0.000000 0.791958 0.997467
0.000000 0.794308 0.996857
0.000000 0.801053 0.995148
0.537102 0.812222 0.992126
0.811032 0.841062 0.985351
0.989899 0.840238 0.980072
0.000000 0.969635 0.999603
0.000000 0.970336 0.999145
0.000000 0.972229 0.997894
0.425879 0.975891 0.995422
0.757504 0.981445 0.991424
0.984497 0.984192 0.987396
