luts/Augusta ● 16.cube
# Created by Adobe Lightroom plugin Export LUT (1.16.0)
# www.johnrellis.com/lightroom/exportlut.htm
# Preset: Augusta ●
# Color profile: C:\Program Files (x86)\Common Files\Adobe\Color\Profiles\Recommended\sRGB Color Space Profile.icm
LUT_3D_SIZE 16
DOMAIN_MIN 0.0 0.0 0.0
DOMAIN_MAX 1.0 1.0 1.0
0.000000 0.000000 0.000000
0.072511 0.005097 0.005432
0.148898 0.011261 0.011444
0.226139 0.013764 0.010895
0.300847 0.014160 0.005005
0.373693 0.013245 0.000000
0.445991 0.015778 0.000000
0.517510 0.027893 0.000000
0.588830 0.046876 0.000000
0.660578 0.063905 0.000000
0.729946 0.079591 0.000000
0.795438 0.090578 0.000000
0.860410 0.097261 0.000000
0.924437 0.099367 0.000000
0.987427 0.097322 0.000000
1.000000 0.091554 0.000000
0.003967 0.061799 0.007355
0.072023 0.061891 0.003143
0.147311 0.068910 0.003601
0.223911 0.073701 0.002075
0.298711 0.075319 0.000000
0.371588 0.076967 0.000000
0.444190 0.079744 0.000000
0.515709 0.088197 0.000000
0.587488 0.098360 0.000000
0.659327 0.108675 0.000000
0.728847 0.118044 0.000000
0.794705 0.125124 0.000000
0.859800 0.128817 0.000000
0.924041 0.129610 0.000000
0.987152 0.126986 0.000000
1.000000 0.121828 0.000000
0.005615 0.123262 0.015869
0.073304 0.123476 0.012512
0.139681 0.123903 0.004486
0.218936 0.132265 0.000000
0.294285 0.136080 0.000000
0.368200 0.139315 0.000000
0.440894 0.143099 0.000000
0.513085 0.148379 0.000000
0.585199 0.154788 0.000000
0.657496 0.161532 0.000000
0.727108 0.167391 0.000000
0.793393 0.170962 0.000000
0.858793 0.172732 0.000000
0.923400 0.171756 0.000000
0.986633 0.168368 0.000000
1.000000 0.163455 0.000000
0.001648 0.184970 0.023072
0.072511 0.185153 0.020081
0.139467 0.185275 0.014130
0.207431 0.185519 0.004761
0.286107 0.193332 0.000000
0.360723 0.197238 0.000000
0.434638 0.200870 0.000000
0.508141 0.206027 0.000000
0.581415 0.211765 0.000000
0.654505 0.218204 0.000000
0.724483 0.223606 0.000000
0.791409 0.225345 0.000000
0.857481 0.225132 0.000000
0.922301 0.223117 0.000000
0.985962 0.219242 0.000000
1.000000 0.213870 0.000000
0.000000 0.246891 0.034089
0.068330 0.246830 0.030243
0.138186 0.246952 0.024659
0.206973 0.247013 0.014160
0.275212 0.247135 0.001007
0.353429 0.254582 0.000000
0.428138 0.258671 0.000000
0.502281 0.263005 0.000000
0.576410 0.267582 0.000000
0.650080 0.272770 0.000000
0.720638 0.276829 0.000000
0.788724 0.279576 0.000000
0.855711 0.281437 0.000000
0.921019 0.278721 0.000000
0.985016 0.274479 0.000000
1.000000 0.268803 0.000000
0.000000 0.308659 0.045838
0.062074 0.308782 0.042634
0.135592 0.308690 0.035889
0.205661 0.308843 0.026062
0.274571 0.308934 0.009827
0.343572 0.308995 0.000000
0.421729 0.316503 0.000000
0.496468 0.320958 0.000000
0.570916 0.325383 0.000000
0.645167 0.329839 0.000000
0.716060 0.332647 0.000000
0.785275 0.334600 0.000000
0.853239 0.335515 0.000000
0.919677 0.335943 0.000000
0.984039 0.331456 0.000000
1.000000 0.325841 0.000000
0.000000 0.371038 0.059968
0.054871 0.371038 0.057252
0.132021 0.371099 0.050446
0.203677 0.371252 0.041444
0.273716 0.371374 0.025086
0.343023 0.371374 0.004273
0.412024 0.371618 0.000000
0.490608 0.379614 0.000000
0.565179 0.384070 0.000000
0.639765 0.387945 0.000000
0.711238 0.390204 0.000000
0.781552 0.391455 0.000000
0.850462 0.391547 0.000000
0.917662 0.391150 0.000000
0.983062 0.389563 0.000000
1.000000 0.383764 0.000000
0.000000 0.433936 0.076173
0.047974 0.433967 0.073213
0.129183 0.434089 0.067781
0.201877 0.434119 0.060121
0.272496 0.434241 0.045686
0.342473 0.434302 0.025086
0.411841 0.434546 0.000000
0.480842 0.434852 0.000000
0.559564 0.443061 0.000000
0.633936 0.446754 0.000000
0.706477 0.448768 0.000000
0.777737 0.449622 0.000000
0.847532 0.449287 0.000000
0.915496 0.448219 0.000000
0.981750 0.446296 0.000000
1.000000 0.442420 0.000000
0.000000 0.497139 0.090425
0.035523 0.497261 0.088228
0.124392 0.497169 0.084596
0.199680 0.497292 0.076387
0.271275 0.497322 0.064851
0.341527 0.497536 0.046876
0.410986 0.497719 0.018433
0.480446 0.497963 0.000000
0.550011 0.498329 0.000000
0.628382 0.505730 0.000000
0.701808 0.507958 0.000000
0.773953 0.508598 0.000000
0.844480 0.508080 0.000000
0.913298 0.506523 0.000000
0.980194 0.504295 0.000000
1.000000 0.501366 0.000000
0.000000 0.562829 0.102235
0.018616 0.562890 0.099855
0.117739 0.562921 0.095583
0.195987 0.563012 0.089021
0.269780 0.563256 0.079164
0.341283 0.563531 0.062440
0.411749 0.563684 0.036500
0.481910 0.563958 0.000000
0.552209 0.564294 0.000000
0.622858 0.564569 0.000000
0.697414 0.567529 0.000000
0.770138 0.568322 0.000000
0.841520 0.567590 0.000000
0.910979 0.565942 0.000000
0.978607 0.563348 0.000000
1.000000 0.559991 0.000000
0.000000 0.629786 0.110689
0.000000 0.629816 0.109316
0.106203 0.629816 0.105348
0.190249 0.629877 0.098939
0.266575 0.629999 0.089387
0.340124 0.630060 0.074037
0.411383 0.630213 0.051545
0.482643 0.630243 0.014618
0.553552 0.630365 0.000000
0.624964 0.630396 0.000000
0.696864 0.630274 0.000000
0.767208 0.628717 0.000000
0.838682 0.627741 0.000000
0.908843 0.626093 0.000000
0.977050 0.623438 0.000000
1.000000 0.619806 0.000000
0.000000 0.696376 0.119783
0.000000 0.696315 0.118013
0.089296 0.696345 0.114534
0.182162 0.696315 0.108217
0.261631 0.696376 0.098390
0.336828 0.696437 0.083833
0.409857 0.696376 0.061616
0.481941 0.696345 0.024933
0.554009 0.696284 0.000000
0.626276 0.696101 0.000000
0.699001 0.695857 0.000000
0.771878 0.695399 0.000000
0.837949 0.689845 0.000000
0.906828 0.687007 0.000000
0.975586 0.684413 0.000000
1.000000 0.680568 0.000000
0.000000 0.762905 0.127260
0.000000 0.762905 0.125704
0.065400 0.762905 0.121462
0.170993 0.762905 0.115785
0.254948 0.762905 0.105257
0.332494 0.762875 0.090120
0.407416 0.762875 0.067720
0.480964 0.762783 0.026551
0.554040 0.762600 0.000000
0.627253 0.762356 0.000000
0.700771 0.761990 0.000000
0.774258 0.761532 0.000000
0.847440 0.760983 0.000000
0.908904 0.751492 0.000000
0.974212 0.746181 0.000000
1.000000 0.742306 0.000000
0.000000 0.830289 0.133303
0.000000 0.830289 0.131106
0.022126 0.830289 0.126772
0.156252 0.830289 0.120272
0.246189 0.830259 0.109010
0.326818 0.830228 0.091859
0.404028 0.830167 0.064485
0.479072 0.830045 0.016541
0.553491 0.829862 0.000000
0.627802 0.829587 0.000000
0.702113 0.829191 0.000000
0.776150 0.828733 0.000000
0.849821 0.828183 0.000000
0.922850 0.827604 0.000000
0.979583 0.814206 0.000000
1.000000 0.805081 0.000000
0.000000 0.898863 0.135592
0.000000 0.898894 0.132753
0.000000 0.898894 0.127687
0.135775 0.898894 0.119173
0.234226 0.898863 0.104921
0.319127 0.898802 0.083711
0.398840 0.898772 0.044373
0.476295 0.898650 0.000000
0.551965 0.898466 0.000000
0.627192 0.898192 0.000000
0.702266 0.897856 0.000000
0.776883 0.897429 0.000000
0.851102 0.896910 0.000000
0.924865 0.896391 0.000000
0.998169 0.895781 0.000000
1.000000 0.877317 0.000000
0.000000 0.969421 0.127810
0.000000 0.969421 0.124392
0.000000 0.969451 0.116854
0.096376 0.969482 0.104402
0.214450 0.969482 0.082521
0.305669 0.969512 0.040558
0.389227 0.969482 0.000000
0.469062 0.969421 0.000000
0.546593 0.969329 0.000000
0.622980 0.969177 0.000000
0.699092 0.968933 0.000000
0.774777 0.968688 0.000000
0.850156 0.968322 0.000000
0.925414 0.967956 0.000000
1.000000 0.967437 0.000000
1.000000 0.966766 0.000000
0.000000 0.015106 0.072419
0.068147 0.014527 0.068757
0.144350 0.016510 0.069520
0.219638 0.015351 0.061616
0.289586 0.032715 0.060914
0.362890 0.040253 0.049012
0.435920 0.050843 0.028840
0.509209 0.063783 0.008911
0.582422 0.077760 0.000000
0.655451 0.092348 0.000000
0.726192 0.106508 0.000000
0.792905 0.119173 0.000000
0.858640 0.124086 0.000000
0.923247 0.122347 0.000000
0.986603 0.117617 0.000000
1.000000 0.108858 0.000000
0.000000 0.067231 0.072358
0.065797 0.066468 0.069062
0.139467 0.072023 0.069398
0.213657 0.077150 0.067597
0.287266 0.082460 0.061402
0.360693 0.087007 0.049592
0.434211 0.092836 0.030518
0.507866 0.101717 0.009125
0.580987 0.111818 0.000000
0.654353 0.122713 0.000000
0.725185 0.133669 0.000000
0.792172 0.143038 0.000000
0.858152 0.149294 0.000000
0.922881 0.147433 0.000000
0.986419 0.142061 0.000000
1.000000 0.134463 0.000000
0.002411 0.125368 0.079194
0.068940 0.125582 0.076295
0.135470 0.125643 0.071382
0.209934 0.131228 0.069520
0.283665 0.135256 0.063294
0.357305 0.139254 0.051148
0.431281 0.143343 0.031861
0.505119 0.149813 0.010376
0.578973 0.156588 0.000000
0.652399 0.164584 0.000000
0.723445 0.172305 0.000000
0.790921 0.179080 0.000000
0.857267 0.185153 0.000000
0.922362 0.184482 0.000000
0.985992 0.179568 0.000000
1.000000 0.172366 0.000000
0.000000 0.185916 0.085786
0.069429 0.185824 0.083619
0.136202 0.185824 0.079835
0.203555 0.185946 0.072480
0.278996 0.191684 0.065431
0.352880 0.195468 0.052888
0.427222 0.199374 0.033082
0.501640 0.204074 0.012055
0.575769 0.209659 0.000000
0.649622 0.215793 0.000000
0.720729 0.221073 0.000000
0.788846 0.225681 0.000000
0.855833 0.229221 0.000000
0.921447 0.231662 0.000000
0.985412 0.226627 0.000000
1.000000 0.220188 0.000000
0.000000 0.246921 0.092164
0.065980 0.246921 0.090852
0.136110 0.246738 0.086580
0.204196 0.246860 0.079866
0.271702 0.246830 0.070008
0.348028 0.252934 0.055573
0.422431 0.256992 0.037201
0.497322 0.261540 0.014038
0.571679 0.266331 0.000000
0.646082 0.271061 0.000000
0.717311 0.275029 0.000000
0.786160 0.277806 0.000000
0.853849 0.279973 0.000000
0.920134 0.281407 0.000000
0.984680 0.279271 0.000000
1.000000 0.272831 0.000000
0.000000 0.308293 0.099275
0.061402 0.308324 0.096895
0.133883 0.308385 0.093782
0.203372 0.308415 0.087037
0.271977 0.308385 0.076905
0.340246 0.308507 0.062684
0.417731 0.315221 0.042390
0.492592 0.319799 0.018219
0.567163 0.324285 0.000000
0.641688 0.328771 0.000000
0.713283 0.331487 0.000000
0.783047 0.333410 0.000000
0.851499 0.334264 0.000000
0.918425 0.334539 0.000000
0.983764 0.334173 0.000000
1.000000 0.328496 0.000000
0.000000 0.370672 0.107515
0.053834 0.370733 0.105226
0.130983 0.370764 0.101442
0.202182 0.370916 0.095827
0.271794 0.370886 0.086580
0.340856 0.370977 0.073213
0.409735 0.371191 0.052399
0.487404 0.378576 0.024537
0.562341 0.383246 0.000000
0.636835 0.387243 0.000000
0.708858 0.389654 0.000000
0.779538 0.390814 0.000000
0.848875 0.390906 0.000000
0.916533 0.390295 0.000000
0.982513 0.388952 0.000000
1.000000 0.385443 0.000000
0.000000 0.433631 0.117708
0.048096 0.433692 0.115846
0.127626 0.433722 0.112581
0.200961 0.433814 0.106783
0.271305 0.433845 0.098238
0.340642 0.433967 0.086305
0.409766 0.434150 0.067781
0.478737 0.434363 0.039796
0.557122 0.442298 0.000000
0.631647 0.446082 0.000000
0.704402 0.448310 0.000000
0.775875 0.449378 0.000000
0.846006 0.449012 0.000000
0.914397 0.447822 0.000000
0.981018 0.445808 0.000000
1.000000 0.443183 0.000000
0.000000 0.496803 0.127016
0.038727 0.496895 0.125399
0.124086 0.496895 0.122957
0.198703 0.496956 0.117342
0.270237 0.497047 0.109895
0.340276 0.497169 0.098238
0.409552 0.497353 0.082734
0.478798 0.497658 0.058839
0.548150 0.498054 0.018494
0.626398 0.505272 0.000000
0.699947 0.507591 0.000000
0.772305 0.508415 0.000000
0.843107 0.507988 0.000000
0.912230 0.506462 0.000000
0.979461 0.504082 0.000000
1.000000 0.500847 0.000000
0.000000 0.562646 0.135286
0.016449 0.562676 0.134035
0.116793 0.562737 0.130770
0.194949 0.562890 0.125917
0.269017 0.562982 0.118898
0.340154 0.563165 0.107820
0.410315 0.563470 0.093019
0.480598 0.563806 0.070741
0.550958 0.563989 0.033112
0.621393 0.564324 0.000000
0.695888 0.567224 0.000000
0.768856 0.568048 0.000000
0.840299 0.567651 0.000000
0.910033 0.566003 0.000000
0.977905 0.563409 0.000000
1.000000 0.559808 0.000000
0.000000 0.629603 0.142672
0.000000 0.629572 0.140810
0.104738 0.629694 0.137850
0.189273 0.629755 0.132784
0.265629 0.629755 0.126131
0.339086 0.629877 0.114931
0.410559 0.629938 0.100679
0.481422 0.630060 0.079774
0.552453 0.630121 0.045289
0.623865 0.630182 0.000000
0.695613 0.630091 0.000000
0.766049 0.628534 0.000000
0.837705 0.627832 0.000000
0.907988 0.626215 0.000000
0.976440 0.623560 0.000000
1.000000 0.619806 0.000000
0.000000 0.696162 0.149111
0.000000 0.696162 0.147982
0.088899 0.696162 0.144930
0.181674 0.696162 0.139925
0.260533 0.696254 0.132540
0.336217 0.696254 0.121675
0.408942 0.696284 0.106874
0.481178 0.696223 0.085573
0.553124 0.696162 0.051179
0.625330 0.696010 0.000000
0.698054 0.695674 0.000000
0.770932 0.695277 0.000000
0.836973 0.689754 0.000000
0.906035 0.687037 0.000000
0.974945 0.684565 0.000000
1.000000 0.680720 0.000000
0.000000 0.762753 0.155917
0.000000 0.762753 0.154025
0.065003 0.762753 0.151247
0.171115 0.762722 0.145937
0.254276 0.762783 0.137819
0.331823 0.762783 0.126741
0.406989 0.762753 0.109987
0.480262 0.762661 0.087007
0.553277 0.762478 0.047913
0.626368 0.762295 0.000000
0.699916 0.761898 0.000000
0.773404 0.761440 0.000000
0.846677 0.760861 0.000000
0.908019 0.751522 0.000000
0.973724 0.746334 0.000000
1.000000 0.742519 0.000000
0.000000 0.830198 0.160983
0.000000 0.830198 0.159182
0.022766 0.830198 0.155917
0.156741 0.830167 0.149630
0.245762 0.830167 0.141146
0.326360 0.830106 0.128359
0.403418 0.830106 0.109346
0.478645 0.829984 0.081361
0.553002 0.829801 0.030701
0.627222 0.829526 0.000000
0.701381 0.829129 0.000000
0.775479 0.828672 0.000000
0.849119 0.828122 0.000000
0.922118 0.827573 0.000000
0.978973 0.814206 0.000000
1.000000 0.805295 0.000000
0.000000 0.898772 0.163455
0.000000 0.898802 0.161074
0.000000 0.898802 0.157107
0.136416 0.898772 0.149813
0.234775 0.898772 0.139345
0.318914 0.898741 0.123384
0.398535 0.898711 0.098695
0.475929 0.898589 0.058320
0.551537 0.898405 0.000000
0.626673 0.898192 0.000000
0.701595 0.897826 0.000000
0.776242 0.897429 0.000000
0.850523 0.896910 0.000000
0.924193 0.896422 0.000000
0.997589 0.895781 0.000000
1.000000 0.877348 0.000000
0.000000 0.969360 0.158175
0.000000 0.969390 0.155581
0.000000 0.969390 0.149142
0.099214 0.969421 0.140230
0.215122 0.969451 0.123415
0.306188 0.969451 0.098909
0.389075 0.969451 0.053315
0.468788 0.969390 0.000000
0.546105 0.969329 0.000000
0.622614 0.969146 0.000000
0.698482 0.968994 0.000000
0.774136 0.968719 0.000000
0.849546 0.968383 0.000000
0.924834 0.968017 0.000000
1.000000 0.967529 0.000000
1.000000 0.966857 0.000000
0.000000 0.032898 0.145632
0.062043 0.030610 0.142611
0.135805 0.026734 0.137118
0.213657 0.024781 0.135256
0.285771 0.027131 0.128115
0.355474 0.032074 0.119753
0.425757 0.052888 0.116426
0.498238 0.070375 0.110689
0.572869 0.080049 0.097932
0.647059 0.091707 0.080293
0.719387 0.103120 0.055177
0.787655 0.114382 0.016449
0.854948 0.122744 0.000000
0.920897 0.129915 0.000000
0.985534 0.134890 0.000000
1.000000 0.128664 0.000000
0.000000 0.082155 0.142550
0.059388 0.079866 0.139437
0.132418 0.078859 0.135286
0.207279 0.081880 0.134035
0.279606 0.084840 0.129824
0.350225 0.092164 0.126528
0.423041 0.098726 0.120394
0.497383 0.105226 0.111238
0.571801 0.113405 0.097993
0.646235 0.121614 0.080171
0.718593 0.130892 0.055329
0.787045 0.139101 0.016938
0.854490 0.146029 0.000000
0.920531 0.151888 0.000000
0.985321 0.155612 0.000000
1.000000 0.150881 0.000000
0.000000 0.132570 0.140414
0.059052 0.131960 0.138613
0.132174 0.133303 0.137575
0.203372 0.135317 0.135744
0.274784 0.138949 0.133730
0.347448 0.142641 0.128817
0.421118 0.146273 0.121004
0.495796 0.151247 0.111666
0.570459 0.157198 0.098878
0.644892 0.163821 0.080598
0.717098 0.170840 0.054810
0.785946 0.176608 0.015106
0.853605 0.181460 0.000000
0.919982 0.185153 0.000000
0.984894 0.187411 0.000000
1.000000 0.184390 0.000000
0.000000 0.188754 0.144656
0.063996 0.189212 0.143893
0.131960 0.190005 0.142000
0.199710 0.189548 0.137179
0.272129 0.193088 0.134646
0.344671 0.196567 0.129641
0.418769 0.199863 0.121553
0.493507 0.204593 0.112398
0.568200 0.209598 0.099336
0.642725 0.214725 0.081392
0.714992 0.219821 0.056031
0.784146 0.223972 0.015381
0.852323 0.227024 0.000000
0.919036 0.229007 0.000000
0.984283 0.230045 0.000000
1.000000 0.228428 0.000000
0.000000 0.248722 0.151369
0.063172 0.248966 0.149172
0.132265 0.248844 0.146883
0.200534 0.248631 0.142367
0.267735 0.248508 0.136294
0.341558 0.252750 0.130373
0.415595 0.256748 0.123049
0.490303 0.261234 0.113588
0.565209 0.265721 0.100679
0.639887 0.270634 0.081788
0.712032 0.274327 0.056855
0.781918 0.277043 0.014893
0.850523 0.278660 0.000000
0.917754 0.279301 0.000000
0.983398 0.279210 0.000000
1.000000 0.278325 0.000000
0.000000 0.309087 0.155673
0.057923 0.309056 0.154299
0.130587 0.308995 0.151461
0.200259 0.308965 0.147982
0.268467 0.308873 0.141329
0.336309 0.308812 0.132784
0.411933 0.314672 0.124575
0.486671 0.319341 0.114809
0.561669 0.323705 0.102174
0.636286 0.328130 0.084199
0.708583 0.331060 0.058778
0.779080 0.332952 0.016571
0.848325 0.333867 0.000000
0.916167 0.333684 0.000000
0.982269 0.332555 0.000000
1.000000 0.330388 0.000000
0.000000 0.370825 0.161685
0.052918 0.370855 0.160464
0.128237 0.370886 0.157717
0.200229 0.370855 0.153719
0.268925 0.370886 0.147921
0.337438 0.370886 0.139742
0.405921 0.371130 0.128389
0.482612 0.377905 0.117189
0.557458 0.382544 0.104128
0.632166 0.386572 0.085817
0.704616 0.389258 0.061128
0.776028 0.390570 0.017914
0.845914 0.390875 0.000000
0.914275 0.390082 0.000000
0.980957 0.388190 0.000000
1.000000 0.385473 0.000000
0.000000 0.433570 0.168582
0.047852 0.433509 0.166903
0.126467 0.433570 0.164950
0.198672 0.433753 0.160922
0.269108 0.433783 0.155459
0.338079 0.433783 0.147860
0.406928 0.433845 0.136873
0.475471 0.434089 0.122683
0.553094 0.441444 0.106203
0.627558 0.445472 0.088685
0.700801 0.448035 0.063478
0.772793 0.449165 0.019654
0.843351 0.449165 0.000000
0.912322 0.447913 0.000000
0.979522 0.445716 0.000000
1.000000 0.442512 0.000000
0.000000 0.496712 0.175051
0.036561 0.496620 0.174136
0.123232 0.496620 0.171725
0.197024 0.496742 0.168154
0.268559 0.496803 0.162936
0.338415 0.496925 0.154971
0.407416 0.497078 0.145022
0.476234 0.497322 0.131838
0.545373 0.497658 0.114137
0.622980 0.504631 0.091737
0.696773 0.507286 0.066529
0.769436 0.508415 0.022217
0.840665 0.508141 0.000000
0.910246 0.506798 0.000000
0.977935 0.504356 0.000000
1.000000 0.500725 0.000000
0.000000 0.562371 0.180941
0.014527 0.562402 0.179873
0.114931 0.562463 0.177523
0.193637 0.562585 0.174289
0.267002 0.562829 0.168826
0.338506 0.562951 0.161593
0.408698 0.563256 0.151064
0.478645 0.563500 0.138186
0.548455 0.563775 0.120882
0.618952 0.564019 0.096284
0.693080 0.566888 0.068818
0.766384 0.567987 0.022827
0.838071 0.567742 0.000000
0.908202 0.566308 0.000000
0.976501 0.563836 0.000000
1.000000 0.560021 0.000000
0.000000 0.629358 0.186252
0.000000 0.629297 0.185367
0.103334 0.629358 0.183017
0.187991 0.629511 0.178988
0.264073 0.629541 0.173892
0.337530 0.629664 0.166384
0.408698 0.629755 0.156619
0.479530 0.629847 0.143618
0.550622 0.629908 0.125582
0.621820 0.629938 0.100954
0.693599 0.629755 0.062837
0.763760 0.628290 0.018311
0.835721 0.627893 0.000000
0.906371 0.626490 0.000000
0.975158 0.624018 0.000000
1.000000 0.620203 0.000000
0.000000 0.695949 0.191501
0.000000 0.695979 0.190372
0.087495 0.695979 0.188296
0.180117 0.695949 0.184298
0.259678 0.695979 0.179232
0.334661 0.696010 0.171206
0.407935 0.696040 0.160983
0.479835 0.696040 0.146822
0.551507 0.695979 0.128237
0.623682 0.695827 0.101747
0.696254 0.695491 0.061769
0.769131 0.695094 0.000000
0.835142 0.689631 0.000000
0.904631 0.687343 0.000000
0.973877 0.684932 0.000000
1.000000 0.681117 0.000000
0.000000 0.762539 0.197238
0.000000 0.762570 0.195773
0.064912 0.762539 0.193515
0.170138 0.762539 0.189425
0.253117 0.762539 0.183749
0.330785 0.762570 0.175143
0.405921 0.762570 0.163333
0.479042 0.762509 0.148440
0.551965 0.762325 0.127779
0.625177 0.762112 0.097780
0.698482 0.761746 0.046937
0.771847 0.761318 0.000000
0.845121 0.760769 0.000000
0.906615 0.751492 0.000000
0.972717 0.746731 0.000000
1.000000 0.742916 0.000000
0.000000 0.829984 0.201968
0.000000 0.829953 0.200565
0.025818 0.829953 0.198154
0.156741 0.829984 0.193210
0.245640 0.829984 0.186313
0.325902 0.829953 0.177066
0.402747 0.829923 0.163729
0.477852 0.829801 0.146029
0.552026 0.829679 0.120668
0.626032 0.829404 0.082765
0.700221 0.829038 0.005982
0.774197 0.828611 0.000000
0.847807 0.828061 0.000000
0.920836 0.827543 0.000000
0.977783 0.814298 0.000000
1.000000 0.805692 0.000000
0.000000 0.898589 0.204776
0.000000 0.898589 0.203372
0.000000 0.898619 0.199802
0.138796 0.898619 0.194461
0.235203 0.898650 0.186282
0.318853 0.898619 0.174655
0.398138 0.898589 0.157870
0.475471 0.898497 0.134432
0.550774 0.898344 0.099306
0.625757 0.898100 0.033631
0.700557 0.897826 0.000000
0.775113 0.897398 0.000000
0.849332 0.896941 0.000000
0.923003 0.896452 0.000000
0.996582 0.895872 0.000000
1.000000 0.877470 0.000000
0.000000 0.969238 0.202701
0.000000 0.969238 0.200748
0.000000 0.969268 0.195865
0.103792 0.969299 0.188571
0.217533 0.969329 0.177615
0.306828 0.969360 0.160067
0.389136 0.969360 0.135256
0.468330 0.969360 0.094514
0.545647 0.969299 0.008576
0.621729 0.969177 0.000000
0.697475 0.969024 0.000000
0.773007 0.968780 0.000000
0.848356 0.968475 0.000000
0.923705 0.968139 0.000000
0.999573 0.967681 0.000000
1.000000 0.967041 0.000000
0.000000 0.047456 0.215030
0.028199 0.045502 0.212924
0.125429 0.042512 0.208469
0.201968 0.042390 0.202090
0.278202 0.044404 0.199435
0.350286 0.048463 0.193545
0.421515 0.054017 0.187167
0.492927 0.063172 0.180545
0.565362 0.082277 0.176272
0.637964 0.100282 0.172335
0.710719 0.111849 0.162234
0.780301 0.120882 0.147707
0.848966 0.127413 0.127993
0.916442 0.131868 0.099306
0.982361 0.133242 0.049256
1.000000 0.131136 0.000000
0.000000 0.097749 0.210605
0.033967 0.093446 0.208286
0.124514 0.092836 0.205112
0.198672 0.092592 0.200046
0.273320 0.094331 0.198215
0.345647 0.097169 0.194156
0.417884 0.100191 0.188540
0.490181 0.107851 0.183444
0.563226 0.119814 0.179934
0.636835 0.130495 0.173678
0.710018 0.137484 0.162173
0.779843 0.145052 0.147616
0.848600 0.150484 0.128267
0.916075 0.153780 0.099275
0.982177 0.154116 0.049042
1.000000 0.152285 0.000000
0.000000 0.145235 0.207767
0.045899 0.144594 0.205844
0.125338 0.143923 0.203586
0.197086 0.143069 0.199832
0.269261 0.145357 0.198520
0.341344 0.148013 0.195712
0.413397 0.151858 0.191562
0.486427 0.159030 0.188907
0.560967 0.164370 0.182437
0.635859 0.169558 0.173953
0.708858 0.175540 0.162417
0.778958 0.180850 0.147982
0.847776 0.184970 0.128542
0.915557 0.187045 0.099031
0.981781 0.187137 0.048280
1.000000 0.184421 0.000000
0.000000 0.196445 0.206149
0.044190 0.195956 0.204959
0.123842 0.196414 0.203586
0.198764 0.199985 0.204623
0.267552 0.199771 0.200626
0.338109 0.201877 0.197543
0.410346 0.205264 0.193973
0.484627 0.209598 0.189395
0.559411 0.213931 0.182803
0.634211 0.218936 0.173770
0.707088 0.223331 0.162997
0.777462 0.227390 0.148470
0.846799 0.229862 0.128511
0.914702 0.230961 0.099397
0.981170 0.230350 0.045899
1.000000 0.227420 0.000000
0.000000 0.252201 0.208377
0.049866 0.252384 0.207980
0.126223 0.253300 0.207309
0.197177 0.254490 0.205936
0.264561 0.253788 0.201297
0.335546 0.256107 0.198123
0.408331 0.259525 0.194522
0.482521 0.263798 0.190066
0.557214 0.268223 0.183261
0.632013 0.272679 0.174563
0.704707 0.276555 0.163394
0.775540 0.279606 0.148592
0.845243 0.281071 0.128969
0.913512 0.281407 0.099214
0.980285 0.280186 0.044770
1.000000 0.276829 0.000000
0.000000 0.311620 0.213840
0.053559 0.311681 0.213504
0.126345 0.312230 0.211917
0.196628 0.312200 0.209628
0.264652 0.311864 0.205264
0.332189 0.311559 0.199008
0.405890 0.316075 0.195132
0.479957 0.320500 0.190311
0.554284 0.324895 0.184146
0.629206 0.329320 0.175265
0.701869 0.332586 0.164279
0.773251 0.334844 0.149599
0.843381 0.335790 0.129305
0.912108 0.335546 0.098909
0.979248 0.333776 0.041382
1.000000 0.330358 0.000000
0.000000 0.372503 0.219669
0.045930 0.372595 0.218509
0.126314 0.372442 0.217319
0.196719 0.372534 0.214206
0.265599 0.372503 0.210269
0.333501 0.372412 0.204471
0.401556 0.372442 0.197299
0.476722 0.378149 0.191440
0.551019 0.382757 0.185183
0.625788 0.387030 0.176181
0.698665 0.390051 0.165133
0.770687 0.391852 0.150393
0.841367 0.392370 0.129976
