luts/Blackwood ● 16.cube
# Created by Adobe Lightroom plugin Export LUT (1.16.0)
# www.johnrellis.com/lightroom/exportlut.htm
# Preset: Blackwood ●
# Color profile: C:\Program Files (x86)\Common Files\Adobe\Color\Profiles\Recommended\sRGB Color Space Profile.icm
LUT_3D_SIZE 16
DOMAIN_MIN 0.0 0.0 0.0
DOMAIN_MAX 1.0 1.0 1.0
0.018952 0.019837 0.019745
0.086244 0.033967 0.026581
0.161868 0.058564 0.038025
0.233585 0.081392 0.046052
0.304784 0.102083 0.052888
0.380713 0.123476 0.058869
0.457588 0.146090 0.065095
0.537407 0.172580 0.073030
0.611048 0.203281 0.082460
0.682155 0.236484 0.092988
0.751156 0.269902 0.105898
0.819089 0.300298 0.123354
0.886076 0.328954 0.145510
0.948486 0.358923 0.174197
1.000000 0.391272 0.210086
1.000000 0.425574 0.251164
0.022705 0.071321 0.039826
0.088563 0.076967 0.040986
0.153323 0.090181 0.044312
0.223667 0.106477 0.046784
0.295567 0.123201 0.051911
0.371283 0.141573 0.057893
0.451942 0.162509 0.064637
0.531914 0.187533 0.072755
0.605402 0.215396 0.081239
0.677455 0.246891 0.092073
0.747036 0.278569 0.105592
0.815152 0.307805 0.122652
0.882322 0.335271 0.144289
0.945464 0.364385 0.173190
0.997925 0.396002 0.209354
1.000000 0.430365 0.251621
0.022309 0.117678 0.062074
0.081270 0.118441 0.061860
0.149203 0.126619 0.061982
0.215763 0.137392 0.062715
0.285374 0.150546 0.063874
0.362646 0.167788 0.064698
0.442298 0.187381 0.066712
0.521721 0.209201 0.071443
0.596490 0.234287 0.080385
0.669795 0.263645 0.091371
0.739803 0.293156 0.104250
0.808560 0.320653 0.121218
0.876432 0.346563 0.143526
0.941283 0.374487 0.172702
0.994751 0.405005 0.208865
1.000000 0.438880 0.252506
0.023957 0.164279 0.087190
0.074983 0.165225 0.086549
0.140047 0.165621 0.086702
0.213413 0.176822 0.087617
0.283299 0.187503 0.089662
0.353918 0.198520 0.091798
0.432258 0.215000 0.092927
0.510948 0.234653 0.094789
0.586511 0.258152 0.097322
0.658289 0.284947 0.100710
0.727169 0.312383 0.104585
0.796231 0.338201 0.118807
0.866423 0.362860 0.140993
0.932280 0.388708 0.170047
0.986755 0.416449 0.205264
1.000000 0.448157 0.248783
0.032990 0.212009 0.115053
0.080385 0.213565 0.115145
0.139498 0.215915 0.115633
0.208316 0.217288 0.116426
0.287144 0.230167 0.116854
0.361395 0.241489 0.119417
0.432715 0.251926 0.121462
0.508721 0.268376 0.123964
0.583856 0.289921 0.126040
0.656214 0.314763 0.128664
0.725826 0.340215 0.131716
0.795865 0.364935 0.138247
0.866361 0.389319 0.147982
0.932921 0.414405 0.173556
0.987549 0.441138 0.211154
1.000000 0.469795 0.254307
0.047791 0.262303 0.143771
0.089998 0.264164 0.144137
0.140841 0.266575 0.144289
0.212070 0.267338 0.144961
0.281773 0.268070 0.145846
0.363622 0.282322 0.145510
0.438117 0.294469 0.147677
0.508080 0.306432 0.150271
0.575097 0.321538 0.153079
0.646723 0.344579 0.155184
0.716701 0.368139 0.158175
0.788113 0.392004 0.163577
0.859525 0.415290 0.172671
0.925536 0.439216 0.186618
0.980560 0.464363 0.211307
1.000000 0.492042 0.256382
0.066865 0.313237 0.171908
0.104494 0.314946 0.172549
0.152590 0.316716 0.172305
0.215793 0.318151 0.172335
0.288426 0.318669 0.173220
0.358679 0.319799 0.174075
0.441901 0.337133 0.173800
0.513176 0.350713 0.175906
0.576104 0.362646 0.177859
0.638239 0.377356 0.180423
0.706111 0.398230 0.183566
0.778988 0.421637 0.189303
0.851469 0.444282 0.197971
0.918303 0.467445 0.211002
0.973602 0.491737 0.229709
1.000000 0.517693 0.259129
0.089967 0.363836 0.198672
0.122072 0.365820 0.199496
0.167178 0.368078 0.199832
0.221561 0.370123 0.199832
0.294285 0.370581 0.200320
0.365240 0.370642 0.200320
0.432563 0.371038 0.200778
0.511223 0.390387 0.199466
0.576562 0.404913 0.201694
0.637751 0.418402 0.203861
0.700679 0.434180 0.207401
0.767208 0.451789 0.213107
0.840909 0.474372 0.222019
0.908415 0.497078 0.234958
0.964324 0.520623 0.253391
1.000000 0.546410 0.278843
0.112642 0.409857 0.222599
0.139284 0.410620 0.222599
0.179904 0.412634 0.222995
0.230564 0.414984 0.223239
0.294743 0.417029 0.223545
0.366705 0.418280 0.224460
0.435554 0.420386 0.225803
0.503441 0.426337 0.226261
0.576471 0.447913 0.226413
0.642329 0.465553 0.229099
0.706477 0.481209 0.233402
0.772976 0.497139 0.240116
0.839322 0.513115 0.249454
0.904540 0.534173 0.263554
0.959991 0.558251 0.283665
1.000000 0.582818 0.309819
0.137331 0.463661 0.249241
0.160739 0.463874 0.249027
0.197024 0.465003 0.248905
0.244450 0.466957 0.248966
0.298802 0.469734 0.248936
0.370092 0.471351 0.249577
0.439124 0.474037 0.250980
0.504143 0.477577 0.252323
0.573144 0.489693 0.252567
0.643000 0.511284 0.253178
0.707729 0.526909 0.257969
0.773465 0.541314 0.264530
0.838590 0.556329 0.274327
0.899046 0.573449 0.289006
0.950805 0.593225 0.309972
0.991089 0.617304 0.337682
0.156374 0.523064 0.275822
0.177310 0.523430 0.275731
0.212222 0.524346 0.275700
0.257420 0.526207 0.275669
0.309972 0.529076 0.275547
0.372808 0.531975 0.275761
0.441749 0.534813 0.277073
0.507500 0.538537 0.278233
0.571313 0.543450 0.279911
0.643702 0.559472 0.279210
0.711330 0.576532 0.282628
0.774533 0.588312 0.289799
0.838224 0.602777 0.300755
0.896300 0.618433 0.316320
0.944549 0.635035 0.337682
0.981018 0.652766 0.365301
0.166934 0.588922 0.303899
0.187594 0.589197 0.303807
0.220890 0.589960 0.303563
0.265019 0.591394 0.303288
0.315831 0.593500 0.303258
0.369299 0.596704 0.303136
0.438697 0.598901 0.304143
0.505486 0.602014 0.305425
0.571130 0.606256 0.307134
0.636622 0.610834 0.309239
0.715419 0.629206 0.308232
0.779599 0.640650 0.315679
0.836637 0.649287 0.326787
0.891295 0.662226 0.343420
0.937682 0.677333 0.367010
0.972808 0.694728 0.399786
0.165499 0.646113 0.327367
0.186221 0.646998 0.327672
0.219608 0.649348 0.328649
0.263554 0.652338 0.329656
0.313695 0.656794 0.331151
0.367620 0.661677 0.332586
0.431250 0.667079 0.335027
0.501976 0.671809 0.338018
0.572564 0.677607 0.342199
0.643946 0.683253 0.346685
0.717159 0.689693 0.352300
0.800717 0.709957 0.356054
0.855253 0.716915 0.373114
0.898772 0.721248 0.391699
0.936065 0.729335 0.415991
0.965026 0.739376 0.445441
0.184756 0.726925 0.371130
0.197116 0.722377 0.367041
0.225040 0.721279 0.365698
0.266545 0.722591 0.366064
0.316014 0.725978 0.367864
0.369268 0.729915 0.369879
0.425513 0.734920 0.372595
0.499397 0.738552 0.376898
0.573938 0.742947 0.382574
0.648310 0.746517 0.388403
0.722011 0.750515 0.395758
0.791135 0.754177 0.403388
0.862974 0.770260 0.413886
0.901396 0.770962 0.435828
0.930724 0.771176 0.458289
0.956085 0.776791 0.488014
0.236515 0.793606 0.422583
0.241367 0.790158 0.417670
0.261692 0.788724 0.415534
0.296483 0.789151 0.415564
0.341314 0.791073 0.417700
0.392126 0.793576 0.420691
0.447547 0.796872 0.425055
0.513573 0.799374 0.430182
0.589044 0.801205 0.437354
0.662470 0.802518 0.445014
0.732662 0.804044 0.454353
0.797055 0.805753 0.464759
0.854673 0.808377 0.477577
0.906950 0.819272 0.496376
0.932006 0.818173 0.524224
0.950805 0.816709 0.548516
0.354284 0.849363 0.498207
0.352728 0.847166 0.492683
0.364141 0.846159 0.490394
0.388952 0.846159 0.491066
0.424414 0.846891 0.493843
0.467353 0.847868 0.497780
0.516350 0.849180 0.503380
0.568933 0.850523 0.510155
0.636744 0.850736 0.519860
0.702113 0.850950 0.531212
0.763058 0.851469 0.544579
0.817380 0.852323 0.559197
0.864286 0.854276 0.577203
0.903105 0.856870 0.596094
0.935607 0.865385 0.627924
0.949615 0.865843 0.664454
0.000000 0.050813 0.077058
0.086397 0.046174 0.082338
0.166659 0.060182 0.075715
0.233249 0.089021 0.077455
0.298619 0.115175 0.084993
0.372198 0.137301 0.086671
0.449714 0.160952 0.088502
0.528313 0.186740 0.091066
0.601434 0.215152 0.093507
0.672663 0.247013 0.096681
0.742550 0.279088 0.104280
0.811063 0.307958 0.121065
0.879057 0.334783 0.143252
0.942962 0.363104 0.172000
0.995972 0.393957 0.207492
1.000000 0.427405 0.249210
0.005371 0.087312 0.090028
0.086885 0.089143 0.089967
0.154299 0.100832 0.090578
0.223239 0.116457 0.091279
0.293584 0.133852 0.092714
0.368719 0.152590 0.094179
0.448219 0.174105 0.096437
0.526879 0.198001 0.098634
0.600000 0.224949 0.101106
0.671901 0.255985 0.103822
0.740963 0.287022 0.108644
0.808743 0.315160 0.121218
0.876646 0.341161 0.143008
0.940856 0.368719 0.171450
0.994141 0.398657 0.206912
1.000000 0.431922 0.249638
0.036439 0.129305 0.106294
0.087312 0.132998 0.103944
0.151949 0.137179 0.103090
0.217105 0.146487 0.104616
0.288792 0.160586 0.105928
0.365850 0.177035 0.107485
0.445197 0.195712 0.108980
0.523369 0.217014 0.111086
0.598016 0.242283 0.113008
0.669581 0.271092 0.116121
0.737545 0.299565 0.119783
0.804013 0.326513 0.125338
0.871794 0.351843 0.142031
0.937072 0.378546 0.170932
0.991272 0.407477 0.206546
1.000000 0.439765 0.249577
0.061494 0.175021 0.129091
0.089845 0.177340 0.122408
0.146426 0.177829 0.121614
0.217258 0.185550 0.121370
0.286015 0.194919 0.122866
0.358618 0.206790 0.124544
0.437140 0.222873 0.126009
0.516045 0.242191 0.127749
0.590875 0.265080 0.129824
0.661860 0.291020 0.132357
0.730159 0.317540 0.134951
0.797360 0.343023 0.140200
0.866361 0.368139 0.148989
0.931243 0.393500 0.169986
0.985779 0.420142 0.205570
1.000000 0.450324 0.247868
0.082521 0.218875 0.151125
0.093416 0.221408 0.141817
0.142916 0.222904 0.141176
0.211154 0.223178 0.141390
0.286137 0.233097 0.141329
0.358312 0.243351 0.143191
0.429389 0.254093 0.145052
0.506645 0.271000 0.147097
0.581201 0.292149 0.149294
0.653101 0.316350 0.151553
0.722744 0.341558 0.154665
0.792996 0.366278 0.159640
0.863828 0.390814 0.168429
0.929381 0.415839 0.181643
0.984222 0.442145 0.208804
1.000000 0.470832 0.252811
0.093141 0.267002 0.172580
0.100893 0.269200 0.164523
0.148653 0.270542 0.163943
0.213413 0.271458 0.164004
0.283299 0.271946 0.164370
0.362890 0.284520 0.164401
0.435645 0.295506 0.166018
0.504631 0.307134 0.168215
0.572686 0.322881 0.170657
0.643763 0.345464 0.173098
0.714046 0.369177 0.175601
0.785763 0.393133 0.180972
0.857176 0.416175 0.189090
0.923156 0.439979 0.201602
0.977935 0.465003 0.219150
1.000000 0.492378 0.254490
0.102968 0.317388 0.194919
0.114168 0.319463 0.188846
0.159762 0.320592 0.188540
0.217441 0.321935 0.188266
0.289708 0.322057 0.188571
0.359747 0.322576 0.189029
0.440253 0.338018 0.188540
0.510033 0.350591 0.190341
0.573358 0.362860 0.192172
0.635554 0.377508 0.194461
0.703914 0.398810 0.197665
0.776150 0.422034 0.202640
0.848569 0.444465 0.210605
0.915404 0.467597 0.223148
0.971069 0.491829 0.240452
1.000000 0.517998 0.264561
0.116701 0.366552 0.217044
0.129335 0.368536 0.212650
0.172122 0.369696 0.212406
0.224918 0.371283 0.212192
0.293645 0.371771 0.211856
0.364721 0.371923 0.212284
0.432441 0.372717 0.212894
0.509941 0.391150 0.211856
0.574578 0.405127 0.213413
0.635492 0.418494 0.215824
0.698146 0.433997 0.218936
0.765164 0.452125 0.224430
0.838865 0.474769 0.232944
0.906279 0.497383 0.245396
0.961822 0.520256 0.261936
1.000000 0.545068 0.285008
0.132204 0.414130 0.237888
0.146639 0.415137 0.234836
0.185550 0.416297 0.234592
0.235447 0.418006 0.234592
0.295506 0.419928 0.234714
0.367529 0.420935 0.235538
0.436469 0.422705 0.236301
0.503319 0.427863 0.237278
0.575921 0.449104 0.236973
0.641169 0.466041 0.239658
0.704860 0.481514 0.243748
0.771206 0.497292 0.249943
0.837339 0.513268 0.259159
0.903441 0.535027 0.272892
0.959289 0.559564 0.292790
1.000000 0.584833 0.318975
0.149996 0.466712 0.260929
0.166262 0.467231 0.259159
0.201907 0.468116 0.259037
0.248569 0.469764 0.258976
0.302312 0.472450 0.258701
0.370977 0.474220 0.259525
0.439704 0.476295 0.260441
0.504417 0.479561 0.261631
0.572229 0.490425 0.261692
0.641901 0.511650 0.262211
0.705928 0.526787 0.266789
0.771664 0.541222 0.273106
0.837034 0.556542 0.282841
0.897887 0.573907 0.297246
0.950225 0.594446 0.317937
0.990570 0.619135 0.345678
0.162448 0.525872 0.285466
0.181796 0.526543 0.284916
0.215915 0.527459 0.284886
0.260533 0.528985 0.284489
0.312322 0.531579 0.284489
0.372564 0.534325 0.284398
0.441474 0.536553 0.285069
0.507164 0.539879 0.286473
0.570916 0.544488 0.287907
0.642420 0.559655 0.287205
0.710018 0.576562 0.290349
0.772946 0.588159 0.297337
0.836118 0.602258 0.307378
0.894438 0.617853 0.322637
0.943175 0.634913 0.343633
0.980133 0.653407 0.371252
0.169497 0.590692 0.311559
0.190768 0.591028 0.311650
0.223056 0.591485 0.311162
0.266728 0.592706 0.310979
0.316777 0.594873 0.310735
0.370336 0.598077 0.310552
0.437903 0.600519 0.311467
0.504936 0.603388 0.312627
0.570336 0.607050 0.314366
0.635645 0.611139 0.315984
0.713252 0.628290 0.314916
0.777371 0.639582 0.321355
0.833982 0.647791 0.331762
0.888823 0.660639 0.347539
0.935546 0.675654 0.370245
0.971283 0.693294 0.401862
0.168673 0.649775 0.335607
0.188937 0.650507 0.335821
0.221866 0.652430 0.336461
0.265141 0.655055 0.337377
0.315099 0.658869 0.338567
0.368719 0.663569 0.340002
0.430610 0.669184 0.342138
0.501640 0.673671 0.345190
0.572412 0.679103 0.349187
0.643702 0.684474 0.353460
0.716793 0.690486 0.358923
0.799649 0.710170 0.362615
0.854612 0.717464 0.379248
0.898070 0.721736 0.397742
0.935515 0.730251 0.422217
0.964538 0.740719 0.451850
0.187137 0.729061 0.378332
0.199649 0.724910 0.374670
0.227512 0.723812 0.373175
0.268589 0.725032 0.373449
0.317723 0.728145 0.375036
0.370916 0.731777 0.377050
0.426764 0.736446 0.379461
0.499001 0.739956 0.383307
0.573541 0.743923 0.388861
0.647944 0.747219 0.394293
0.721340 0.750973 0.401251
0.790463 0.754635 0.408972
0.862455 0.770626 0.419440
0.900908 0.771481 0.441352
0.930266 0.771908 0.463844
0.955596 0.777920 0.493904
0.240024 0.794736 0.428962
0.245151 0.791562 0.424201
0.265354 0.790311 0.422339
0.299779 0.790799 0.422614
0.344213 0.792569 0.424598
0.394690 0.794919 0.427314
0.449744 0.798001 0.431617
0.514000 0.800351 0.436255
0.589014 0.801846 0.442878
0.662135 0.802976 0.450111
0.732204 0.804410 0.459144
0.796567 0.806027 0.469337
0.854063 0.808621 0.482124
0.906401 0.819516 0.500633
0.931518 0.818570 0.528466
0.950378 0.817288 0.552941
0.356909 0.849882 0.503319
0.355871 0.847807 0.498177
0.367285 0.846830 0.495979
0.391913 0.846860 0.496620
0.427222 0.847593 0.499336
0.469947 0.848569 0.503380
0.518639 0.849821 0.508843
0.570703 0.851041 0.515373
0.637110 0.851194 0.524620
0.702144 0.851286 0.535576
0.762722 0.851713 0.548333
0.816861 0.852476 0.562524
0.863645 0.854246 0.579767
0.902434 0.856779 0.598199
0.935149 0.865293 0.629541
0.949218 0.865843 0.665888
0.000000 0.090974 0.137423
0.031281 0.075807 0.140627
0.149722 0.071809 0.139040
0.236698 0.082155 0.127718
0.304509 0.117067 0.130007
0.374182 0.142977 0.132662
0.449928 0.169406 0.139132
0.526879 0.195865 0.144167
0.600275 0.223301 0.145876
0.672145 0.254459 0.148562
0.741299 0.285771 0.151614
0.808408 0.314824 0.157046
0.874907 0.342138 0.163973
0.938415 0.370550 0.175326
0.992767 0.400092 0.206363
1.000000 0.432227 0.248875
0.000000 0.114992 0.141634
0.055940 0.115236 0.141146
0.148745 0.108522 0.142641
0.226352 0.119753 0.136324
0.294408 0.142580 0.140139
0.368841 0.163088 0.143465
0.447211 0.184329 0.146944
0.525597 0.206821 0.148653
0.599725 0.233188 0.150149
0.671778 0.263218 0.153170
0.740627 0.293248 0.155978
0.807431 0.321263 0.161044
0.873747 0.347753 0.167910
0.937102 0.375463 0.179355
0.991058 0.404456 0.205844
1.000000 0.436500 0.249088
0.000427 0.146273 0.149172
0.076295 0.146975 0.149294
0.149905 0.149203 0.150057
0.217197 0.159091 0.150698
0.289311 0.172183 0.151919
0.366491 0.187503 0.153445
0.445502 0.204990 0.154818
0.523522 0.225101 0.156374
0.598627 0.250004 0.158450
0.669886 0.277836 0.160739
0.737423 0.305638 0.163333
0.803861 0.331975 0.167453
0.870787 0.357671 0.174350
0.934295 0.384466 0.185580
0.988312 0.412634 0.205600
1.000000 0.443946 0.249180
0.050355 0.183444 0.161837
0.099763 0.185946 0.163546
0.151217 0.190616 0.162142
0.218204 0.194644 0.161685
0.285557 0.203098 0.162966
0.360845 0.215915 0.164248
0.439094 0.231357 0.165438
0.518242 0.250004 0.167514
0.592096 0.272160 0.169009
0.662867 0.297337 0.171237
0.730709 0.323064 0.173861
0.797818 0.347936 0.177951
0.866728 0.373144 0.184756
0.930144 0.398444 0.195346
0.983154 0.424689 0.210025
1.000000 0.453773 0.246921
0.083436 0.225986 0.180728
0.118196 0.228458 0.181704
0.153872 0.232517 0.176242
0.215000 0.233738 0.175662
0.288396 0.240513 0.175631
0.358495 0.249638 0.176974
0.430884 0.260716 0.178653
0.508629 0.277928 0.180301
0.582696 0.298375 0.182254
0.654047 0.321935 0.184665
0.723507 0.346532 0.187503
0.793790 0.371130 0.192538
0.864591 0.395453 0.200168
0.929412 0.420539 0.211368
0.983246 0.446784 0.227604
1.000000 0.474159 0.252262
0.107973 0.272892 0.202518
0.138094 0.275425 0.203372
0.159701 0.279057 0.194156
0.217014 0.280522 0.193820
0.288029 0.280583 0.193942
0.365240 0.290745 0.193484
0.436347 0.300664 0.194858
0.505303 0.311986 0.196719
0.574823 0.328832 0.198886
0.645411 0.350774 0.201144
0.715480 0.374151 0.204166
0.786831 0.397620 0.209049
0.858030 0.420600 0.216556
0.923339 0.444404 0.228000
0.977600 0.469520 0.243626
1.000000 0.496254 0.265324
0.136721 0.322240 0.226688
0.162356 0.324895 0.227207
0.170016 0.327764 0.214206
0.223178 0.329320 0.213748
0.293217 0.329656 0.213657
0.363958 0.330022 0.213840
0.442786 0.343359 0.213291
0.510948 0.355016 0.215122
0.573846 0.366888 0.216495
0.635737 0.381201 0.218570
0.705531 0.403479 0.221744
0.777523 0.426276 0.227054
0.849546 0.448554 0.234684
0.915709 0.471565 0.246311
0.970764 0.495918 0.262333
1.000000 0.522484 0.284794
0.168276 0.370794 0.250706
0.172061 0.373297 0.244938
0.181369 0.375921 0.234531
0.232883 0.377508 0.234134
0.296666 0.378454 0.233982
0.368200 0.378454 0.234165
0.435950 0.378973 0.234195
0.511467 0.395850 0.233310
0.575158 0.408972 0.234775
0.636011 0.422187 0.236728
0.698573 0.437415 0.239963
0.766751 0.456245 0.245121
0.839811 0.478553 0.253452
0.906584 0.501091 0.265385
0.961334 0.523827 0.280919
1.000000 0.548730 0.302647
0.181613 0.418189 0.268528
0.182834 0.419562 0.262516
0.194369 0.421851 0.254154
0.243107 0.423438 0.254093
0.297734 0.425910 0.253880
0.370031 0.426764 0.254490
0.439185 0.428534 0.255741
0.504295 0.432013 0.256474
0.577081 0.453223 0.256046
0.641657 0.469581 0.258671
0.705287 0.484657 0.262669
0.771389 0.500175 0.268833
0.837217 0.516045 0.277012
0.903777 0.538750 0.290806
0.958984 0.563409 0.310185
0.999176 0.588861 0.335332
0.195468 0.470344 0.288884
0.196201 0.471382 0.283055
0.209781 0.473182 0.276585
0.255436 0.475013 0.276555
0.308232 0.477546 0.276341
0.372656 0.479805 0.276799
0.441566 0.481697 0.277592
0.506249 0.484932 0.278843
0.573114 0.494270 0.278996
0.642939 0.515404 0.279667
0.706386 0.529747 0.283604
0.771908 0.544030 0.290043
0.837003 0.559258 0.299290
0.897520 0.576623 0.313054
0.949889 0.597894 0.333196
0.989715 0.622736 0.360327
0.204166 0.529229 0.310918
0.205325 0.530602 0.305730
0.221500 0.532189 0.300633
0.265599 0.533867 0.300298
0.317082 0.536187 0.300114
0.372747 0.539391 0.299992
0.442084 0.541558 0.300694
0.508110 0.544823 0.301976
0.572137 0.549126 0.303380
0.642756 0.562768 0.303044
0.710597 0.579461 0.305821
0.773007 0.590631 0.312352
0.835996 0.604608 0.322362
0.894011 0.620325 0.336889
0.942473 0.637446 0.357214
0.979126 0.656001 0.384100
0.206760 0.593378 0.334447
0.207401 0.594415 0.329229
0.226871 0.595331 0.325322
0.269841 0.596582 0.325048
0.319829 0.598779 0.324926
0.372717 0.601923 0.324834
0.437476 0.604730 0.325475
0.504906 0.607446 0.326726
0.570794 0.610864 0.328099
0.636133 0.614740 0.329747
0.713130 0.630610 0.328801
0.777584 0.641932 0.335058
0.833707 0.649836 0.345037
0.888365 0.662715 0.360388
0.934691 0.677638 0.382147
0.970153 0.695308 0.413153
0.199222 0.652583 0.355413
0.200961 0.653803 0.351354
0.224247 0.655879 0.349523
0.267399 0.658350 0.350195
0.317021 0.662226 0.351446
0.370397 0.666804 0.352758
0.429236 0.672511 0.354894
0.500969 0.676875 0.358099
0.572107 0.682216 0.361944
0.643946 0.687404 0.366308
0.717159 0.693324 0.371649
0.799374 0.711971 0.375677
0.854459 0.719356 0.391943
0.897429 0.723568 0.409979
0.934630 0.732174 0.433967
0.963500 0.742733 0.462684
0.210697 0.730648 0.395270
0.206455 0.727138 0.387030
0.230625 0.726345 0.385046
0.270939 0.727504 0.385382
0.319829 0.730465 0.386847
0.372747 0.734005 0.388647
0.428656 0.738521 0.391272
0.498451 0.742275 0.395087
0.573327 0.746151 0.400458
0.647974 0.749264 0.405951
0.721431 0.752865 0.412818
0.790341 0.756344 0.420508
0.861967 0.771969 0.430762
0.900175 0.772763 0.452125
0.929320 0.773190 0.473823
0.954711 0.779477 0.503258
0.254917 0.795468 0.442512
0.248631 0.792721 0.434455
0.268681 0.791592 0.432624
0.302892 0.792081 0.433082
0.346990 0.793820 0.434882
0.397070 0.796109 0.437720
0.452094 0.799191 0.441993
0.513695 0.801694 0.446509
0.589014 0.802976 0.452827
0.661952 0.804044 0.459876
0.731899 0.805417 0.468727
0.796201 0.806973 0.478767
0.853422 0.809506 0.491218
0.905608 0.820279 0.509239
0.930694 0.819394 0.536553
0.949462 0.818204 0.560479
0.363439 0.850126 0.513054
0.357794 0.848295 0.506065
0.369177 0.847379 0.503899
0.393866 0.847410 0.504570
0.429267 0.848173 0.507439
0.471931 0.849088 0.511467
0.520409 0.850278 0.516869
0.572259 0.851469 0.523156
0.636561 0.851774 0.532036
0.701625 0.851835 0.542809
0.762234 0.852232 0.555444
0.816220 0.852964 0.569329
0.862791 0.854734 0.586145
0.901549 0.857206 0.604211
0.934417 0.865690 0.634577
0.948608 0.866239 0.670222
0.000000 0.125673 0.187625
0.000000 0.118685 0.189883
0.088502 0.096956 0.193393
0.212314 0.100679 0.192905
0.304936 0.110567 0.183780
0.385229 0.131807 0.176791
0.459358 0.173373 0.187076
0.534264 0.200534 0.190127
0.605249 0.230747 0.194614
0.675380 0.263554 0.200870
0.743526 0.294621 0.204654
0.810178 0.323217 0.208652
0.876677 0.350286 0.214694
0.939452 0.378973 0.224216
0.991485 0.408698 0.237705
1.000000 0.439002 0.255009
0.000000 0.145846 0.191226
0.000000 0.143771 0.189792
0.101228 0.129366 0.194247
0.211521 0.131167 0.194949
0.298863 0.139498 0.187869
0.378698 0.167758 0.192050
0.455756 0.190463 0.194003
0.531090 0.214603 0.196506
0.604028 0.242618 0.200839
0.674739 0.272953 0.205081
0.742763 0.301854 0.208042
0.809201 0.329503 0.211612
0.875608 0.355962 0.217288
0.938018 0.383825 0.227024
0.990082 0.412909 0.240085
1.000000 0.443305 0.257755
0.000000 0.169589 0.195743
0.035554 0.169772 0.195224
0.124117 0.171084 0.195834
0.214420 0.167147 0.200717
0.296147 0.177005 0.197024
0.372808 0.198184 0.201938
0.450904 0.215427 0.203433
0.527886 0.236240 0.206180
0.601984 0.260349 0.208438
0.672602 0.287144 0.210361
0.739559 0.314061 0.212833
0.805692 0.339910 0.216098
0.872587 0.365637 0.222110
0.935332 0.392493 0.231266
0.987793 0.420905 0.244663
1.000000 0.450721 0.262242
0.000000 0.201419 0.204471
0.068086 0.201785 0.204379
0.140871 0.203738 0.205386
0.218235 0.207431 0.208286
0.289525 0.216892 0.209323
0.365728 0.228763 0.210391
0.444495 0.242985 0.211826
0.522637 0.260868 0.213901
0.595727 0.281987 0.215366
0.665705 0.306371 0.217105
0.733089 0.331365 0.219730
0.800015 0.355840 0.223331
0.868650 0.380926 0.229435
0.931151 0.406287 0.238773
0.983032 0.432563 0.250980
1.000000 0.460548 0.267491
0.059205 0.233890 0.212711
0.102480 0.236545 0.214725
0.158633 0.240848 0.217594
0.219394 0.247349 0.217929
0.290562 0.251041 0.217350
0.360357 0.259037 0.218296
0.436378 0.271855 0.219974
0.513573 0.288334 0.222019
0.586816 0.308049 0.224216
0.657374 0.330846 0.226658
0.726131 0.354620 0.229526
0.796628 0.379004 0.234714
0.866667 0.403082 0.241550
0.930449 0.428199 0.251865
0.982971 0.454597 0.265660
1.000000 0.481880 0.283452
0.097200 0.280095 0.233341
0.131472 0.282689 0.234867
0.178958 0.286412 0.236667
0.225925 0.292088 0.232364
0.292668 0.292760 0.231632
0.368688 0.299748 0.231266
0.438544 0.308782 0.232334
0.506950 0.319554 0.233646
0.578820 0.338201 0.236149
0.649073 0.359503 0.238804
0.718563 0.382177 0.242222
0.789670 0.405158 0.247227
0.859983 0.427924 0.254154
0.924346 0.451637 0.264805
0.977417 0.476875 0.279026
1.000000 0.504021 0.298253
0.133333 0.328222 0.254978
0.159945 0.330755 0.256016
0.202243 0.334356 0.257633
0.234775 0.339452 0.248997
0.296727 0.340826 0.248234
0.369329 0.340978 0.248356
0.445808 0.351507 0.247776
0.512474 0.362005 0.248936
0.574914 0.373388 0.250309
0.638972 0.389441 0.252354
0.708614 0.411231 0.255802
0.780270 0.433417 0.261021
0.851560 0.455360 0.268711
