luts/Blackwood ● 16.cube
# Created by Adobe Lightroom plugin Export LUT (1.16.0)
# www.johnrellis.com/lightroom/exportlut.htm
# Preset: Blackwood ●
# Color profile: C:\Program Files (x86)\Common Files\Adobe\Color\Profiles\Recommended\sRGB Color Space Profile.icm
LUT_3D_SIZE 6
DOMAIN_MIN 0.0 0.0 0.0
DOMAIN_MAX 1.0 1.0 1.0
0.018952 0.019837 0.019745
0.233585 0.081392 0.046052
0.457588 0.146090 0.065095
0.682155 0.236484 0.092988
0.886076 0.328954 0.145510
1.000000 0.425574 0.251164
0.023957 0.164279 0.087190
0.213413 0.176822 0.087617
0.432258 0.215000 0.092927
0.658289 0.284947 0.100710
0.866423 0.362860 0.140993
1.000000 0.448157 0.248783
0.066865 0.313237 0.171908
0.215793 0.318151 0.172335
0.441901 0.337133 0.173800
0.638239 0.377356 0.180423
0.851469 0.444282 0.197971
1.000000 0.517693 0.259129
0.137331 0.463661 0.249241
0.244450 0.466957 0.248966
0.439124 0.474037 0.250980
0.643000 0.511284 0.253178
0.838590 0.556329 0.274327
0.991089 0.617304 0.337682
0.165499 0.646113 0.327367
0.263554 0.652338 0.329656
0.431250 0.667079 0.335027
0.643946 0.683253 0.346685
0.855253 0.716915 0.373114
0.965026 0.739376 0.445441
0.354284 0.849363 0.498207
0.388952 0.846159 0.491066
0.516350 0.849180 0.503380
0.702113 0.850950 0.531212
0.864286 0.854276 0.577203
0.949615 0.865843 0.664454
0.000000 0.125673 0.187625
0.212314 0.100679 0.192905
0.459358 0.173373 0.187076
0.675380 0.263554 0.200870
0.876677 0.350286 0.214694
1.000000 0.439002 0.255009
0.000000 0.201419 0.204471
0.218235 0.207431 0.208286
0.444495 0.242985 0.211826
0.665705 0.306371 0.217105
0.868650 0.380926 0.229435
1.000000 0.460548 0.267491
0.133333 0.328222 0.254978
0.234775 0.339452 0.248997
0.445808 0.351507 0.247776
0.638972 0.389441 0.252354
0.851560 0.455360 0.268711
1.000000 0.529717 0.314946
0.232639 0.475196 0.322301
0.265324 0.482856 0.302831
0.443793 0.490333 0.303502
0.644434 0.521355 0.305547
0.837217 0.563775 0.324010
0.988281 0.628534 0.382757
0.248081 0.656123 0.388281
0.270054 0.662867 0.369848
0.428870 0.677394 0.374792
0.644221 0.691951 0.386267
0.853880 0.722377 0.411566
0.961822 0.745876 0.479194
0.386755 0.849729 0.533989
0.395819 0.848142 0.516960
0.522362 0.850889 0.528985
0.700496 0.852720 0.554192
0.861601 0.855436 0.596338
0.947509 0.866941 0.677302
0.000000 0.225711 0.324712
0.000000 0.213046 0.339117
0.437659 0.197116 0.362493
0.706508 0.258244 0.354742
0.895720 0.392309 0.384222
1.000000 0.495064 0.419135
0.000000 0.276371 0.339178
0.097658 0.276677 0.342107
0.446082 0.269810 0.372534
0.697108 0.331121 0.373968
0.884489 0.425849 0.394751
1.000000 0.509514 0.419471
0.000000 0.365301 0.364538
0.200992 0.373144 0.371923
0.458442 0.395392 0.392370
0.661036 0.439216 0.399847
0.864317 0.498299 0.414496
1.000000 0.573602 0.448341
0.197940 0.493019 0.411688
0.296056 0.503563 0.418616
0.456672 0.533745 0.424933
0.650843 0.554101 0.425910
0.838224 0.590539 0.439063
0.978882 0.662165 0.492805
0.214603 0.666041 0.472724
0.311162 0.675624 0.479652
0.443854 0.699733 0.476051
0.643336 0.714137 0.485908
0.848936 0.737697 0.506920
0.953124 0.761044 0.558221
0.371954 0.851164 0.596429
0.445411 0.847929 0.602228
0.522332 0.853696 0.587366
0.689265 0.857053 0.609583
0.853452 0.859037 0.644770
0.942229 0.870603 0.711360
0.000000 0.327367 0.460060
0.000000 0.323980 0.471870
0.249241 0.282322 0.518578
0.662531 0.316472 0.560845
0.902678 0.414374 0.551720
0.979950 0.640009 0.646540
0.000000 0.363836 0.475319
0.000000 0.361883 0.477089
0.297337 0.343236 0.521141
0.662654 0.368475 0.566033
0.894102 0.462135 0.563012
0.975860 0.645472 0.643000
0.000000 0.429541 0.493202
0.000000 0.434333 0.499794
0.352972 0.447272 0.517906
0.661463 0.479469 0.578637
0.877989 0.569970 0.597803
0.969574 0.676967 0.647761
0.000000 0.536553 0.532860
0.153475 0.542840 0.538872
0.400763 0.563989 0.557763
0.659663 0.614099 0.599268
0.852293 0.664332 0.616999
0.961120 0.718746 0.644465
0.000000 0.684535 0.582757
0.084169 0.691188 0.586419
0.383917 0.711177 0.598962
0.647059 0.747494 0.629419
0.838743 0.762356 0.639643
0.939483 0.784512 0.667781
0.000000 0.863584 0.637415
0.000000 0.860533 0.630243
0.406439 0.859648 0.659602
0.682429 0.861906 0.692805
0.837552 0.865141 0.715999
0.934020 0.876677 0.761288
0.000000 0.456855 0.646906
0.000000 0.453529 0.653040
0.000000 0.441962 0.685145
0.524193 0.429358 0.737942
0.867399 0.516442 0.768612
0.968963 0.648341 0.746212
0.000000 0.479561 0.656184
0.000000 0.476448 0.656703
0.000000 0.470222 0.684810
0.527886 0.463691 0.737697
0.862699 0.548272 0.768276
0.962341 0.664149 0.747738
0.000000 0.527367 0.668116
0.000000 0.526940 0.670619
0.000000 0.528710 0.678920
0.528496 0.537255 0.734188
0.854185 0.625025 0.771420
0.946624 0.725307 0.767941
0.000000 0.611444 0.693935
0.000000 0.612421 0.696315
0.000000 0.615503 0.702541
0.514885 0.641230 0.719081
0.844450 0.719295 0.779538
0.930053 0.793027 0.795682
0.000000 0.730495 0.727779
0.000000 0.733577 0.730098
0.144533 0.743954 0.737392
0.560143 0.764340 0.752377
0.835050 0.805051 0.789731
0.923033 0.829679 0.799954
0.000000 0.882475 0.781094
0.000000 0.880064 0.776944
0.000000 0.879606 0.775174
0.512230 0.875242 0.774166
0.817990 0.874296 0.799344
0.923888 0.885771 0.821103
0.000000 0.620020 0.859617
0.000000 0.619165 0.859617
0.000000 0.617487 0.862913
0.540459 0.648127 0.868040
0.806455 0.708827 0.874296
0.928588 0.779416 0.875853
0.000000 0.632929 0.861265
0.000000 0.632532 0.860655
0.000000 0.631983 0.861936
0.549615 0.666102 0.865049
0.800809 0.711971 0.871641
0.926421 0.778073 0.873198
0.000000 0.663783 0.865110
0.000000 0.664179 0.864988
0.000000 0.669703 0.863218
0.535058 0.702327 0.864652
0.800595 0.743435 0.871855
0.922454 0.801724 0.875669
0.000000 0.724025 0.873045
0.000000 0.721584 0.872984
0.000000 0.714839 0.872496
0.384405 0.739620 0.867277
0.789242 0.778988 0.873014
0.918059 0.831083 0.879515
0.000000 0.814786 0.882658
0.000000 0.814145 0.882567
0.000000 0.813413 0.882231
0.271977 0.815000 0.880552
0.742855 0.827481 0.875578
0.914702 0.865019 0.886290
0.000000 0.904051 0.894072
0.000000 0.903319 0.893431
0.000000 0.902678 0.892790
0.403601 0.899901 0.891356
0.742824 0.896147 0.890471
0.912596 0.901579 0.895689
