luts/Carnarvon ● 16.cube
# Created by Adobe Lightroom plugin Export LUT (1.16.0)
# www.johnrellis.com/lightroom/exportlut.htm
# Preset: Carnarvon ●
# Color profile: C:\Program Files (x86)\Common Files\Adobe\Color\Profiles\Recommended\sRGB Color Space Profile.icm
LUT_3D_SIZE 6
DOMAIN_MIN 0.0 0.0 0.0
DOMAIN_MAX 1.0 1.0 1.0
0.021210 0.019562 0.020203
0.289677 0.031037 0.001801
0.513817 0.085939 0.000000
0.736599 0.143221 0.000000
0.921874 0.184909 0.000000
1.000000 0.212741 0.000000
0.024964 0.184695 0.066651
0.259129 0.190677 0.035157
0.497902 0.215732 0.000000
0.725887 0.244511 0.000000
0.912383 0.262699 0.000000
1.000000 0.273289 0.000000
0.000000 0.369268 0.136355
0.253452 0.373816 0.122133
0.489357 0.383490 0.061219
0.721309 0.385870 0.000000
0.913146 0.388525 0.000000
1.000000 0.397681 0.000000
0.000000 0.549767 0.215579
0.221500 0.551965 0.206821
0.473945 0.557916 0.178195
0.709957 0.557610 0.109255
0.907530 0.542626 0.000000
1.000000 0.529839 0.000000
0.000000 0.726131 0.308659
0.219211 0.729366 0.305547
0.480812 0.735439 0.292149
0.717922 0.740749 0.257206
0.914794 0.722774 0.195529
1.000000 0.683803 0.000000
0.279759 0.906249 0.465858
0.354589 0.901823 0.452125
0.536370 0.902861 0.441932
0.737026 0.904814 0.418494
0.937652 0.907805 0.369604
1.000000 0.865415 0.282444
0.000000 0.097749 0.248905
0.234043 0.088167 0.214328
0.494209 0.081941 0.154208
0.719844 0.154452 0.091707
0.911742 0.201663 0.000000
1.000000 0.247044 0.000000
0.000000 0.218814 0.242588
0.226200 0.219608 0.225223
0.482094 0.222477 0.182345
0.717311 0.239261 0.110933
0.909209 0.261021 0.000000
1.000000 0.288884 0.000000
0.000000 0.385870 0.270451
0.207401 0.390112 0.252781
0.471992 0.393256 0.223331
0.707485 0.389105 0.160250
0.905394 0.387854 0.015991
1.000000 0.391943 0.000000
0.000000 0.559716 0.309209
0.177279 0.562097 0.301274
0.459968 0.566979 0.282353
0.699397 0.564477 0.242374
0.899992 0.548455 0.160098
1.000000 0.533165 0.000000
0.000000 0.732815 0.375677
0.186221 0.734646 0.372442
0.469245 0.740475 0.362890
0.709316 0.745174 0.336492
0.908568 0.728603 0.291386
1.000000 0.690211 0.159426
0.260563 0.908110 0.506126
0.339818 0.904112 0.494118
0.526360 0.905150 0.485267
0.729854 0.906889 0.464515
0.930266 0.909392 0.419959
1.000000 0.868986 0.342779
0.000000 0.190768 0.452766
0.000000 0.164614 0.437018
0.425147 0.187259 0.403571
0.696254 0.191592 0.362280
0.901366 0.213626 0.298985
1.000000 0.243595 0.213199
0.000000 0.277226 0.449775
0.004608 0.266606 0.438453
0.424750 0.277287 0.413153
0.689021 0.277806 0.372320
0.894591 0.287785 0.314733
1.000000 0.288243 0.213870
0.000000 0.415137 0.454139
0.000000 0.418799 0.449500
0.418982 0.430579 0.433539
0.674922 0.424903 0.396643
0.887053 0.419684 0.344213
1.000000 0.406104 0.243442
0.000000 0.579767 0.477852
0.000000 0.582788 0.473335
0.411048 0.589563 0.459022
0.670863 0.588495 0.436378
0.881071 0.573480 0.387060
1.000000 0.553887 0.296086
0.000000 0.744289 0.504082
0.000000 0.746334 0.503441
0.422614 0.751492 0.503746
0.682124 0.756771 0.488289
0.890227 0.745266 0.457740
1.000000 0.708186 0.370275
0.000000 0.914916 0.573297
0.216129 0.909606 0.576837
0.479377 0.909545 0.577600
0.703670 0.912016 0.564569
0.908721 0.914366 0.531029
1.000000 0.879942 0.471473
0.000000 0.276768 0.633295
0.000000 0.260929 0.627527
0.300633 0.278752 0.610620
0.620233 0.300572 0.585718
0.860288 0.339025 0.549340
1.000000 0.421546 0.538140
0.000000 0.339666 0.636530
0.000000 0.331121 0.629633
0.308629 0.345769 0.614282
0.619257 0.360479 0.589960
0.854276 0.389410 0.555596
1.000000 0.430030 0.528069
0.000000 0.451972 0.633753
0.000000 0.454597 0.631342
0.309239 0.464515 0.622126
0.616754 0.482582 0.601801
0.846036 0.498848 0.575830
1.000000 0.499123 0.533104
0.000000 0.598779 0.644282
0.000000 0.601892 0.642329
0.307683 0.611078 0.636744
0.618799 0.626642 0.625605
0.852201 0.617670 0.590600
1.000000 0.595727 0.527398
0.000000 0.766293 0.672328
0.000000 0.767361 0.669001
0.229923 0.769619 0.659236
0.623865 0.774472 0.653712
0.856626 0.771176 0.633936
1.000000 0.740139 0.568322
0.000000 0.935332 0.658564
0.000000 0.930968 0.646662
0.000000 0.924559 0.664637
0.639643 0.920348 0.693324
0.867643 0.922789 0.671931
1.000000 0.899168 0.630610
0.000000 0.361547 0.805112
0.000000 0.356970 0.802884
0.000000 0.371862 0.794614
0.535943 0.418555 0.779141
0.811124 0.450294 0.761532
0.991302 0.522576 0.727810
0.000000 0.404944 0.807095
0.000000 0.402869 0.803769
0.000000 0.419226 0.796292
0.541070 0.460639 0.780392
0.807340 0.485878 0.761776
0.985718 0.541833 0.727413
0.000000 0.494881 0.806363
0.000000 0.496864 0.804685
0.000000 0.512078 0.798764
0.550256 0.552972 0.783871
0.802884 0.568688 0.767300
0.985473 0.610529 0.743191
0.000000 0.621973 0.812070
0.000000 0.624201 0.811063
0.000000 0.630762 0.806912
0.530266 0.653315 0.798154
0.801846 0.676204 0.781064
0.988678 0.702052 0.764981
0.000000 0.766110 0.822995
0.000000 0.768795 0.822507
0.000000 0.776944 0.820706
0.526116 0.789822 0.815518
0.806363 0.806241 0.806271
1.000000 0.789425 0.766232
0.000000 0.957946 0.863157
0.000000 0.954498 0.856016
0.000000 0.951690 0.843534
0.276524 0.944060 0.821256
0.799771 0.935790 0.822477
1.000000 0.927489 0.798703
0.000000 0.452461 0.967712
0.000000 0.462989 0.966247
0.000000 0.518059 0.959991
0.561761 0.619074 0.947448
0.784787 0.641199 0.939025
0.976745 0.674311 0.928771
0.000000 0.476875 0.968566
0.000000 0.486885 0.966857
0.000000 0.536980 0.960113
0.564111 0.636469 0.945769
0.779049 0.650294 0.935393
0.970001 0.675257 0.923064
0.000000 0.527153 0.971221
0.000000 0.534569 0.970214
0.000000 0.577264 0.964477
0.532891 0.662348 0.951659
0.781888 0.698421 0.939513
0.969909 0.718288 0.928710
0.000000 0.618189 0.977020
0.000000 0.615045 0.976806
0.000000 0.615473 0.975036
0.408759 0.696071 0.962615
0.780056 0.765377 0.947265
0.968933 0.779568 0.936767
0.000000 0.751705 0.982849
0.000000 0.751522 0.982574
0.000000 0.756802 0.981140
0.000000 0.778531 0.975952
0.734524 0.830686 0.963592
0.969055 0.861540 0.949889
0.000000 0.902159 0.987213
0.000000 0.902586 0.986450
0.000000 0.908904 0.984680
0.000000 0.924498 0.979522
0.621942 0.945190 0.972168
0.966735 0.966522 0.966583
