luts/Carnarvon ● 16.cube
# Created by Adobe Lightroom plugin Export LUT (1.16.0)
# www.johnrellis.com/lightroom/exportlut.htm
# Preset: Carnarvon ●
# Color profile: C:\Program Files (x86)\Common Files\Adobe\Color\Profiles\Recommended\sRGB Color Space Profile.icm
LUT_3D_SIZE 16
DOMAIN_MIN 0.0 0.0 0.0
DOMAIN_MAX 1.0 1.0 1.0
0.021210 0.019562 0.020203
0.109895 0.020447 0.017578
0.205203 0.023102 0.011414
0.289677 0.031037 0.001801
0.365209 0.046021 0.000000
0.440284 0.065522 0.000000
0.513817 0.085939 0.000000
0.590600 0.106203 0.000000
0.664424 0.125765 0.000000
0.736599 0.143221 0.000000
0.802396 0.158846 0.000000
0.863432 0.172946 0.000000
0.921874 0.184909 0.000000
0.979400 0.196048 0.000000
1.000000 0.205539 0.000000
1.000000 0.212741 0.000000
0.023072 0.076905 0.031708
0.111116 0.077546 0.023194
0.197665 0.081910 0.007904
0.281041 0.088533 0.000000
0.358465 0.096590 0.000000
0.433753 0.108919 0.000000
0.511040 0.123873 0.000000
0.588006 0.139986 0.000000
0.661738 0.154055 0.000000
0.734646 0.167727 0.000000
0.800595 0.179965 0.000000
0.861692 0.191196 0.000000
0.919982 0.200992 0.000000
0.977722 0.210300 0.000000
1.000000 0.218601 0.000000
1.000000 0.224796 0.000000
0.025269 0.130098 0.047211
0.108278 0.129427 0.040558
0.185824 0.132540 0.025971
0.270909 0.138949 0.004913
0.349493 0.146334 0.000000
0.428290 0.158267 0.000000
0.506096 0.172000 0.000000
0.582971 0.184146 0.000000
0.657557 0.194064 0.000000
0.731716 0.203983 0.000000
0.797635 0.212619 0.000000
0.858915 0.220218 0.000000
0.917235 0.227329 0.000000
0.975677 0.234287 0.000000
1.000000 0.240391 0.000000
1.000000 0.245335 0.000000
0.024964 0.184695 0.066651
0.108217 0.184085 0.061891
0.179629 0.184573 0.053223
0.259129 0.190677 0.035157
0.342107 0.199069 0.007965
0.420203 0.206577 0.000000
0.497902 0.215732 0.000000
0.575555 0.225376 0.000000
0.652155 0.234897 0.000000
0.725887 0.244511 0.000000
0.791318 0.252903 0.000000
0.852781 0.258457 0.000000
0.912383 0.262699 0.000000
0.970428 0.267033 0.000000
1.000000 0.270512 0.000000
1.000000 0.273289 0.000000
0.024811 0.242618 0.088960
0.107668 0.243351 0.085786
0.181827 0.245579 0.079194
0.256016 0.247776 0.068238
0.335851 0.255100 0.045228
0.419867 0.263859 0.007477
0.498604 0.269230 0.000000
0.577539 0.275364 0.000000
0.654780 0.281590 0.000000
0.728695 0.288060 0.000000
0.794491 0.293187 0.000000
0.856840 0.299168 0.000000
0.917113 0.306340 0.000000
0.975677 0.310430 0.000000
1.000000 0.311742 0.000000
1.000000 0.311528 0.000000
0.014557 0.305119 0.112490
0.103090 0.306767 0.109926
0.181369 0.308751 0.104463
0.256443 0.310430 0.095521
0.330541 0.312352 0.080873
0.411048 0.318791 0.053040
0.495888 0.325933 0.005615
0.575372 0.329046 0.000000
0.652155 0.331731 0.000000
0.725582 0.334874 0.000000
0.791379 0.336980 0.000000
0.854765 0.340520 0.000000
0.915282 0.345129 0.000000
0.973449 0.350805 0.000000
1.000000 0.354955 0.000000
1.000000 0.353124 0.000000
0.000000 0.369268 0.136355
0.090761 0.370855 0.134463
0.173953 0.372381 0.130098
0.253452 0.373816 0.122133
0.329931 0.375647 0.110597
0.406470 0.378241 0.093080
0.489357 0.383490 0.061219
0.574090 0.387518 0.004547
0.649928 0.386877 0.000000
0.721309 0.385870 0.000000
0.787747 0.385382 0.000000
0.852140 0.386419 0.000000
0.913146 0.388525 0.000000
0.971527 0.391669 0.000000
1.000000 0.395422 0.000000
1.000000 0.397681 0.000000
0.000000 0.432044 0.161807
0.067292 0.434211 0.160708
0.161593 0.436255 0.157198
0.247288 0.437964 0.150851
0.326116 0.439185 0.141054
0.404334 0.440101 0.126223
0.479927 0.439063 0.107118
0.563348 0.442176 0.071992
0.644862 0.443641 0.009857
0.716182 0.440314 0.000000
0.783200 0.437354 0.000000
0.847684 0.435615 0.000000
0.909331 0.435248 0.000000
0.967712 0.435645 0.000000
1.000000 0.436591 0.000000
1.000000 0.438544 0.000000
0.000000 0.487587 0.186404
0.028809 0.488258 0.184787
0.143313 0.490028 0.182162
0.232914 0.491981 0.177066
0.315862 0.494118 0.169558
0.396002 0.496010 0.158389
0.476539 0.498238 0.142672
0.554131 0.497932 0.123568
0.637964 0.500877 0.088258
0.715389 0.500008 0.030060
0.784390 0.495918 0.000000
0.849821 0.492439 0.000000
0.911437 0.489143 0.000000
0.969909 0.486885 0.000000
1.000000 0.485176 0.000000
1.000000 0.483589 0.000000
0.000000 0.549767 0.215579
0.000000 0.549706 0.213748
0.124544 0.550561 0.211093
0.221500 0.551965 0.206821
0.309606 0.553857 0.200137
0.391760 0.555657 0.190951
0.473945 0.557916 0.178195
0.555413 0.560143 0.161532
0.633082 0.559319 0.141299
0.709957 0.557610 0.109255
0.780453 0.553124 0.060975
0.845701 0.547784 0.000000
0.907530 0.542626 0.000000
0.966491 0.538293 0.000000
1.000000 0.534295 0.000000
1.000000 0.529839 0.000000
0.000000 0.613489 0.246250
0.000000 0.613458 0.244846
0.106783 0.613916 0.242527
0.213107 0.614740 0.238712
0.305364 0.616083 0.233097
0.391180 0.617334 0.225223
0.473579 0.618616 0.214633
0.554986 0.619867 0.200595
0.635523 0.621424 0.182742
0.709041 0.617884 0.162722
0.778622 0.611963 0.132448
0.841794 0.603998 0.090425
0.903807 0.597711 0.004059
0.962585 0.591638 0.000000
1.000000 0.585229 0.000000
1.000000 0.578027 0.000000
0.000000 0.675441 0.280705
0.000000 0.675380 0.279362
0.105776 0.675563 0.277195
0.213809 0.675807 0.273655
0.305943 0.676173 0.268406
0.393500 0.676814 0.261418
0.474769 0.677089 0.251987
0.554925 0.677546 0.239689
0.634272 0.678218 0.224521
0.711788 0.678737 0.204654
0.779721 0.672297 0.184451
0.842191 0.662745 0.154971
0.899046 0.652033 0.115785
0.956481 0.644068 0.035950
1.000000 0.636744 0.000000
1.000000 0.629084 0.000000
0.000000 0.726131 0.308659
0.000000 0.726558 0.307958
0.115938 0.727901 0.307347
0.219211 0.729366 0.305547
0.310460 0.731441 0.302892
0.397436 0.733333 0.298344
0.480812 0.735439 0.292149
0.560540 0.737026 0.283146
0.640101 0.739071 0.272099
0.717922 0.740749 0.257206
0.794919 0.742916 0.238437
0.857847 0.734432 0.221347
0.914794 0.722774 0.195529
0.964843 0.708705 0.160281
1.000000 0.696590 0.092592
1.000000 0.683803 0.000000
0.028595 0.793606 0.358984
0.087984 0.789609 0.353094
0.164340 0.788144 0.349554
0.245975 0.788235 0.346868
0.328496 0.789517 0.344305
0.410254 0.790768 0.340307
0.491646 0.792325 0.335210
0.568109 0.793454 0.327459
0.644800 0.795041 0.318090
0.719814 0.795865 0.304723
0.794095 0.797024 0.288670
0.866270 0.797757 0.267094
0.920989 0.784756 0.249332
0.969757 0.768521 0.219089
1.000000 0.750790 0.178561
1.000000 0.735714 0.097536
0.168276 0.850828 0.407050
0.185946 0.847532 0.401038
0.228702 0.845823 0.396735
0.289464 0.845365 0.393652
0.358953 0.845823 0.390906
0.432074 0.846433 0.387243
0.507378 0.847501 0.382879
0.580713 0.848142 0.376043
0.652583 0.848783 0.367041
0.723964 0.849058 0.354894
0.794888 0.849454 0.339910
0.864591 0.849821 0.320989
0.933501 0.850645 0.297826
0.980011 0.832700 0.277745
1.000000 0.813962 0.243656
1.000000 0.792844 0.193179
0.279759 0.906249 0.465858
0.286503 0.903655 0.459480
0.311711 0.902281 0.455177
0.354589 0.901823 0.452125
0.409186 0.901946 0.449439
0.470466 0.902251 0.446021
0.536370 0.902861 0.441932
0.604364 0.903410 0.436316
0.670314 0.904082 0.428534
0.737026 0.904814 0.418494
0.804105 0.905669 0.405921
0.870787 0.906462 0.389319
0.937652 0.907805 0.369604
0.999847 0.905058 0.344793
1.000000 0.886320 0.320775
1.000000 0.865415 0.282444
0.000000 0.035981 0.093538
0.100038 0.041352 0.089967
0.199161 0.032898 0.075715
0.282597 0.040528 0.052796
0.353887 0.068971 0.041230
0.428870 0.090517 0.014069
0.505058 0.112398 0.000000
0.582086 0.133364 0.000000
0.656397 0.151858 0.000000
0.729885 0.169863 0.000000
0.796963 0.184298 0.000000
0.858457 0.194308 0.000000
0.917266 0.202518 0.000000
0.975280 0.210117 0.000000
1.000000 0.216892 0.000000
1.000000 0.221744 0.000000
0.000000 0.090333 0.102052
0.097230 0.090822 0.093965
0.187533 0.089998 0.082399
0.271153 0.095003 0.067720
0.349401 0.104982 0.048524
0.426307 0.119326 0.020417
0.504326 0.136721 0.000000
0.581598 0.153628 0.000000
0.656184 0.169284 0.000000
0.730495 0.185031 0.000000
0.796841 0.199405 0.000000
0.858061 0.209598 0.000000
0.916442 0.216587 0.000000
0.974365 0.223270 0.000000
1.000000 0.228855 0.000000
1.000000 0.232944 0.000000
0.005921 0.142428 0.110750
0.096742 0.142306 0.101686
0.180392 0.142123 0.092714
0.264469 0.144442 0.078492
0.344945 0.150607 0.060090
0.424475 0.160678 0.031983
0.502892 0.172732 0.000000
0.580346 0.185153 0.000000
0.656672 0.197543 0.000000
0.730404 0.209934 0.000000
0.795682 0.221103 0.000000
0.856077 0.232242 0.000000
0.914488 0.239872 0.000000
0.972808 0.244968 0.000000
1.000000 0.249180 0.000000
1.000000 0.252018 0.000000
0.010468 0.196292 0.121675
0.095705 0.195804 0.113497
0.177218 0.195224 0.106630
0.256443 0.198032 0.095125
0.338964 0.203250 0.076417
0.418524 0.209445 0.050507
0.497536 0.217533 0.012970
0.576349 0.226383 0.000000
0.653162 0.235080 0.000000
0.726558 0.243900 0.000000
0.791958 0.251804 0.000000
0.852903 0.260166 0.000000
0.912749 0.269688 0.000000
0.970459 0.276219 0.000000
1.000000 0.278172 0.000000
1.000000 0.279179 0.000000
0.000000 0.250187 0.130892
0.092103 0.250584 0.126833
0.175387 0.251011 0.121614
0.251286 0.252018 0.112520
0.329168 0.256168 0.097505
0.411994 0.262730 0.073304
0.491310 0.267735 0.038544
0.571038 0.273594 0.000000
0.648493 0.279271 0.000000
0.722896 0.285222 0.000000
0.789456 0.290471 0.000000
0.852689 0.296422 0.000000
0.913817 0.303807 0.000000
0.972351 0.311986 0.000000
1.000000 0.316594 0.000000
1.000000 0.315679 0.000000
0.000000 0.310307 0.145876
0.083711 0.310948 0.143587
0.170657 0.311742 0.139010
0.250340 0.312810 0.131197
0.326146 0.314519 0.119570
0.405859 0.319432 0.100496
0.489479 0.324834 0.070130
0.568688 0.327367 0.025544
0.645869 0.329778 0.000000
0.719814 0.332677 0.000000
0.786770 0.334874 0.000000
0.851011 0.338384 0.000000
0.912139 0.342870 0.000000
0.970520 0.348394 0.000000
1.000000 0.354314 0.000000
1.000000 0.355871 0.000000
0.000000 0.373663 0.165194
0.066468 0.374701 0.163424
0.162722 0.375341 0.159426
0.247105 0.376379 0.152407
0.325353 0.377508 0.142397
0.402441 0.379553 0.127901
0.484047 0.383001 0.105074
0.567529 0.385870 0.069642
0.644282 0.385504 0.014710
0.716335 0.384588 0.000000
0.783230 0.383886 0.000000
0.847929 0.384771 0.000000
0.909483 0.386572 0.000000
0.968200 0.389441 0.000000
1.000000 0.392920 0.000000
1.000000 0.396979 0.000000
0.000000 0.434424 0.186069
0.036194 0.435798 0.184817
0.148867 0.436683 0.181460
0.238712 0.437751 0.175418
0.319951 0.438758 0.166506
0.398840 0.439796 0.154482
0.477089 0.440558 0.137697
0.558831 0.441962 0.111910
0.640253 0.442847 0.072023
0.711788 0.439521 0.013092
0.779110 0.436378 0.000000
0.843961 0.434577 0.000000
0.906188 0.434180 0.000000
0.964904 0.434272 0.000000
1.000000 0.434516 0.000000
1.000000 0.435767 0.000000
0.000000 0.491615 0.208164
0.000000 0.491981 0.206760
0.131167 0.492866 0.203983
0.225711 0.494087 0.199069
0.311467 0.495705 0.192081
0.392432 0.497322 0.182040
0.473548 0.499397 0.168460
0.551476 0.498909 0.152041
0.634943 0.501244 0.124239
0.712001 0.499947 0.085847
0.781216 0.495796 0.024781
0.846891 0.492164 0.000000
0.908812 0.488808 0.000000
0.968017 0.486580 0.000000
1.000000 0.484932 0.000000
1.000000 0.483192 0.000000
0.000000 0.551934 0.234012
0.000000 0.552117 0.232547
0.111635 0.552697 0.230045
0.214420 0.553918 0.225834
0.304845 0.555718 0.219883
0.388708 0.557305 0.211246
0.470985 0.558984 0.199710
0.552667 0.560815 0.184543
0.630091 0.559686 0.167056
0.706813 0.557549 0.140047
0.777066 0.552819 0.103944
0.842741 0.547509 0.043977
0.905119 0.542718 0.000000
0.964721 0.538506 0.000000
1.000000 0.534508 0.000000
1.000000 0.530083 0.000000
0.000000 0.615045 0.262638
0.000000 0.615381 0.261540
0.093050 0.615747 0.259251
0.206546 0.616419 0.255528
0.300816 0.617395 0.250156
0.388128 0.618372 0.242557
0.470619 0.619135 0.232517
0.552026 0.620081 0.219455
0.632654 0.621454 0.203220
0.706203 0.617884 0.184970
0.775723 0.611841 0.158572
0.839017 0.603845 0.123934
0.900938 0.597375 0.065888
0.960052 0.591333 0.000000
1.000000 0.585107 0.000000
1.000000 0.578119 0.000000
0.000000 0.676143 0.294621
0.000000 0.676204 0.293462
0.093507 0.676051 0.291142
0.207401 0.676143 0.287602
0.301213 0.676539 0.282689
0.389929 0.677211 0.276097
0.472175 0.677607 0.267185
0.552453 0.677852 0.255589
0.631556 0.678157 0.241062
0.708797 0.678279 0.222324
0.776577 0.671656 0.203433
0.838895 0.661952 0.176211
0.895628 0.651026 0.141695
0.953216 0.643061 0.082612
1.000000 0.635706 0.000000
1.000000 0.628229 0.000000
0.000000 0.728481 0.322423
0.000000 0.728786 0.321721
0.107912 0.729824 0.320897
0.215152 0.730953 0.318883
0.307286 0.732631 0.316014
0.394720 0.734371 0.311620
0.479133 0.736507 0.305760
0.559045 0.737972 0.297154
0.638422 0.739773 0.286412
0.716182 0.741238 0.272251
0.792935 0.743191 0.254673
0.856168 0.734920 0.238468
0.913359 0.723354 0.214725
0.963470 0.709438 0.182803
1.000000 0.697658 0.125521
1.000000 0.685054 0.000000
0.012970 0.794919 0.370367
0.080385 0.791257 0.364904
0.160403 0.789853 0.361395
0.243595 0.789853 0.358740
0.326513 0.790951 0.356237
0.408392 0.791958 0.352239
0.489845 0.793301 0.347021
0.566735 0.794278 0.339239
0.643214 0.795529 0.329992
0.718105 0.796201 0.317021
0.792325 0.797208 0.301396
0.864591 0.797940 0.280919
0.919768 0.785367 0.264164
0.968750 0.769314 0.235813
1.000000 0.751797 0.198459
1.000000 0.736965 0.128756
0.164981 0.851652 0.416693
0.183352 0.848600 0.410895
0.226596 0.847074 0.407050
0.287907 0.846677 0.403967
0.357794 0.847044 0.401251
0.430823 0.847562 0.397589
0.506065 0.848447 0.393103
0.579675 0.848905 0.386175
0.651301 0.849271 0.377020
0.722469 0.849363 0.365026
0.793332 0.849699 0.350378
0.863096 0.850034 0.331945
0.932067 0.850858 0.309575
0.978943 0.833280 0.290227
1.000000 0.814725 0.257969
1.000000 0.793790 0.210910
0.278202 0.906859 0.473854
0.285435 0.904387 0.467811
0.310613 0.903044 0.463600
0.353674 0.902586 0.460700
0.408423 0.902800 0.458076
0.469764 0.903105 0.454810
0.535546 0.903624 0.450690
0.603388 0.904112 0.445075
0.669368 0.904662 0.437140
0.735927 0.905241 0.426978
0.802853 0.906004 0.414282
0.869383 0.906645 0.397803
0.936095 0.907805 0.377966
0.998810 0.905364 0.353216
1.000000 0.886595 0.329870
1.000000 0.865751 0.292760
0.000000 0.066987 0.176120
0.059968 0.063966 0.168185
0.169986 0.062318 0.153719
0.268345 0.053285 0.138857
0.349584 0.045686 0.110780
0.421973 0.076844 0.095460
0.496864 0.105226 0.079530
0.573388 0.127810 0.053254
0.649195 0.145296 0.005463
0.724544 0.163058 0.000000
0.792386 0.179599 0.000000
0.854459 0.195529 0.000000
0.913603 0.210819 0.000000
0.972320 0.226413 0.000000
1.000000 0.233219 0.000000
1.000000 0.235111 0.000000
0.000000 0.109651 0.173831
0.060639 0.105562 0.165743
0.165896 0.106630 0.154574
0.257633 0.103029 0.141085
0.338750 0.104067 0.122347
0.416510 0.118318 0.107942
0.494881 0.133974 0.088228
0.573358 0.148775 0.057252
0.650172 0.163699 0.008942
0.725551 0.178866 0.000000
0.792813 0.193332 0.000000
0.854490 0.207309 0.000000
0.913359 0.221164 0.000000
0.971740 0.235569 0.000000
1.000000 0.243900 0.000000
1.000000 0.245304 0.000000
0.000000 0.155398 0.173251
0.067048 0.153689 0.167239
0.162844 0.154421 0.159182
0.250004 0.153323 0.147890
0.333349 0.155825 0.134249
0.414832 0.162325 0.117189
0.494820 0.171756 0.094636
0.573327 0.181949 0.064302
0.651453 0.193393 0.016510
0.725978 0.204959 0.000000
0.791836 0.216190 0.000000
0.853056 0.227207 0.000000
0.912291 0.238804 0.000000
0.970550 0.251530 0.000000
1.000000 0.262211 0.000000
1.000000 0.262821 0.000000
0.000000 0.205386 0.179507
0.073121 0.205447 0.175174
0.160159 0.206058 0.165957
0.245579 0.206363 0.157107
0.328954 0.207980 0.143191
0.410529 0.212222 0.126223
0.490669 0.218082 0.104158
0.571130 0.225498 0.075319
0.648615 0.232853 0.030121
0.722652 0.240665 0.000000
0.788693 0.247929 0.000000
0.850309 0.256016 0.000000
0.911101 0.265446 0.000000
0.968872 0.275547 0.000000
1.000000 0.285924 0.000000
1.000000 0.287999 0.000000
0.000000 0.257847 0.188632
0.065858 0.258732 0.183047
0.155276 0.259739 0.174228
0.242039 0.260410 0.166964
0.321935 0.262058 0.155581
0.404425 0.265721 0.138582
0.485145 0.269413 0.117556
0.565789 0.274144 0.090913
0.644007 0.278630 0.052033
0.718898 0.283726 0.000000
0.786221 0.288243 0.000000
0.850492 0.293919 0.000000
0.912383 0.300755 0.000000
0.971496 0.308507 0.000000
1.000000 0.316838 0.000000
1.000000 0.322911 0.000000
0.000000 0.316991 0.199039
0.039124 0.318212 0.193332
0.148165 0.319066 0.186679
0.239841 0.319860 0.180331
0.319768 0.321141 0.170993
0.400275 0.324010 0.156619
0.483619 0.327276 0.135714
0.563836 0.328771 0.111025
0.641901 0.330632 0.077516
0.716182 0.332769 0.024872
0.783993 0.334539 0.000000
0.848905 0.337469 0.000000
0.910765 0.341222 0.000000
0.969696 0.346014 0.000000
1.000000 0.351629 0.000000
1.000000 0.357519 0.000000
0.000000 0.379095 0.211307
0.000000 0.380560 0.206027
0.137972 0.381170 0.202457
0.234287 0.382177 0.196811
0.317723 0.383307 0.188357
0.397833 0.384924 0.176822
0.479683 0.386877 0.159701
0.562982 0.388220 0.135439
0.640223 0.387030 0.106111
0.712764 0.385595 0.066712
0.780545 0.384680 0.002472
0.845762 0.385046 0.000000
0.907866 0.386236 0.000000
0.967102 0.388464 0.000000
1.000000 0.391180 0.000000
1.000000 0.394720 0.000000
0.000000 0.439124 0.224399
0.000000 0.440558 0.222873
0.122316 0.441444 0.220066
0.224247 0.442390 0.215000
0.311925 0.443397 0.207553
0.393439 0.444251 0.197177
0.473976 0.445228 0.183230
0.555138 0.445136 0.164065
0.636408 0.445014 0.136995
0.708522 0.441321 0.105806
0.776394 0.437934 0.060517
0.841886 0.435859 0.000000
0.904540 0.434974 0.000000
0.963684 0.434485 0.000000
1.000000 0.433845 0.000000
1.000000 0.434119 0.000000
0.000000 0.495583 0.242039
0.000000 0.495918 0.240787
0.104036 0.496681 0.238315
0.211734 0.497871 0.234134
0.303502 0.499519 0.228061
0.386877 0.500999 0.219638
0.469520 0.503014 0.208408
0.548119 0.502373 0.195071
0.631617 0.504112 0.173312
0.708736 0.502129 0.146548
0.778347 0.497932 0.113771
0.844511 0.494057 0.062440
0.906859 0.490333 0.000000
0.966705 0.487892 0.000000
1.000000 0.485695 0.000000
1.000000 0.483223 0.000000
0.000000 0.555200 0.264530
0.000000 0.555413 0.263249
0.083131 0.555932 0.260990
0.201144 0.557214 0.257420
0.296361 0.559045 0.252110
0.383490 0.560693 0.244755
0.466987 0.562188 0.234623
0.549371 0.563897 0.221805
0.627436 0.562676 0.207248
0.704128 0.560113 0.185550
0.774258 0.555016 0.158175
0.840299 0.549645 0.121950
0.903197 0.544671 0.063996
0.963256 0.540215 0.000000
1.000000 0.536004 0.000000
1.000000 0.530938 0.000000
0.000000 0.617517 0.289982
0.000000 0.617945 0.289036
0.061524 0.618372 0.287053
0.194491 0.618982 0.283696
0.292607 0.619928 0.278904
0.383062 0.620966 0.272099
0.466621 0.621698 0.263371
0.548760 0.622614 0.251865
0.629633 0.623804 0.237461
0.703609 0.620325 0.221927
0.773190 0.614008 0.199741
0.836545 0.605890 0.172152
0.898863 0.599390 0.132845
0.958465 0.593317 0.067323
1.000000 0.586908 0.000000
1.000000 0.579553 0.000000
0.000000 0.677882 0.318700
0.000000 0.677974 0.317754
0.066438 0.677821 0.315618
0.196109 0.677974 0.312413
0.293736 0.678492 0.307988
0.384161 0.679164 0.301946
0.468544 0.679652 0.294072
0.549279 0.679805 0.283421
0.628595 0.679988 0.270207
0.706020 0.680018 0.253544
0.774258 0.673640 0.236698
0.836759 0.663874 0.213077
0.893523 0.652857 0.184360
0.951568 0.644984 0.140993
1.000000 0.637446 0.058839
1.000000 0.629694 0.000000
0.000000 0.730404 0.344060
0.000000 0.730678 0.343450
0.087556 0.731533 0.342596
0.205295 0.732631 0.340764
0.300450 0.734310 0.338170
0.389776 0.735958 0.334234
0.475654 0.738155 0.329137
0.555993 0.739559 0.321172
0.635676 0.741360 0.311437
0.713680 0.742794 0.298589
0.790524 0.744747 0.282994
0.854276 0.736873 0.268162
0.911620 0.725429 0.246921
0.961852 0.711452 0.218814
1.000000 0.699702 0.171725
1.000000 0.687007 0.071199
0.000000 0.796048 0.388830
0.053529 0.792538 0.383551
0.148287 0.791257 0.380346
0.235508 0.791257 0.377752
0.320745 0.792264 0.375372
0.403754 0.793271 0.371557
0.485939 0.794522 0.366705
0.563958 0.795590 0.359777
0.640620 0.796872 0.351110
0.715694 0.797482 0.339086
0.789944 0.798459 0.324498
0.862242 0.799130 0.305791
0.917967 0.787045 0.290257
0.967132 0.771023 0.264103
1.000000 0.753536 0.230259
1.000000 0.738857 0.171267
0.153658 0.852354 0.432380
0.172854 0.849424 0.426734
0.218723 0.847959 0.422950
0.281682 0.847562 0.420172
0.352575 0.847929 0.417548
0.426581 0.848478 0.414069
0.502403 0.849393 0.409888
0.577111 0.849882 0.403449
0.648737 0.850156 0.394507
0.719997 0.850248 0.382971
0.791012 0.850584 0.369207
0.860807 0.850889 0.351873
0.929839 0.851713 0.330999
0.977417 0.834684 0.312657
1.000000 0.816220 0.282414
1.000000 0.795377 0.239322
0.272251 0.907347 0.486702
0.279332 0.904936 0.480842
0.305211 0.903624 0.476844
0.349035 0.903227 0.473945
0.404517 0.903471 0.471717
0.466346 0.903777 0.468513
0.532341 0.904295 0.464576
0.600427 0.904753 0.459083
0.667079 0.905303 0.451667
0.733700 0.905882 0.441840
0.800626 0.906645 0.429633
0.867155 0.907286 0.413672
0.933867 0.908415 0.394507
0.997498 0.906737 0.370397
1.000000 0.887694 0.348180
1.000000 0.866972 0.312810
0.000000 0.097749 0.248905
0.000000 0.085084 0.242618
0.129671 0.084535 0.229953
0.234043 0.088167 0.214328
0.329900 0.085389 0.201968
0.413306 0.079377 0.180392
0.494209 0.081941 0.154208
0.570550 0.108705 0.136172
0.645472 0.132479 0.115877
0.719844 0.154452 0.091707
0.788144 0.171481 0.050263
0.851194 0.186923 0.000000
0.911742 0.201663 0.000000
0.971435 0.216983 0.000000
1.000000 0.232425 0.000000
1.000000 0.247044 0.000000
0.000000 0.133730 0.244358
0.000000 0.126040 0.237461
0.131228 0.123873 0.227543
0.230747 0.125734 0.214908
0.323095 0.122957 0.203281
0.409705 0.117586 0.184146
0.490761 0.123110 0.161868
0.568170 0.140047 0.143679
0.645106 0.157412 0.123903
0.720424 0.173129 0.097047
0.788479 0.186526 0.054292
0.851194 0.199771 0.000000
0.911650 0.212924 0.000000
0.970794 0.226810 0.000000
1.000000 0.241032 0.000000
1.000000 0.254978 0.000000
0.000000 0.172488 0.241184
0.000000 0.169680 0.235538
0.130648 0.167178 0.228519
0.229129 0.169711 0.219059
0.319402 0.167758 0.207858
0.405829 0.164981 0.189609
0.486824 0.172061 0.173251
0.566308 0.181979 0.155550
0.645106 0.191348 0.132540
0.720546 0.201266 0.102571
0.787411 0.211337 0.061860
0.849638 0.221592 0.000000
0.910399 0.232303 0.000000
0.969635 0.243992 0.000000
1.000000 0.256291 0.000000
1.000000 0.268650 0.000000
0.000000 0.218814 0.242588
0.000000 0.217563 0.238560
0.130373 0.217227 0.232792
0.226200 0.219608 0.225223
0.314611 0.218143 0.213321
0.399207 0.219150 0.199222
0.482094 0.222477 0.182345
0.563897 0.227634 0.163088
0.642298 0.232975 0.139590
0.717311 0.239261 0.110933
0.784268 0.245792 0.072602
0.847166 0.252842 0.007202
0.909209 0.261021 0.000000
0.967803 0.269810 0.000000
1.000000 0.278996 0.000000
1.000000 0.288884 0.000000
0.000000 0.267582 0.246098
0.000000 0.268528 0.244053
0.123781 0.269718 0.239475
0.220188 0.271519 0.230198
0.308507 0.271824 0.221256
0.393500 0.272587 0.207492
0.476753 0.274601 0.191318
0.558892 0.277531 0.172488
0.637995 0.280613 0.149966
0.713832 0.284367 0.122927
0.781918 0.288121 0.088411
0.847623 0.293034 0.029908
0.910491 0.298650 0.000000
0.970367 0.304997 0.000000
1.000000 0.311772 0.000000
1.000000 0.318822 0.000000
0.000000 0.325444 0.258213
0.000000 0.326604 0.255833
0.114412 0.328069 0.249668
0.214847 0.329534 0.240116
0.306676 0.330541 0.232151
0.390387 0.331701 0.221256
0.474952 0.332738 0.204837
0.556420 0.333013 0.186557
0.635859 0.333989 0.165072
0.711238 0.335241 0.139681
0.779843 0.336309 0.108309
0.845762 0.338476 0.060548
0.908476 0.341192 0.000000
0.968322 0.344701 0.000000
1.000000 0.348547 0.000000
1.000000 0.353002 0.000000
0.000000 0.385870 0.270451
0.000000 0.387213 0.267369
0.095888 0.388739 0.260716
0.207401 0.390112 0.252781
0.303441 0.391272 0.245884
0.388373 0.392676 0.236515
0.471992 0.393256 0.223331
0.555444 0.392798 0.204868
0.633600 0.390845 0.184115
0.707485 0.389105 0.160250
0.776211 0.387793 0.131716
0.842374 0.387549 0.091493
0.905394 0.387854 0.015991
