luts/Columbia ● 16.cube
# Created by Adobe Lightroom plugin Export LUT (1.16.0)
# www.johnrellis.com/lightroom/exportlut.htm
# Preset: Columbia ●
# Color profile: C:\Program Files (x86)\Common Files\Adobe\Color\Profiles\Recommended\sRGB Color Space Profile.icm
LUT_3D_SIZE 6
DOMAIN_MIN 0.0 0.0 0.0
DOMAIN_MAX 1.0 1.0 1.0
0.025666 0.010040 0.020050
0.302556 0.000000 0.003662
0.516533 0.000000 0.000000
0.732692 0.006958 0.000000
0.908202 0.021607 0.000000
1.000000 0.000000 0.000000
0.058930 0.180148 0.047425
0.275853 0.180575 0.014771
0.513085 0.174044 0.000000
0.728664 0.177646 0.000000
0.901061 0.165591 0.000000
1.000000 0.132631 0.000000
0.108766 0.333440 0.094423
0.274266 0.339422 0.084230
0.503624 0.348425 0.004150
0.737301 0.342840 0.000000
0.913268 0.319982 0.000000
1.000000 0.288579 0.000000
0.144259 0.477882 0.128542
0.277440 0.482277 0.121645
0.488624 0.497017 0.097414
0.715114 0.503685 0.000000
0.914366 0.481422 0.000000
1.000000 0.435065 0.000000
0.153780 0.638148 0.139834
0.284520 0.643580 0.136172
0.492683 0.656611 0.121096
0.723903 0.674220 0.076692
0.915373 0.649622 0.000000
1.000000 0.599084 0.000000
0.154116 0.838773 0.147585
0.287816 0.834958 0.131319
0.503593 0.840116 0.110872
0.733883 0.848112 0.034821
0.968170 0.855589 0.000000
1.000000 0.777279 0.000000
0.000000 0.164218 0.299077
0.230350 0.099336 0.242374
0.484077 0.075624 0.167788
0.710323 0.089113 0.105837
0.895720 0.101991 0.000000
1.000000 0.094759 0.000000
0.000000 0.245457 0.240421
0.243870 0.223148 0.219669
0.487434 0.200626 0.174319
0.714748 0.191440 0.105470
0.896025 0.185672 0.000000
1.000000 0.174319 0.000000
0.168032 0.356115 0.220829
0.240299 0.358495 0.216342
0.485206 0.362524 0.196536
0.721920 0.343450 0.102235
0.903014 0.320592 0.000000
1.000000 0.298833 0.000000
0.167208 0.491981 0.224094
0.245579 0.494728 0.221836
0.475013 0.508019 0.213657
0.704768 0.512718 0.176883
0.907652 0.486061 0.000000
1.000000 0.435554 0.000000
0.128878 0.646143 0.223972
0.244633 0.649714 0.222416
0.474983 0.662318 0.218326
0.713588 0.679652 0.204959
0.910155 0.657588 0.135012
1.000000 0.601526 0.000000
0.000000 0.841337 0.224613
0.230961 0.838010 0.214389
0.479438 0.843198 0.205814
0.720607 0.850889 0.180240
0.959075 0.857877 0.083375
1.000000 0.779507 0.000000
0.000000 0.302129 0.516411
0.000000 0.257633 0.482582
0.406683 0.210361 0.422950
0.658076 0.211551 0.368414
0.871489 0.199619 0.308141
1.000000 0.174105 0.231876
0.000000 0.354803 0.478737
0.000000 0.331670 0.461555
0.415473 0.287175 0.415045
0.659571 0.283421 0.368780
0.869322 0.262669 0.311925
1.000000 0.218143 0.220859
0.000000 0.440620 0.423468
0.154665 0.433478 0.416724
0.434913 0.409491 0.394049
0.675959 0.392370 0.359289
0.876616 0.373114 0.312047
1.000000 0.330022 0.213596
0.205295 0.520562 0.362158
0.297948 0.525811 0.376501
0.423560 0.535149 0.384253
0.676783 0.544213 0.380896
0.890471 0.513451 0.311986
1.000000 0.460029 0.193149
0.243748 0.663355 0.372503
0.289799 0.666041 0.372412
0.409857 0.674617 0.372747
0.678767 0.692836 0.379004
0.892638 0.682002 0.363500
1.000000 0.619165 0.155917
0.139834 0.845762 0.360632
0.199893 0.843046 0.352667
0.382727 0.848356 0.350439
0.675319 0.857237 0.348791
0.930541 0.864775 0.325536
1.000000 0.793393 0.114443
0.000000 0.410193 0.681483
0.000000 0.394995 0.671321
0.176852 0.345556 0.645380
0.583490 0.332341 0.602167
0.805112 0.341741 0.539971
0.987366 0.436835 0.537499
0.000000 0.455512 0.671382
0.000000 0.444099 0.663600
0.282475 0.416571 0.636957
0.588373 0.381903 0.596521
0.803525 0.386664 0.540581
0.982391 0.463508 0.537865
0.000000 0.530053 0.636347
0.000000 0.527062 0.633478
0.361791 0.517693 0.622797
0.601770 0.482460 0.582757
0.807919 0.488960 0.548363
1.000000 0.490974 0.520836
0.000000 0.624628 0.596063
0.000000 0.621668 0.593256
0.387610 0.612726 0.584649
0.621668 0.591730 0.564538
0.845029 0.581415 0.539818
1.000000 0.545190 0.482765
0.000000 0.685695 0.485939
0.202243 0.688411 0.494453
0.429999 0.695888 0.524010
0.602838 0.709346 0.548180
0.856382 0.721523 0.560540
1.000000 0.666896 0.466041
0.088624 0.854520 0.501640
0.235203 0.850553 0.505272
0.405646 0.855375 0.516289
0.567620 0.866087 0.517571
0.872984 0.875853 0.523064
1.000000 0.827451 0.461982
0.000000 0.498238 0.812680
0.000000 0.497078 0.809720
0.000000 0.505791 0.798367
0.480079 0.496559 0.782193
0.747524 0.502800 0.754513
0.940887 0.519646 0.713069
0.000000 0.531090 0.809598
0.000000 0.530755 0.806851
0.000000 0.540337 0.796689
0.506126 0.531884 0.779294
0.750240 0.528923 0.750759
0.936553 0.535760 0.707973
0.000000 0.596460 0.796048
0.000000 0.597986 0.794980
0.233524 0.610101 0.790799
0.564996 0.610834 0.771847
0.762173 0.592309 0.746304
0.941863 0.593072 0.708492
0.000000 0.689815 0.779324
0.000000 0.690364 0.778958
0.273533 0.692256 0.776944
0.604334 0.701289 0.773281
0.782315 0.674342 0.742702
0.960174 0.681636 0.718135
0.000000 0.794888 0.755764
0.000000 0.794339 0.755184
0.322210 0.792386 0.753170
0.591089 0.786618 0.747433
0.800931 0.766659 0.728206
1.000000 0.753597 0.702785
0.000000 0.892638 0.652674
0.000000 0.888396 0.644312
0.000000 0.884672 0.629664
0.516472 0.883665 0.662562
0.760220 0.890898 0.692195
1.000000 0.877165 0.694606
0.000000 0.568109 0.917510
0.000000 0.578332 0.915862
0.000000 0.625208 0.908812
0.592004 0.700282 0.896696
0.741390 0.700862 0.891569
0.902708 0.710414 0.882231
0.000000 0.586236 0.916777
0.000000 0.596155 0.915068
0.000000 0.640284 0.907774
0.593194 0.708186 0.895628
0.742641 0.708095 0.889067
0.899992 0.711543 0.878447
0.000000 0.622766 0.915404
0.000000 0.631189 0.914214
0.000000 0.671870 0.908232
0.597650 0.734066 0.896849
0.762631 0.744045 0.889403
0.910277 0.744350 0.880217
0.000000 0.693263 0.913603
0.000000 0.692683 0.913390
0.000000 0.696498 0.911986
0.546990 0.762844 0.900725
0.790860 0.796933 0.890471
0.925536 0.791897 0.882353
0.000000 0.809079 0.907469
0.000000 0.809506 0.907042
0.000000 0.813382 0.905425
0.426001 0.824094 0.901884
0.796841 0.854673 0.894438
0.947753 0.856657 0.885679
0.000000 0.950683 0.897704
0.000000 0.950256 0.896818
0.000000 0.949767 0.895171
0.325902 0.948241 0.892454
0.717433 0.944671 0.889311
0.974853 0.936309 0.886992
