luts/Columbia ● 16.cube
# Created by Adobe Lightroom plugin Export LUT (1.16.0)
# www.johnrellis.com/lightroom/exportlut.htm
# Preset: Columbia ●
# Color profile: C:\Program Files (x86)\Common Files\Adobe\Color\Profiles\Recommended\sRGB Color Space Profile.icm
LUT_3D_SIZE 16
DOMAIN_MIN 0.0 0.0 0.0
DOMAIN_MAX 1.0 1.0 1.0
0.025666 0.010040 0.020050
0.118746 0.007294 0.017609
0.219303 0.000885 0.011902
0.302556 0.000000 0.003662
0.374365 0.000000 0.000000
0.446509 0.000000 0.000000
0.516533 0.000000 0.000000
0.591241 0.000000 0.000000
0.663172 0.000000 0.000000
0.732692 0.006958 0.000000
0.795499 0.015930 0.000000
0.853330 0.021332 0.000000
0.908202 0.021607 0.000000
0.962860 0.013519 0.000000
1.000000 0.000000 0.000000
1.000000 0.000000 0.000000
0.029755 0.074891 0.025238
0.126009 0.071168 0.015747
0.217441 0.066438 0.002289
0.297948 0.061158 0.000000
0.370611 0.055390 0.000000
0.442054 0.052125 0.000000
0.516533 0.051484 0.000000
0.591211 0.054719 0.000000
0.662165 0.059480 0.000000
0.732113 0.063600 0.000000
0.794644 0.067567 0.000000
0.852262 0.068482 0.000000
0.906645 0.065339 0.000000
0.961395 0.057313 0.000000
1.000000 0.041016 0.000000
1.000000 0.011872 0.000000
0.043122 0.128786 0.032746
0.123659 0.126619 0.027619
0.203250 0.126345 0.011353
0.292149 0.126040 0.000000
0.367254 0.117556 0.000000
0.442145 0.117372 0.000000
0.516472 0.118288 0.000000
0.589868 0.118959 0.000000
0.661097 0.120058 0.000000
0.731777 0.121431 0.000000
0.793606 0.121279 0.000000
0.850828 0.119356 0.000000
0.904753 0.114656 0.000000
0.960021 0.107576 0.000000
1.000000 0.095460 0.000000
1.000000 0.076112 0.000000
0.058930 0.180148 0.047425
0.126040 0.178897 0.043702
0.196078 0.178470 0.036561
0.275853 0.180575 0.014771
0.363439 0.183169 0.000000
0.438880 0.177584 0.000000
0.513085 0.174044 0.000000
0.586236 0.176730 0.000000
0.659266 0.177798 0.000000
0.728664 0.177646 0.000000
0.789517 0.175204 0.000000
0.846189 0.171267 0.000000
0.901061 0.165591 0.000000
0.955261 0.158267 0.000000
1.000000 0.147311 0.000000
1.000000 0.132631 0.000000
0.076753 0.230442 0.064393
0.132937 0.231205 0.062013
0.199069 0.233280 0.056672
0.272709 0.235264 0.047517
0.352605 0.237400 0.017090
0.443549 0.242924 0.000000
0.519219 0.238346 0.000000
0.596246 0.233616 0.000000
0.669947 0.233097 0.000000
0.737972 0.234134 0.000000
0.797940 0.231327 0.000000
0.855192 0.226017 0.000000
0.910918 0.219760 0.000000
0.965423 0.211856 0.000000
1.000000 0.201328 0.000000
1.000000 0.187320 0.000000
0.093904 0.281926 0.080232
0.141909 0.283757 0.078523
0.203220 0.285985 0.074556
0.273136 0.287938 0.067536
0.343572 0.287022 0.057710
0.426520 0.291691 0.013367
0.519768 0.299229 0.000000
0.596551 0.296056 0.000000
0.671504 0.291051 0.000000
0.740627 0.283238 0.000000
0.799344 0.280278 0.000000
0.856657 0.277806 0.000000
0.911711 0.270848 0.000000
0.965606 0.262516 0.000000
1.000000 0.252018 0.000000
1.000000 0.238682 0.000000
0.108766 0.333440 0.094423
0.151095 0.335363 0.093263
0.207401 0.337285 0.089876
0.274266 0.339422 0.084230
0.346746 0.342229 0.074800
0.415930 0.339666 0.066743
0.503624 0.348425 0.004150
0.598413 0.356725 0.000000
0.670436 0.351171 0.000000
0.737301 0.342840 0.000000
0.799496 0.332830 0.000000
0.858762 0.324224 0.000000
0.913268 0.319982 0.000000
0.966430 0.312047 0.000000
1.000000 0.301427 0.000000
1.000000 0.288579 0.000000
0.122560 0.383398 0.107179
0.160220 0.386023 0.106447
0.213016 0.388800 0.103914
0.277134 0.391363 0.099336
0.347417 0.394171 0.091646
0.420905 0.397070 0.079652
0.488167 0.391821 0.072969
0.574548 0.400244 0.000000
0.664302 0.406500 0.000000
0.732570 0.399390 0.000000
0.795377 0.389685 0.000000
0.855772 0.379278 0.000000
0.912871 0.367651 0.000000
0.965881 0.359197 0.000000
1.000000 0.348547 0.000000
1.000000 0.336400 0.000000
0.133089 0.426276 0.117433
0.165408 0.427375 0.116213
0.213870 0.429938 0.114321
0.274418 0.433021 0.110658
0.342229 0.436957 0.104860
0.414557 0.441657 0.095735
0.490394 0.447364 0.081880
0.559197 0.443275 0.079438
0.646632 0.453346 0.000000
0.730922 0.456641 0.000000
0.798886 0.449378 0.000000
0.860136 0.439033 0.000000
0.917723 0.427192 0.000000
0.972198 0.414130 0.000000
1.000000 0.398352 0.000000
1.000000 0.385107 0.000000
0.144259 0.477882 0.128542
0.174136 0.478126 0.127291
0.219425 0.479774 0.125063
0.277440 0.482277 0.121645
0.342870 0.485969 0.116426
0.413642 0.490761 0.108644
0.488624 0.497017 0.097414
0.566461 0.503960 0.080934
0.634058 0.497505 0.083772
0.715114 0.503685 0.000000
0.791684 0.502495 0.000000
0.856809 0.493538 0.000000
0.914366 0.481422 0.000000
0.969879 0.468666 0.000000
1.000000 0.454841 0.000000
1.000000 0.435065 0.000000
0.151827 0.532586 0.135897
0.180667 0.532982 0.134798
0.224582 0.534234 0.132967
0.281437 0.536522 0.129702
0.346349 0.539910 0.124758
0.416205 0.544152 0.117922
0.489693 0.549462 0.108095
0.565759 0.555322 0.094301
0.643671 0.561486 0.074800
0.705470 0.549065 0.087648
0.779843 0.551110 0.000000
0.848569 0.545251 0.000000
0.912230 0.534966 0.000000
0.968200 0.522210 0.000000
1.000000 0.508202 0.000000
1.000000 0.491524 0.000000
0.156130 0.588678 0.140932
0.184482 0.588922 0.139895
0.228122 0.589929 0.138186
0.284764 0.591608 0.135286
0.348791 0.594049 0.130495
0.417884 0.597284 0.124178
0.490242 0.601373 0.115755
0.564752 0.606165 0.103243
0.641413 0.611597 0.086183
0.711238 0.610040 0.072206
0.773861 0.598627 0.080934
0.841978 0.596216 0.000000
0.904997 0.586664 0.000000
0.966369 0.574395 0.000000
1.000000 0.560388 0.000000
1.000000 0.545495 0.000000
0.153780 0.638148 0.139834
0.182437 0.638941 0.139315
0.227390 0.640955 0.138186
0.284520 0.643580 0.136172
0.349737 0.647333 0.132998
0.419348 0.651484 0.128145
0.492683 0.656611 0.121096
0.568017 0.661982 0.111299
0.645502 0.668177 0.097597
0.723903 0.674220 0.076692
0.789914 0.668086 0.072206
0.851896 0.656397 0.073304
0.915373 0.649622 0.000000
0.972229 0.634791 0.000000
1.000000 0.617334 0.000000
1.000000 0.599084 0.000000
0.159091 0.705806 0.146731
0.185214 0.702419 0.142580
0.228641 0.701747 0.139773
0.286076 0.703059 0.137026
0.351873 0.705928 0.133944
0.422095 0.709285 0.129061
0.495216 0.713466 0.122438
0.570306 0.718013 0.112856
0.647272 0.723262 0.099825
0.724514 0.727962 0.078920
0.802762 0.732998 0.044068
0.862425 0.720119 0.049073
0.919127 0.704494 0.020478
0.975219 0.691066 0.000000
1.000000 0.670954 0.000000
1.000000 0.650111 0.000000
0.156741 0.769558 0.147127
0.183261 0.766445 0.142123
0.227970 0.765286 0.138186
0.286839 0.765805 0.134707
0.353491 0.767666 0.130983
0.424475 0.770169 0.125765
0.498268 0.773495 0.118837
0.573297 0.776822 0.108186
0.649714 0.780514 0.092592
0.726345 0.783932 0.067384
0.803555 0.787381 0.020020
0.880858 0.790494 0.000000
0.934142 0.770840 0.000000
0.985779 0.750759 0.000000
1.000000 0.731655 0.000000
1.000000 0.705928 0.000000
0.154116 0.838773 0.147585
0.180758 0.835966 0.140841
0.226993 0.834745 0.135683
0.287816 0.834958 0.131319
0.356420 0.836179 0.126680
0.428840 0.837888 0.119905
0.503593 0.840116 0.110872
0.579492 0.842527 0.096864
0.656458 0.845335 0.075227
0.733883 0.848112 0.034821
0.811795 0.850858 0.000000
0.889677 0.853178 0.000000
0.968170 0.855589 0.000000
1.000000 0.826658 0.000000
1.000000 0.801816 0.000000
1.000000 0.777279 0.000000
0.000000 0.048768 0.110689
0.102571 0.038880 0.107332
0.206973 0.030335 0.089570
0.293095 0.016419 0.059907
0.362188 0.032380 0.046357
0.434699 0.038697 0.019104
0.508476 0.048615 0.000000
0.583429 0.059083 0.000000
0.655634 0.070253 0.000000
0.726833 0.076234 0.000000
0.790799 0.077790 0.000000
0.848753 0.076570 0.000000
0.903532 0.070985 0.000000
0.958404 0.059663 0.000000
1.000000 0.039368 0.000000
1.000000 0.004456 0.000000
0.000000 0.105623 0.109224
0.111604 0.094148 0.099062
0.203586 0.085451 0.084199
0.285893 0.080415 0.067414
0.360662 0.078828 0.046784
0.434455 0.080323 0.020356
0.510063 0.084871 0.000000
0.584863 0.091707 0.000000
0.657008 0.098939 0.000000
0.728847 0.106203 0.000000
0.791928 0.106477 0.000000
0.849271 0.104036 0.000000
0.903349 0.098207 0.000000
0.957916 0.088655 0.000000
1.000000 0.072511 0.000000
1.000000 0.044221 0.000000
0.065736 0.146792 0.098848
0.112428 0.145663 0.098909
0.199130 0.141726 0.090059
0.285618 0.134371 0.067933
0.362097 0.128450 0.047944
0.437995 0.128328 0.021057
0.512871 0.130159 0.000000
0.586816 0.133394 0.000000
0.660670 0.138186 0.000000
0.731075 0.143404 0.000000
0.792142 0.144778 0.000000
0.848447 0.141207 0.000000
0.902403 0.134859 0.000000
0.957153 0.126284 0.000000
1.000000 0.113375 0.000000
1.000000 0.093202 0.000000
0.084260 0.195865 0.105470
0.117037 0.194339 0.103029
0.195010 0.192874 0.098177
0.274784 0.191196 0.085817
0.360540 0.188907 0.053254
0.438056 0.180880 0.021912
0.512657 0.178805 0.000000
0.587274 0.180789 0.000000
0.660792 0.183383 0.000000
0.729549 0.186007 0.000000
0.790158 0.187015 0.000000
0.846372 0.185428 0.000000
0.902220 0.179324 0.000000
0.956146 0.170748 0.000000
1.000000 0.158785 0.000000
1.000000 0.142702 0.000000
0.091432 0.239719 0.109865
0.123140 0.239933 0.108339
0.193179 0.240085 0.104738
0.267826 0.240635 0.098543
0.344762 0.239719 0.081239
0.433143 0.241794 0.030182
0.510002 0.236149 0.000000
0.588006 0.230228 0.000000
0.661097 0.231022 0.000000
0.729854 0.232151 0.000000
0.791012 0.231815 0.000000
0.849332 0.231022 0.000000
0.906126 0.227390 0.000000
0.961120 0.219089 0.000000
1.000000 0.208072 0.000000
1.000000 0.193301 0.000000
0.097627 0.288121 0.116915
0.131685 0.288853 0.115999
0.195468 0.289647 0.112947
0.267063 0.290929 0.107790
0.341894 0.292546 0.099886
0.420447 0.293095 0.075441
0.511284 0.297765 0.000000
0.587945 0.293217 0.000000
0.663447 0.287510 0.000000
0.732815 0.280613 0.000000
0.793149 0.278355 0.000000
0.851469 0.276249 0.000000
0.907256 0.273625 0.000000
0.961303 0.266789 0.000000
1.000000 0.256077 0.000000
1.000000 0.242435 0.000000
0.103395 0.338598 0.125612
0.141146 0.339910 0.124910
0.200320 0.340917 0.122164
0.269139 0.342290 0.117739
0.342290 0.344427 0.111055
0.411749 0.341711 0.104891
0.497139 0.348150 0.066377
0.589990 0.354559 0.000000
0.663386 0.349004 0.000000
0.731319 0.340459 0.000000
0.794034 0.329961 0.000000
0.853269 0.322179 0.000000
0.908293 0.318212 0.000000
0.961730 0.313817 0.000000
1.000000 0.303563 0.000000
1.000000 0.290776 0.000000
0.109071 0.386145 0.133761
0.149813 0.388037 0.132998
0.204471 0.389349 0.130983
0.270176 0.391180 0.126925
0.340948 0.393530 0.120943
0.415045 0.396643 0.112551
0.483406 0.392432 0.107637
0.569207 0.400153 0.053376
0.658961 0.405524 0.000000
0.727260 0.397986 0.000000
0.790433 0.387915 0.000000
0.851347 0.377173 0.000000
0.909209 0.365240 0.000000
0.962158 0.357671 0.000000
1.000000 0.349859 0.000000
1.000000 0.337469 0.000000
0.121981 0.431128 0.140993
0.157687 0.431800 0.140139
0.207645 0.433326 0.138582
0.269749 0.435554 0.135225
0.338293 0.438819 0.130556
0.411017 0.443183 0.123415
0.487434 0.448737 0.113710
0.556573 0.444800 0.111849
0.643153 0.453925 0.038209
0.727291 0.456550 0.000000
0.795224 0.448859 0.000000
0.856779 0.438270 0.000000
0.914855 0.425879 0.000000
0.970184 0.412696 0.000000
1.000000 0.398657 0.000000
1.000000 0.386603 0.000000
0.133639 0.480598 0.149325
0.165988 0.481025 0.148287
0.213046 0.482307 0.146609
0.272465 0.484627 0.143771
0.339300 0.488228 0.139528
0.410803 0.492653 0.133455
0.485695 0.498207 0.124453
0.563531 0.504753 0.112306
0.630976 0.498238 0.114778
0.711452 0.503716 0.019562
0.787747 0.502129 0.000000
0.853361 0.492988 0.000000
0.911742 0.480964 0.000000
0.968200 0.467994 0.000000
1.000000 0.454017 0.000000
1.000000 0.436561 0.000000
0.140475 0.534630 0.155154
0.171633 0.535515 0.154330
0.217716 0.536706 0.152621
0.276371 0.538689 0.149966
0.342412 0.541650 0.145846
0.412665 0.545403 0.140169
0.486458 0.549981 0.132296
0.562493 0.555474 0.121462
0.640833 0.561791 0.106661
0.702449 0.549371 0.116670
0.776516 0.551049 0.000000
0.845487 0.545037 0.000000
0.909575 0.534813 0.000000
0.966217 0.521874 0.000000
1.000000 0.507561 0.000000
1.000000 0.492042 0.000000
0.143771 0.589563 0.158968
0.174838 0.589990 0.158114
0.220432 0.590753 0.156497
0.278538 0.592370 0.153964
0.344030 0.594781 0.150118
0.414191 0.598016 0.144991
0.487037 0.602167 0.137881
0.562036 0.606806 0.128206
0.638666 0.611902 0.115023
0.709529 0.611078 0.103365
0.771054 0.598718 0.112154
0.839109 0.596124 0.000000
0.902068 0.586358 0.000000
0.963622 0.573785 0.000000
1.000000 0.559380 0.000000
1.000000 0.544305 0.000000
0.141482 0.640497 0.158083
0.173037 0.641199 0.157412
0.219577 0.642969 0.156588
0.278782 0.645289 0.154726
0.345006 0.648646 0.152071
0.415778 0.652644 0.147982
0.489906 0.657771 0.142519
0.565789 0.663081 0.134615
0.643458 0.669062 0.123995
0.721920 0.674983 0.108492
0.788418 0.669123 0.105196
0.850370 0.657313 0.108339
0.914122 0.650538 0.000000
0.971191 0.635706 0.000000
1.000000 0.618097 0.000000
1.000000 0.599390 0.000000
0.145541 0.707240 0.163912
0.174228 0.704158 0.160220
0.220371 0.703517 0.157717
0.280186 0.704768 0.155367
0.347326 0.707454 0.152895
0.418311 0.710658 0.148806
0.492164 0.714504 0.143252
0.567834 0.718868 0.135378
0.644953 0.723903 0.125063
0.722408 0.728450 0.109163
0.800778 0.733333 0.085847
0.861051 0.721035 0.088594
0.917967 0.705501 0.073915
0.974426 0.692134 0.000000
1.000000 0.671992 0.000000
1.000000 0.650660 0.000000
0.142092 0.770504 0.164004
0.171267 0.767605 0.159426
0.218570 0.766629 0.156130
0.279942 0.767208 0.153262
0.348516 0.769039 0.150210
0.420569 0.771420 0.145968
0.495155 0.774533 0.139864
0.570672 0.777676 0.131075
0.647272 0.781155 0.118502
0.724178 0.784360 0.099733
0.801633 0.787747 0.069642
0.879057 0.790860 0.008637
0.933013 0.771725 0.029389
0.984802 0.751675 0.000000
1.000000 0.732631 0.000000
1.000000 0.706722 0.000000
0.136568 0.839567 0.164096
0.166751 0.836881 0.158053
0.216007 0.835752 0.153567
0.279973 0.835966 0.149844
0.350591 0.837217 0.146090
0.424262 0.838926 0.140414
0.500023 0.841093 0.132937
0.576623 0.843412 0.121248
0.653986 0.846036 0.104616
0.731807 0.848692 0.077455
0.809934 0.851286 0.022309
0.887877 0.853483 0.000000
0.966339 0.855680 0.000000
1.000000 0.827237 0.000000
1.000000 0.801999 0.000000
1.000000 0.777432 0.000000
0.000000 0.113222 0.217472
0.000000 0.086763 0.203708
0.171695 0.065888 0.181521
0.268132 0.061433 0.155154
0.347967 0.056367 0.129641
0.422004 0.046174 0.105196
0.495888 0.058381 0.088594
0.570855 0.067536 0.065126
0.645167 0.072419 0.021546
0.719051 0.081575 0.000000
0.784421 0.091127 0.000000
0.843473 0.100771 0.000000
0.899229 0.107729 0.000000
0.955596 0.102266 0.000000
1.000000 0.084260 0.000000
1.000000 0.053407 0.000000
0.000000 0.144594 0.199100
0.051850 0.129335 0.186893
0.172335 0.113680 0.170352
0.262058 0.111086 0.152346
0.342840 0.098116 0.129397
0.419471 0.096162 0.112734
0.496345 0.096040 0.093233
0.572717 0.096773 0.064515
0.648096 0.100038 0.020813
0.721645 0.106203 0.000000
0.785916 0.113436 0.000000
0.844297 0.119783 0.000000
0.899565 0.124788 0.000000
0.955261 0.121279 0.000000
1.000000 0.105165 0.000000
1.000000 0.080018 0.000000
0.000000 0.180148 0.179110
0.088533 0.171664 0.171328
0.180423 0.161166 0.161685
0.264805 0.152468 0.147799
0.344854 0.145266 0.132326
0.423529 0.140414 0.114412
0.500755 0.137636 0.092500
0.576379 0.136721 0.063233
0.652796 0.138674 0.018738
0.724392 0.141909 0.000000
0.786557 0.145327 0.000000
0.843778 0.148898 0.000000
0.899077 0.151736 0.000000
0.954467 0.150118 0.000000
1.000000 0.136049 0.000000
1.000000 0.115358 0.000000
0.084077 0.208011 0.152773
0.134646 0.207279 0.158724
0.178866 0.207004 0.160067
0.263157 0.204349 0.153017
0.348363 0.195956 0.130983
0.426947 0.186862 0.110872
0.502373 0.184237 0.089693
0.579248 0.183841 0.061067
0.653712 0.183993 0.016052
0.723751 0.184939 0.000000
0.785306 0.185306 0.000000
0.842405 0.185977 0.000000
0.899260 0.187137 0.000000
0.953582 0.186862 0.000000
1.000000 0.174350 0.000000
1.000000 0.157137 0.000000
0.130770 0.250034 0.164920
0.145205 0.250584 0.161501
0.178134 0.250767 0.159213
0.258946 0.250950 0.155032
0.337316 0.248783 0.144411
0.423835 0.246372 0.115724
0.502708 0.237705 0.088869
0.580285 0.232395 0.056977
0.654200 0.232090 0.011627
0.724147 0.231876 0.000000
0.786404 0.230533 0.000000
0.846128 0.229557 0.000000
0.903716 0.228702 0.000000
0.959167 0.227390 0.000000
1.000000 0.218967 0.000000
1.000000 0.203220 0.000000
0.129610 0.297185 0.164279
0.146456 0.297826 0.163577
0.180911 0.298344 0.161624
0.258213 0.299229 0.158389
0.336217 0.300847 0.152865
0.414618 0.299931 0.138064
0.504082 0.301152 0.097658
0.582177 0.294713 0.060700
0.658747 0.287114 0.006928
0.727779 0.281468 0.000000
0.789303 0.278477 0.000000
0.848600 0.275578 0.000000
0.905211 0.272465 0.000000
0.959716 0.269322 0.000000
1.000000 0.263798 0.000000
1.000000 0.249424 0.000000
0.132601 0.345861 0.168124
0.148135 0.347082 0.167636
0.185611 0.347753 0.165988
0.259770 0.349126 0.163149
0.335882 0.351110 0.158358
0.410163 0.350744 0.153109
0.492897 0.353674 0.130861
0.584497 0.357427 0.071717
0.658839 0.350469 0.013855
0.727657 0.340795 0.000000
0.791348 0.329168 0.000000
0.850523 0.322545 0.000000
0.906340 0.317754 0.000000
0.960266 0.312932 0.000000
1.000000 0.307500 0.000000
1.000000 0.295781 0.000000
0.133791 0.392340 0.171603
0.149142 0.393896 0.171633
0.190341 0.394934 0.170321
0.260410 0.396704 0.167697
0.334386 0.398932 0.163546
0.410376 0.401892 0.157656
0.480507 0.398444 0.153841
0.565576 0.404425 0.121828
0.655329 0.408362 0.035584
0.723812 0.399725 0.000000
0.787869 0.388952 0.000000
0.849485 0.377203 0.000000
0.907988 0.364172 0.000000
0.960876 0.357244 0.000000
1.000000 0.350469 0.000000
1.000000 0.340917 0.000000
0.135317 0.436347 0.175662
0.149233 0.436713 0.175174
0.194186 0.437934 0.174075
0.260227 0.440162 0.171847
0.331426 0.443397 0.168612
0.406165 0.447639 0.163912
0.483680 0.453162 0.157351
0.554101 0.449836 0.156161
0.640101 0.457588 0.114107
0.724239 0.459358 0.003845
0.792386 0.450965 0.000000
0.854704 0.439643 0.000000
0.913390 0.426429 0.000000
0.969604 0.412146 0.000000
1.000000 0.398413 0.000000
1.000000 0.389380 0.000000
0.136233 0.484871 0.181369
0.149355 0.485115 0.180697
0.199557 0.486366 0.179599
0.263066 0.488716 0.177554
0.332586 0.492317 0.174624
0.405829 0.496712 0.170352
0.481880 0.502159 0.164065
0.560540 0.508537 0.155947
0.628870 0.502617 0.157809
0.709041 0.507134 0.104677
0.785336 0.504753 0.000000
0.851102 0.495094 0.000000
0.910246 0.482490 0.000000
0.967407 0.468666 0.000000
1.000000 0.453529 0.000000
1.000000 0.437324 0.000000
0.130465 0.538140 0.185489
0.152590 0.538811 0.185092
0.204013 0.540002 0.183780
0.266209 0.542046 0.181796
0.334844 0.544884 0.178866
0.407019 0.548577 0.174441
0.482033 0.553185 0.169009
0.559075 0.558618 0.161563
0.637964 0.564721 0.151553
0.700374 0.552972 0.159243
0.774258 0.553887 0.089265
0.843442 0.547539 0.000000
0.907927 0.536828 0.000000
0.965209 0.523339 0.000000
1.000000 0.508049 0.000000
1.000000 0.491524 0.000000
0.118868 0.591882 0.187716
0.154299 0.592309 0.187137
0.205234 0.593133 0.185977
0.267308 0.594751 0.183963
0.335851 0.597192 0.181216
0.407660 0.600488 0.177401
0.482185 0.604608 0.172335
0.558099 0.609125 0.165347
0.635401 0.614130 0.156130
0.708797 0.615198 0.147036
0.768948 0.601465 0.156771
0.837278 0.598718 0.057954
0.900420 0.588617 0.000000
0.962402 0.575647 0.000000
1.000000 0.560357 0.000000
1.000000 0.544091 0.000000
0.112764 0.642664 0.185977
0.150851 0.643336 0.185550
0.203281 0.644953 0.184939
0.266667 0.647272 0.183627
0.336065 0.650629 0.181765
0.408881 0.654597 0.179141
0.484321 0.659602 0.175296
0.561273 0.664912 0.169894
0.639826 0.670893 0.162753
0.718898 0.676814 0.152407
0.786648 0.671962 0.150118
0.848661 0.659998 0.155642
0.912657 0.653193 0.013642
0.970031 0.638025 0.000000
1.000000 0.619745 0.000000
1.000000 0.599908 0.000000
0.114961 0.708553 0.190799
0.149844 0.705592 0.187533
0.202487 0.705104 0.185550
0.266819 0.706294 0.183688
0.337407 0.708980 0.181765
0.410803 0.712093 0.178927
0.486152 0.715969 0.174990
0.562982 0.720363 0.169589
0.641016 0.725399 0.162203
0.719081 0.729946 0.151369
0.797879 0.734829 0.136629
0.859403 0.723445 0.138033
0.916350 0.707759 0.132143
0.973114 0.694362 0.000000
1.000000 0.673884 0.000000
1.000000 0.651545 0.000000
0.106203 0.771389 0.190219
0.143130 0.768582 0.186069
0.198337 0.767666 0.183291
0.265171 0.768276 0.180972
0.337316 0.770108 0.178683
0.411872 0.772519 0.175509
0.488411 0.775692 0.171359
0.565301 0.778805 0.164889
0.642847 0.782162 0.155917
0.720394 0.785428 0.142672
0.798398 0.788846 0.123934
0.876310 0.791958 0.094057
0.931487 0.773831 0.103548
0.983368 0.753689 0.055940
1.000000 0.734554 0.000000
1.000000 0.708125 0.000000
0.093385 0.840330 0.189670
0.132753 0.837675 0.184268
0.192294 0.836545 0.180331
0.263035 0.836820 0.177371
0.338140 0.838132 0.174563
0.414801 0.839841 0.170382
0.492500 0.842008 0.164736
0.570520 0.844266 0.156283
0.649073 0.846891 0.144167
0.727657 0.849546 0.126345
0.806363 0.852171 0.097414
0.884733 0.854337 0.036805
0.963592 0.856504 0.000000
1.000000 0.829068 0.000000
1.000000 0.803494 0.000000
1.000000 0.778256 0.000000
0.000000 0.164218 0.299077
0.000000 0.144137 0.287297
0.056947 0.102113 0.267643
0.230350 0.099336 0.242374
0.320714 0.099825 0.216159
0.401068 0.100374 0.196628
0.484077 0.075624 0.167788
0.561059 0.074586 0.148440
0.636164 0.079377 0.128328
0.710323 0.089113 0.105837
0.777096 0.094636 0.071626
0.837949 0.098817 0.012268
0.895720 0.101991 0.000000
0.953307 0.104982 0.000000
1.000000 0.106722 0.000000
1.000000 0.094759 0.000000
0.000000 0.185214 0.278935
0.000000 0.170565 0.268467
0.108461 0.147921 0.252293
0.230045 0.137148 0.233585
0.316320 0.134859 0.212406
0.400183 0.133944 0.197665
0.483711 0.113558 0.171389
0.560876 0.110079 0.152132
0.637903 0.111971 0.132753
0.712581 0.115145 0.108064
0.778561 0.116915 0.071504
0.838682 0.119142 0.011841
0.896208 0.120394 0.000000
0.952941 0.121920 0.000000
1.000000 0.122683 0.000000
1.000000 0.112612 0.000000
0.000000 0.211521 0.258396
0.000000 0.202762 0.250034
0.142611 0.191623 0.240391
0.235508 0.179294 0.226749
0.319036 0.177096 0.212741
0.404578 0.165377 0.193454
0.485023 0.157382 0.175662
0.563287 0.153872 0.157870
0.641413 0.150729 0.135409
0.715145 0.149508 0.107454
0.779141 0.149203 0.070649
0.838132 0.149172 0.009888
0.895689 0.148653 0.000000
0.952270 0.148135 0.000000
1.000000 0.147585 0.000000
1.000000 0.139559 0.000000
0.000000 0.245457 0.240421
0.057893 0.240085 0.235386
0.159060 0.232395 0.228428
0.243870 0.223148 0.219669
0.326879 0.214542 0.206149
0.407904 0.206638 0.190799
0.487434 0.200626 0.174319
0.566552 0.196689 0.155734
0.642817 0.193423 0.133272
0.714748 0.191440 0.105470
0.778134 0.189578 0.068910
0.837308 0.187472 0.007813
0.896025 0.185672 0.000000
0.951415 0.183169 0.000000
1.000000 0.180301 0.000000
1.000000 0.174319 0.000000
0.090089 0.261814 0.202182
0.132784 0.262058 0.203372
0.189059 0.263127 0.211368
0.239139 0.264408 0.215244
0.323705 0.262882 0.209201
0.410620 0.255100 0.188022
0.491371 0.244785 0.168460
0.568750 0.242191 0.151217
0.644312 0.239719 0.129946
0.715908 0.237675 0.103059
0.779629 0.234958 0.067109
0.841489 0.232486 0.005402
0.900633 0.229129 0.000000
0.957214 0.225284 0.000000
1.000000 0.220829 0.000000
1.000000 0.215122 0.000000
0.142336 0.307713 0.211398
0.171847 0.308873 0.216129
0.202518 0.310216 0.217624
0.239048 0.310704 0.215030
0.323919 0.312047 0.211398
0.404852 0.310918 0.202487
0.493446 0.308324 0.176394
0.573724 0.299199 0.152224
0.651301 0.290196 0.126680
0.720180 0.287236 0.100771
0.783200 0.283360 0.064820
0.844053 0.279240 0.001923
0.901946 0.274388 0.000000
0.957702 0.268803 0.000000
1.000000 0.262699 0.000000
1.000000 0.256229 0.000000
0.168032 0.356115 0.220829
0.179995 0.357183 0.219669
0.202243 0.357702 0.218448
0.240299 0.358495 0.216342
0.323339 0.360449 0.213443
0.405249 0.363500 0.209323
0.485206 0.362524 0.196536
0.575402 0.363043 0.162448
0.651362 0.354559 0.134127
0.721920 0.343450 0.102235
0.786374 0.332158 0.061494
0.845945 0.326696 0.000000
0.903014 0.320592 0.000000
