luts/Cumberland ●●● 16.cube
# Created by Adobe Lightroom plugin Export LUT (1.16.0)
# www.johnrellis.com/lightroom/exportlut.htm
# Preset: Cumberland ●●●
# Color profile: C:\Program Files (x86)\Common Files\Adobe\Color\Profiles\Recommended\sRGB Color Space Profile.icm
LUT_3D_SIZE 16
DOMAIN_MIN 0.0 0.0 0.0
DOMAIN_MAX 1.0 1.0 1.0
0.019745 0.019745 0.019745
0.442237 0.091737 0.000000
0.578759 0.127871 0.000000
0.621332 0.142916 0.000000
0.641535 0.152102 0.000000
0.668086 0.162600 0.000000
0.686702 0.171420 0.000000
0.719448 0.184543 0.000000
0.747250 0.196414 0.000000
0.778225 0.208316 0.000000
0.812802 0.220676 0.000000
0.849882 0.232609 0.000000
0.887510 0.243656 0.000000
0.937102 0.257023 0.000000
0.994079 0.271336 0.000000
1.000000 0.280858 0.000000
0.000000 0.191104 0.128389
0.366308 0.206882 0.015991
0.503624 0.206668 0.000000
0.574487 0.194705 0.000000
0.613367 0.187778 0.000000
0.644312 0.187655 0.000000
0.680537 0.193820 0.000000
0.715480 0.202914 0.000000
0.741634 0.209903 0.000000
0.774594 0.219394 0.000000
0.808896 0.229313 0.000000
0.844846 0.239200 0.000000
0.880186 0.248173 0.000000
0.929259 0.260502 0.000000
0.986481 0.274205 0.000000
1.000000 0.285283 0.000000
0.000000 0.271122 0.186374
0.280613 0.261845 0.144808
0.427558 0.245792 0.031250
0.518395 0.236912 0.000000
0.576654 0.232151 0.000000
0.628687 0.228794 0.000000
0.669825 0.228275 0.000000
0.704097 0.229282 0.000000
0.732845 0.231113 0.000000
0.769436 0.237461 0.000000
0.803128 0.243931 0.000000
0.837613 0.250706 0.000000
0.870665 0.256840 0.000000
0.921019 0.268070 0.000000
0.978393 0.280766 0.000000
1.000000 0.292943 0.000000
0.025483 0.314000 0.228946
0.237888 0.307439 0.211612
0.367559 0.299077 0.168612
0.474525 0.281590 0.080476
0.546258 0.268894 0.000000
0.599298 0.263676 0.000000
0.641352 0.263066 0.000000
0.680354 0.259159 0.000000
0.717739 0.258274 0.000000
0.753780 0.259495 0.000000
0.785641 0.261265 0.000000
0.817502 0.264042 0.000000
0.852537 0.268101 0.000000
0.896422 0.275334 0.000000
0.942199 0.282841 0.000000
0.995148 0.292119 0.000000
0.100282 0.343359 0.260288
0.226017 0.345495 0.257267
0.338659 0.350713 0.248539
0.443122 0.342138 0.201938
0.529564 0.324193 0.128695
0.595850 0.309941 0.025940
0.644678 0.300755 0.000000
0.689998 0.298985 0.000000
0.730404 0.300938 0.000000
0.769375 0.298772 0.000000
0.804074 0.297185 0.000000
0.841398 0.298131 0.000000
0.884092 0.301946 0.000000
0.935119 0.309148 0.000000
0.987121 0.316442 0.000000
1.000000 0.319341 0.000000
0.141054 0.375586 0.291478
0.228153 0.381079 0.293492
0.322057 0.386084 0.293126
0.411963 0.385687 0.275120
0.492836 0.369207 0.220829
0.564904 0.350958 0.154421
0.627497 0.338201 0.072847
0.678584 0.330175 0.000000
0.721340 0.325963 0.000000
0.761379 0.325933 0.000000
0.796811 0.326818 0.000000
0.836240 0.325475 0.000000
0.878019 0.326268 0.000000
0.927153 0.330541 0.000000
0.978210 0.335607 0.000000
1.000000 0.338445 0.000000
0.169802 0.406256 0.319493
0.233799 0.411048 0.321904
0.311009 0.414466 0.322393
0.389075 0.415229 0.312932
0.467689 0.411841 0.289525
0.540612 0.396796 0.238193
0.608911 0.382544 0.179507
0.667231 0.369726 0.106600
0.708278 0.356146 0.000000
0.747890 0.349371 0.000000
0.786923 0.348058 0.000000
0.829374 0.351751 0.000000
0.871305 0.352636 0.000000
0.919005 0.354345 0.000000
0.969177 0.357305 0.000000
1.000000 0.359808 0.000000
0.191073 0.431281 0.341833
0.240726 0.438209 0.346471
0.307805 0.443702 0.349554
0.379889 0.446601 0.347234
0.450385 0.445716 0.333013
0.517876 0.435950 0.299626
0.578088 0.417029 0.247929
0.635065 0.400458 0.191073
0.685573 0.386511 0.124453
0.728847 0.375799 0.023651
0.770809 0.370001 0.000000
0.814115 0.369512 0.000000
0.856596 0.372045 0.000000
0.900908 0.375341 0.000000
0.945830 0.374578 0.000000
1.000000 0.378882 0.000000
0.192569 0.437842 0.346715
0.228305 0.439399 0.346899
0.284398 0.444251 0.349584
0.350195 0.448554 0.350744
0.416632 0.452369 0.345525
0.485206 0.454444 0.333532
0.550652 0.447425 0.299596
0.612970 0.436469 0.256870
0.671809 0.426246 0.209171
0.727199 0.417731 0.151675
0.777310 0.410681 0.068177
0.826780 0.407172 0.000000
0.874540 0.406714 0.000000
0.922942 0.410132 0.000000
0.972961 0.415076 0.000000
1.000000 0.412696 0.000000
0.210941 0.466316 0.370977
0.238437 0.465644 0.369299
0.283787 0.467536 0.369360
0.342168 0.470253 0.369665
0.404150 0.473671 0.367864
0.466499 0.476081 0.358648
0.533043 0.478401 0.344518
0.594415 0.470039 0.308080
0.653559 0.460548 0.268620
0.709041 0.451087 0.223606
0.762387 0.443183 0.169009
0.809964 0.434699 0.086641
0.857298 0.429236 0.000000
0.909483 0.429969 0.000000
0.963989 0.435401 0.000000
1.000000 0.439704 0.000000
0.221836 0.493233 0.392279
0.245792 0.493050 0.391180
0.285069 0.493965 0.390417
0.338293 0.496223 0.390478
0.397589 0.499611 0.389960
0.456977 0.502159 0.383825
0.519677 0.505058 0.373907
0.580774 0.502495 0.351568
0.637934 0.493080 0.315740
0.691890 0.482368 0.276127
0.743893 0.472694 0.231388
0.793118 0.463844 0.177066
0.843351 0.457191 0.093324
0.896971 0.454780 0.000000
0.952392 0.456031 0.000000
1.000000 0.459449 0.000000
0.225986 0.520317 0.412116
0.247349 0.519921 0.410864
0.282933 0.520745 0.410010
0.332464 0.522454 0.409247
0.389288 0.524468 0.408118
0.448005 0.526879 0.404852
0.506340 0.528099 0.395361
0.567285 0.529503 0.383429
0.623529 0.522667 0.354376
0.676234 0.511620 0.317571
0.727626 0.501183 0.277958
0.777829 0.492134 0.233097
0.828336 0.485359 0.178805
0.881773 0.480873 0.088197
0.938659 0.479408 0.000000
0.999268 0.482368 0.000000
0.208865 0.525933 0.412177
0.230350 0.527398 0.412573
0.266606 0.531701 0.414771
0.316167 0.536950 0.416999
0.375952 0.544305 0.420691
0.438697 0.551415 0.422919
0.501518 0.558556 0.420539
0.565667 0.564416 0.413611
0.632410 0.570306 0.403845
0.691005 0.564172 0.371832
0.751308 0.559136 0.338598
0.810239 0.553979 0.301091
0.871550 0.551873 0.259159
0.926635 0.546838 0.203037
0.976654 0.537652 0.097963
1.000000 0.521111 0.000000
0.215549 0.581994 0.453376
0.228458 0.569940 0.442390
0.260014 0.566217 0.437873
0.307805 0.567987 0.437171
0.367864 0.574273 0.440192
0.431037 0.580560 0.442329
0.495583 0.588098 0.442878
0.559045 0.594018 0.436927
0.627131 0.601923 0.429999
0.689052 0.601404 0.410132
0.748074 0.595148 0.376715
0.805203 0.587701 0.339544
0.863615 0.582452 0.299138
0.917052 0.575097 0.249210
0.964630 0.565454 0.182345
1.000000 0.551110 0.016419
0.193851 0.615839 0.473823
0.209049 0.603784 0.462959
0.242802 0.598322 0.457038
0.292607 0.598413 0.455116
0.353765 0.602838 0.456641
0.419104 0.608545 0.458839
0.486671 0.616846 0.461494
0.550347 0.622309 0.456580
0.616541 0.628443 0.448890
0.682826 0.632959 0.437354
0.742672 0.628351 0.408392
0.800320 0.620478 0.371344
0.860838 0.615625 0.333074
0.918364 0.609705 0.287755
0.972045 0.602502 0.230930
1.000000 0.587335 0.142916
0.139376 0.647395 0.489387
0.162753 0.634913 0.478401
0.205386 0.629114 0.472328
0.263615 0.628717 0.470100
0.330785 0.632319 0.470985
0.402106 0.637537 0.473457
0.472206 0.644923 0.475532
0.540581 0.652094 0.474220
0.608331 0.658900 0.467170
0.678553 0.666041 0.457496
0.749508 0.672236 0.444709
0.810636 0.665400 0.406622
0.876097 0.662135 0.368658
0.939666 0.658076 0.324865
1.000000 0.655818 0.273960
1.000000 0.652705 0.205386
0.000000 0.225437 0.330053
0.397162 0.260838 0.334844
0.562799 0.186160 0.097749
0.604608 0.201236 0.000000
0.622034 0.213626 0.000000
0.649287 0.218296 0.000000
0.679072 0.218692 0.000000
0.711055 0.221866 0.000000
0.737392 0.224857 0.000000
0.770596 0.231022 0.000000
0.805966 0.238682 0.000000
0.840696 0.246128 0.000000
0.874968 0.252995 0.000000
0.922026 0.263127 0.000000
0.975402 0.274571 0.000000
1.000000 0.283391 0.000000
0.000000 0.302098 0.343969
0.300572 0.300572 0.300572
0.479561 0.241398 0.162203
0.556390 0.228489 0.054017
0.601373 0.227543 0.000000
0.638819 0.232456 0.000000
0.676967 0.235813 0.000000
0.709957 0.235935 0.000000
0.737423 0.236393 0.000000
0.773739 0.241642 0.000000
0.807828 0.247532 0.000000
0.841062 0.253239 0.000000
0.872862 0.258244 0.000000
0.918517 0.267277 0.000000
0.969940 0.277562 0.000000
1.000000 0.286992 0.000000
0.000000 0.335271 0.321324
0.248264 0.326116 0.291478
0.417243 0.298100 0.219150
0.515557 0.266545 0.126284
0.579919 0.255100 0.024384
0.631861 0.254643 0.000000
0.672816 0.257664 0.000000
0.706447 0.258061 0.000000
0.740291 0.257023 0.000000
0.774990 0.258854 0.000000
0.804990 0.260655 0.000000
0.835019 0.263371 0.000000
0.866392 0.266575 0.000000
0.912413 0.274601 0.000000
0.963653 0.283909 0.000000
1.000000 0.292912 0.000000
0.000000 0.358679 0.316960
0.226322 0.350591 0.298711
0.362890 0.342535 0.275303
0.471839 0.315526 0.198276
0.548425 0.292332 0.120027
0.605005 0.280064 0.018708
0.649744 0.275425 0.000000
0.691707 0.277165 0.000000
0.728756 0.280186 0.000000
0.762295 0.277958 0.000000
0.792691 0.276921 0.000000
0.823056 0.277165 0.000000
0.861051 0.280705 0.000000
0.903746 0.285924 0.000000
0.945922 0.290898 0.000000
0.990539 0.296208 0.000000
0.074159 0.362615 0.306645
0.208865 0.362371 0.300389
0.322850 0.360998 0.292027
0.420417 0.351202 0.254582
0.503593 0.327916 0.187655
0.570123 0.310094 0.117342
0.622492 0.299199 0.022492
0.670375 0.296147 0.000000
0.711269 0.296574 0.000000
0.750881 0.300847 0.000000
0.786618 0.300603 0.000000
0.825010 0.301061 0.000000
0.868956 0.304540 0.000000
0.918822 0.310277 0.000000
0.970062 0.316503 0.000000
1.000000 0.320378 0.000000
0.122438 0.385565 0.319280
0.209995 0.386999 0.317021
0.305303 0.387213 0.313298
0.392676 0.385534 0.298314
0.474372 0.372076 0.253208
0.546746 0.352941 0.193606
0.607111 0.336889 0.127077
0.657923 0.326757 0.037018
0.701625 0.321447 0.000000
0.741634 0.320531 0.000000
0.780148 0.322942 0.000000
0.821347 0.326726 0.000000
0.863249 0.327031 0.000000
0.910246 0.329870 0.000000
0.959838 0.333837 0.000000
1.000000 0.337804 0.000000
0.156771 0.414313 0.340063
0.220554 0.417212 0.340154
0.299596 0.417792 0.337926
0.378454 0.417151 0.330175
0.454932 0.413581 0.309911
0.525536 0.397284 0.260197
0.590082 0.379858 0.204257
0.646876 0.365515 0.141024
0.691310 0.352941 0.057252
0.732143 0.345892 0.000000
0.770596 0.343297 0.000000
0.811704 0.345739 0.000000
0.853910 0.350561 0.000000
0.899565 0.351110 0.000000
0.948241 0.353155 0.000000
1.000000 0.357122 0.000000
0.175814 0.433783 0.353643
0.225956 0.437751 0.355474
0.291051 0.439277 0.354376
0.364630 0.440253 0.351843
0.433448 0.438727 0.338598
0.501366 0.431373 0.310277
0.563317 0.414527 0.262364
0.621363 0.398810 0.210117
0.672297 0.384558 0.150027
0.715328 0.373205 0.075288
0.756558 0.366339 0.000000
0.799039 0.364813 0.000000
0.842008 0.367071 0.000000
0.885740 0.372534 0.000000
0.929717 0.371252 0.000000
0.983032 0.373907 0.000000
0.187106 0.446967 0.362341
0.223880 0.447669 0.361608
0.278172 0.449470 0.361120
0.344732 0.451667 0.360662
0.410620 0.453803 0.355474
0.477974 0.455177 0.343481
0.543542 0.448951 0.312352
0.605402 0.437629 0.270909
0.663233 0.426368 0.225193
0.717678 0.417121 0.172061
0.766964 0.409216 0.102174
0.815671 0.404822 0.000000
0.862882 0.403265 0.000000
0.913054 0.406989 0.000000
0.966888 0.415320 0.000000
1.000000 0.415076 0.000000
0.203189 0.470283 0.380346
0.232334 0.470130 0.379095
0.277867 0.471138 0.378119
0.337438 0.473365 0.378088
0.401221 0.476936 0.377417
0.462593 0.478523 0.368017
0.527398 0.479713 0.354467
0.587549 0.470344 0.317784
0.645380 0.459754 0.278721
0.699641 0.449378 0.234958
0.751278 0.440436 0.183383
0.798886 0.431861 0.111604
0.847562 0.426917 0.000000
0.901549 0.427985 0.000000
0.958740 0.433967 0.000000
1.000000 0.441810 0.000000
0.214298 0.496223 0.399817
0.239841 0.497078 0.399451
0.279850 0.497871 0.398444
0.333593 0.499550 0.397772
0.393683 0.501854 0.396674
0.452979 0.503380 0.390539
0.513664 0.504295 0.379431
0.573907 0.501579 0.358129
0.630426 0.491707 0.322484
0.683772 0.480537 0.283421
0.734554 0.470192 0.240085
0.783474 0.461067 0.188418
0.833982 0.454597 0.113741
0.888243 0.452338 0.000000
0.945068 0.453803 0.000000
1.000000 0.458137 0.000000
0.216617 0.520989 0.416754
0.239536 0.521111 0.415869
0.275669 0.521263 0.414405
0.325597 0.522576 0.413184
0.383703 0.524773 0.412329
0.443946 0.527550 0.410040
0.502312 0.528832 0.400855
0.563073 0.529839 0.388830
0.618524 0.522576 0.360418
0.670283 0.510613 0.323369
0.720272 0.499123 0.283757
0.769162 0.489174 0.239689
0.817899 0.481331 0.187289
0.869749 0.475929 0.104250
0.924681 0.473396 0.000000
0.985626 0.476356 0.000000
0.202426 0.531823 0.420508
0.224674 0.533043 0.420661
0.261479 0.536461 0.422126
0.311772 0.540826 0.423468
0.372137 0.547173 0.426246
0.435676 0.553796 0.428351
0.499763 0.561212 0.426825
0.563958 0.566796 0.419837
0.630610 0.572595 0.410803
0.688685 0.565820 0.378546
0.748348 0.560021 0.345129
0.807034 0.554559 0.308080
0.868437 0.552392 0.267216
0.923888 0.547509 0.213596
0.975647 0.539208 0.117708
1.000000 0.523613 0.000000
0.205844 0.585870 0.459571
0.221164 0.574701 0.449317
0.254093 0.571069 0.444770
0.303624 0.572595 0.443854
0.364446 0.578363 0.446296
0.428901 0.584131 0.448249
0.494118 0.591180 0.448890
0.557427 0.596368 0.442451
0.624811 0.603357 0.435004
0.686824 0.602808 0.415656
0.745449 0.595880 0.381872
0.802640 0.588281 0.344945
0.861753 0.583337 0.305455
0.915923 0.576440 0.256992
0.964721 0.567376 0.193027
1.000000 0.553826 0.050721
0.180636 0.618769 0.478767
0.198489 0.607507 0.468544
0.234440 0.602716 0.463111
0.286778 0.602960 0.461219
0.349676 0.607141 0.462501
0.416938 0.612543 0.464668
0.485145 0.620203 0.466987
0.549279 0.625238 0.462135
0.614710 0.630243 0.453468
0.680842 0.634150 0.441535
0.740871 0.629572 0.413153
0.798489 0.621363 0.376043
0.859037 0.616297 0.337774
0.917052 0.610559 0.293278
0.971862 0.603937 0.238102
1.000000 0.589471 0.154086
0.114992 0.650019 0.493660
0.144106 0.638148 0.483070
0.192142 0.632502 0.477119
0.254459 0.632288 0.474922
0.324590 0.636042 0.475868
0.398718 0.641382 0.478798
0.470253 0.648554 0.480751
0.539818 0.655665 0.479835
0.607294 0.661616 0.472145
0.677485 0.668147 0.461891
0.748470 0.674098 0.449378
0.808957 0.666316 0.410529
0.873167 0.661738 0.371557
0.936248 0.657038 0.327581
1.000000 0.654658 0.277104
1.000000 0.651759 0.209659
0.000000 0.347967 0.498451
0.000000 0.325078 0.459236
0.450568 0.311681 0.386084
0.557977 0.217960 0.199832
0.595972 0.217105 0.105348
0.622889 0.223178 0.017639
0.656367 0.233951 0.000000
0.690211 0.243870 0.000000
0.721096 0.252537 0.000000
0.758663 0.256199 0.000000
0.794888 0.259892 0.000000
0.830442 0.264286 0.000000
0.865660 0.268223 0.000000
0.915923 0.276890 0.000000
0.970794 0.286381 0.000000
1.000000 0.293492 0.000000
0.000000 0.352422 0.444129
0.000000 0.331762 0.406592
0.391547 0.325109 0.358831
0.510155 0.258671 0.229191
0.564721 0.242069 0.148562
0.611170 0.241611 0.078889
0.652277 0.245365 0.000000
0.689448 0.251255 0.000000
0.724697 0.259525 0.000000
0.762814 0.265293 0.000000
0.797421 0.267582 0.000000
0.831235 0.270481 0.000000
0.864927 0.273045 0.000000
0.912871 0.280491 0.000000
0.965606 0.288884 0.000000
1.000000 0.296757 0.000000
0.000000 0.357488 0.400214
0.000000 0.349096 0.376654
0.348852 0.348852 0.348852
0.470069 0.304662 0.264042
0.547570 0.281193 0.193576
0.605798 0.268986 0.122469
0.651545 0.264378 0.024964
0.688899 0.264988 0.000000
0.728756 0.271580 0.000000
0.765072 0.279789 0.000000
0.795377 0.278752 0.000000
0.825803 0.278813 0.000000
0.859892 0.280461 0.000000
0.906554 0.286687 0.000000
0.958923 0.294255 0.000000
1.000000 0.301762 0.000000
0.000000 0.374731 0.376806
0.124849 0.371130 0.363684
0.317662 0.366552 0.344152
0.436683 0.347387 0.296056
0.521324 0.317479 0.228122
0.583612 0.297154 0.161746
0.632410 0.284886 0.086122
0.679225 0.282902 0.000000
0.717708 0.284215 0.000000
0.753231 0.288426 0.000000
0.784970 0.292454 0.000000
0.815427 0.290654 0.000000
0.855192 0.292943 0.000000
0.897612 0.296300 0.000000
0.939666 0.299443 0.000000
0.984558 0.303105 0.000000
0.000000 0.378119 0.354864
0.150942 0.377722 0.348180
0.288090 0.376471 0.337560
0.395056 0.372595 0.320867
0.482246 0.348425 0.260410
0.551843 0.326177 0.200168
0.607416 0.310338 0.137423
0.657649 0.302861 0.059602
0.700221 0.300023 0.000000
0.740505 0.302159 0.000000
0.778073 0.306523 0.000000
0.819333 0.312963 0.000000
0.864073 0.315282 0.000000
0.914427 0.319890 0.000000
0.966644 0.325078 0.000000
1.000000 0.328038 0.000000
0.046052 0.397803 0.356451
0.168887 0.399329 0.353521
0.276768 0.399329 0.347173
0.375677 0.398260 0.338994
0.457893 0.388251 0.304814
0.532158 0.367742 0.250553
0.593866 0.348791 0.193027
0.646815 0.335668 0.131502
0.692134 0.327245 0.047486
0.733028 0.323613 0.000000
0.772854 0.324743 0.000000
0.815518 0.330175 0.000000
0.859037 0.336034 0.000000
0.906401 0.337957 0.000000
0.956725 0.341070 0.000000
1.000000 0.344610 0.000000
0.113619 0.422553 0.367376
0.189670 0.425513 0.367254
0.275090 0.426184 0.363348
0.365423 0.426459 0.359564
0.442267 0.424109 0.343877
0.514580 0.409918 0.301122
0.580194 0.391577 0.250065
0.637385 0.375158 0.194644
0.682704 0.360327 0.132418
0.724605 0.351110 0.045960
0.764004 0.346471 0.000000
0.805814 0.347234 0.000000
0.848722 0.351751 0.000000
0.895781 0.357763 0.000000
0.945159 0.359136 0.000000
1.000000 0.362799 0.000000
0.145785 0.440131 0.374853
0.201785 0.444434 0.376715
0.271275 0.445991 0.374762
0.351629 0.447150 0.372564
0.423713 0.446113 0.363195
0.492226 0.440833 0.340642
0.554894 0.423865 0.294865
0.613642 0.407507 0.246586
0.665003 0.392248 0.193515
0.708980 0.379644 0.134829
0.751095 0.371130 0.046754
0.794217 0.367773 0.000000
0.837461 0.368414 0.000000
0.881498 0.372473 0.000000
0.926787 0.376135 0.000000
0.980255 0.377996 0.000000
0.164889 0.452674 0.379858
0.205081 0.453285 0.378820
0.262394 0.454841 0.377661
0.333104 0.457191 0.376959
0.403449 0.459937 0.374945
0.470344 0.461189 0.363836
0.536675 0.456764 0.337377
0.598962 0.445167 0.297765
0.657069 0.433417 0.255222
0.711635 0.423560 0.207980
0.761349 0.414954 0.150729
0.810575 0.409216 0.060029
0.858274 0.406073 0.000000
0.909789 0.408484 0.000000
0.965087 0.416022 0.000000
1.000000 0.419928 0.000000
0.185641 0.474861 0.394598
0.216648 0.475044 0.393530
0.264439 0.476112 0.392309
0.326696 0.478523 0.391791
0.394232 0.482307 0.392065
0.457435 0.484474 0.385016
0.522271 0.486000 0.373297
0.582818 0.477333 0.339239
0.640925 0.466438 0.301549
0.695277 0.455543 0.260319
0.746548 0.445716 0.213199
0.794400 0.436408 0.152041
0.843778 0.430671 0.047669
0.898833 0.430793 0.000000
0.957275 0.435706 0.000000
1.000000 0.443641 0.000000
0.198276 0.500084 0.411688
0.225376 0.501305 0.411658
0.267521 0.502251 0.410590
0.323369 0.503929 0.409339
0.386236 0.506371 0.408667
0.448188 0.508537 0.404578
0.509117 0.509545 0.394079
0.570397 0.507988 0.375830
0.626825 0.497566 0.340551
0.680049 0.485756 0.302586
0.730709 0.474800 0.260960
0.779629 0.465370 0.213565
0.830686 0.458534 0.149081
0.885832 0.455726 0.019348
0.943786 0.456367 0.000000
1.000000 0.459754 0.000000
0.199771 0.524010 0.426581
0.224094 0.524285 0.425757
0.262516 0.524468 0.424201
0.314549 0.525872 0.422736
0.375586 0.528557 0.422217
0.438483 0.531548 0.420935
0.498299 0.533165 0.412970
0.559136 0.534112 0.401312
0.615351 0.527550 0.375158
0.667262 0.515343 0.338567
0.717342 0.503410 0.299931
0.766445 0.493080 0.257725
0.815152 0.484932 0.209018
0.867369 0.479072 0.136660
0.922576 0.475746 0.000000
0.984161 0.477790 0.000000
0.184451 0.535973 0.430121
0.208957 0.537041 0.430213
0.247990 0.540185 0.431220
0.300603 0.544366 0.432288
0.363226 0.550805 0.434974
0.429511 0.557397 0.437415
0.495460 0.565240 0.437354
0.560204 0.570642 0.430671
0.627832 0.577020 0.422736
0.686763 0.570733 0.391852
0.746822 0.564782 0.358923
0.805936 0.559075 0.322759
0.867674 0.556786 0.283513
0.922942 0.551354 0.233066
0.974914 0.542626 0.147799
1.000000 0.526757 0.000000
0.183749 0.588617 0.467292
0.201633 0.577935 0.457313
0.238499 0.574578 0.452949
0.290806 0.576104 0.451881
0.354253 0.581628 0.453834
0.421942 0.587488 0.456153
0.489906 0.594965 0.458167
0.554009 0.600275 0.452247
0.621851 0.607141 0.444923
0.685359 0.607691 0.427558
0.744198 0.600397 0.393500
0.801724 0.592370 0.356817
0.860990 0.587121 0.318120
0.915435 0.579889 0.271122
0.964294 0.570520 0.210636
1.000000 0.556970 0.091463
0.149081 0.620874 0.485145
0.171756 0.609918 0.475044
0.213687 0.605341 0.469764
0.270726 0.605646 0.467781
0.337194 0.609766 0.468727
0.408484 0.615442 0.471443
0.479225 0.623224 0.474128
0.545495 0.628779 0.470649
0.611292 0.633387 0.461830
0.678157 0.637415 0.449805
0.739467 0.633570 0.423133
0.797696 0.625147 0.385870
0.858610 0.619806 0.347936
0.917021 0.613764 0.304173
0.972229 0.607019 0.250706
1.000000 0.592493 0.171939
0.039490 0.652003 0.499092
0.094575 0.640192 0.488472
0.159976 0.634668 0.482551
0.232486 0.634577 0.480354
0.308690 0.638544 0.481209
0.387976 0.644007 0.484352
0.462623 0.651087 0.486610
0.534966 0.658686 0.486946
0.603388 0.664515 0.479286
0.674311 0.670985 0.469276
0.746426 0.677272 0.456947
0.807980 0.669886 0.419043
0.872435 0.664759 0.379706
0.935821 0.659663 0.335882
1.000000 0.656947 0.286107
1.000000 0.653925 0.220951
0.000000 0.378332 0.536584
0.000000 0.361517 0.506798
0.112184 0.336309 0.461494
0.464698 0.333227 0.402960
0.552148 0.244511 0.254765
0.597436 0.239292 0.179843
0.638331 0.240818 0.115236
0.674708 0.246494 0.037476
0.708064 0.254429 0.000000
0.746334 0.266300 0.000000
0.784237 0.277379 0.000000
0.821592 0.286625 0.000000
0.859495 0.288487 0.000000
0.911284 0.295109 0.000000
0.966522 0.302190 0.000000
1.000000 0.307134 0.000000
0.000000 0.379004 0.493141
0.000000 0.357488 0.462806
0.161868 0.343511 0.430182
0.432288 0.341833 0.388495
0.527642 0.270542 0.268498
0.587488 0.261479 0.203006
0.633112 0.256443 0.139590
0.671260 0.257176 0.069856
0.710475 0.263951 0.000000
0.749813 0.273228 0.000000
0.786465 0.282170 0.000000
0.822232 0.291905 0.000000
0.859281 0.292912 0.000000
0.907927 0.298039 0.000000
0.961242 0.304143 0.000000
1.000000 0.310063 0.000000
0.000000 0.376501 0.454475
0.000000 0.364935 0.432654
0.190799 0.359136 0.410193
0.409888 0.363470 0.386358
0.511162 0.312444 0.296361
0.576379 0.293950 0.234318
0.626703 0.281773 0.173495
0.670344 0.277287 0.110842
0.712581 0.278264 0.015015
0.750729 0.282628 0.000000
0.783749 0.288457 0.000000
0.816556 0.295964 0.000000
0.854398 0.299199 0.000000
0.901823 0.303197 0.000000
0.954742 0.308782 0.000000
1.000000 0.314183 0.000000
0.000000 0.386664 0.429297
0.000000 0.381170 0.416236
0.196811 0.379492 0.400977
0.384771 0.384771 0.384771
0.483955 0.348913 0.318944
0.553613 0.323491 0.259525
0.610132 0.306126 0.200931
0.660792 0.297246 0.140505
0.702205 0.292454 0.063264
0.739681 0.292729 0.000000
0.773342 0.295933 0.000000
0.807340 0.301610 0.000000
0.850156 0.310063 0.000000
0.893034 0.311437 0.000000
0.935607 0.312596 0.000000
0.981170 0.314275 0.000000
0.000000 0.385595 0.396826
0.000000 0.387152 0.393072
0.201633 0.390021 0.386053
0.352453 0.390875 0.373053
0.450568 0.375006 0.333837
0.526513 0.349706 0.279210
0.586908 0.330266 0.225742
0.640833 0.318212 0.170932
0.686336 0.310521 0.107698
0.728511 0.308446 0.009918
0.767239 0.310002 0.000000
0.811978 0.317266 0.000000
0.859525 0.327611 0.000000
0.910674 0.334112 0.000000
0.963348 0.337530 0.000000
1.000000 0.338933 0.000000
0.000000 0.409766 0.397467
0.041230 0.412757 0.396460
0.215732 0.413153 0.389624
0.338842 0.412604 0.379431
0.432380 0.409216 0.363958
0.510979 0.388342 0.313298
0.575586 0.367193 0.262211
0.631312 0.351446 0.211276
0.678920 0.339696 0.155673
0.722011 0.332647 0.087678
0.763790 0.330663 0.000000
0.807858 0.333562 0.000000
0.853117 0.340063 0.000000
0.902831 0.350408 0.000000
0.953704 0.352148 0.000000
1.000000 0.354620 0.000000
0.000000 0.432502 0.402014
0.116884 0.435401 0.401740
0.227481 0.436194 0.397070
0.331212 0.436866 0.390661
0.421180 0.436286 0.382818
0.496254 0.427039 0.351415
0.564385 0.407813 0.303899
0.622705 0.389502 0.254948
0.669795 0.372961 0.203647
0.713588 0.361456 0.147280
0.754879 0.354223 0.071656
0.798276 0.352178 0.000000
0.842588 0.354376 0.000000
