luts/Cumberland ●●● 16.cube
# Created by Adobe Lightroom plugin Export LUT (1.16.0)
# www.johnrellis.com/lightroom/exportlut.htm
# Preset: Cumberland ●●●
# Color profile: C:\Program Files (x86)\Common Files\Adobe\Color\Profiles\Recommended\sRGB Color Space Profile.icm
LUT_3D_SIZE 6
DOMAIN_MIN 0.0 0.0 0.0
DOMAIN_MAX 1.0 1.0 1.0
0.019745 0.019745 0.019745
0.621332 0.142916 0.000000
0.686702 0.171420 0.000000
0.778225 0.208316 0.000000
0.887510 0.243656 0.000000
1.000000 0.280858 0.000000
0.025483 0.314000 0.228946
0.474525 0.281590 0.080476
0.641352 0.263066 0.000000
0.753780 0.259495 0.000000
0.852537 0.268101 0.000000
0.995148 0.292119 0.000000
0.169802 0.406256 0.319493
0.389075 0.415229 0.312932
0.608911 0.382544 0.179507
0.747890 0.349371 0.000000
0.871305 0.352636 0.000000
1.000000 0.359808 0.000000
0.210941 0.466316 0.370977
0.342168 0.470253 0.369665
0.533043 0.478401 0.344518
0.709041 0.451087 0.223606
0.857298 0.429236 0.000000
1.000000 0.439704 0.000000
0.208865 0.525933 0.412177
0.316167 0.536950 0.416999
0.501518 0.558556 0.420539
0.691005 0.564172 0.371832
0.871550 0.551873 0.259159
1.000000 0.521111 0.000000
0.139376 0.647395 0.489387
0.263615 0.628717 0.470100
0.472206 0.644923 0.475532
0.678553 0.666041 0.457496
0.876097 0.662135 0.368658
1.000000 0.652705 0.205386
0.000000 0.378332 0.536584
0.464698 0.333227 0.402960
0.638331 0.240818 0.115236
0.746334 0.266300 0.000000
0.859495 0.288487 0.000000
1.000000 0.307134 0.000000
0.000000 0.386664 0.429297
0.384771 0.384771 0.384771
0.610132 0.306126 0.200931
0.739681 0.292729 0.000000
0.850156 0.310063 0.000000
0.981170 0.314275 0.000000
0.000000 0.432502 0.402014
0.331212 0.436866 0.390661
0.564385 0.407813 0.303899
0.713588 0.361456 0.147280
0.842588 0.354376 0.000000
0.999451 0.371466 0.000000
0.150210 0.481300 0.415290
0.306371 0.485389 0.411688
0.512810 0.494301 0.398138
0.688472 0.465003 0.295140
0.838651 0.437598 0.130465
1.000000 0.445563 0.000000
0.147463 0.541039 0.443977
0.279210 0.548089 0.444709
0.487953 0.570947 0.453223
0.683101 0.578363 0.412238
0.866331 0.563592 0.307744
1.000000 0.531640 0.000000
0.000000 0.654566 0.507378
0.187259 0.637537 0.488594
0.447913 0.654078 0.494942
0.668605 0.675380 0.480720
0.871366 0.669856 0.392950
1.000000 0.657649 0.238224
0.000000 0.412146 0.573419
0.000000 0.384100 0.525597
0.522850 0.390234 0.459785
0.698390 0.308751 0.267460
0.834348 0.317357 0.121920
1.000000 0.352331 0.000000
0.000000 0.428504 0.540429
0.000000 0.412482 0.507744
0.512383 0.425879 0.469917
0.684474 0.343206 0.295140
0.819944 0.336400 0.159579
0.973022 0.348730 0.000000
0.000000 0.451575 0.500389
0.000000 0.460060 0.496864
0.480171 0.480171 0.480171
0.661616 0.416785 0.353735
0.810269 0.388861 0.225284
0.994415 0.391302 0.000000
0.000000 0.505669 0.499031
0.126802 0.513420 0.498726
0.446204 0.529015 0.491615
0.651453 0.509453 0.425208
0.813687 0.471962 0.306310
1.000000 0.463111 0.022980
0.000000 0.562982 0.509941
0.000000 0.570489 0.510643
0.408301 0.593256 0.515099
0.655787 0.616907 0.511009
0.852934 0.594598 0.407965
1.000000 0.553887 0.222080
0.000000 0.667018 0.552300
0.000000 0.650843 0.532555
0.298497 0.665126 0.530083
0.624475 0.696315 0.536919
0.857725 0.695430 0.460792
1.000000 0.676020 0.313939
0.000000 0.448951 0.618555
0.000000 0.437568 0.600824
0.094972 0.435004 0.574121
0.615412 0.462745 0.542809
0.780392 0.374060 0.370733
0.973816 0.395941 0.268132
0.000000 0.473640 0.623255
0.000000 0.457954 0.599847
0.152071 0.456550 0.575402
0.608179 0.480079 0.546319
0.769345 0.390600 0.379278
0.942046 0.391669 0.261906
0.000000 0.481483 0.586511
0.000000 0.485359 0.583642
0.201297 0.491951 0.570123
0.592340 0.519890 0.556146
0.762417 0.437598 0.406104
0.972259 0.431830 0.278599
0.000000 0.527550 0.584619
0.000000 0.532189 0.583673
0.207370 0.547265 0.582391
0.581628 0.581628 0.581628
0.781552 0.513329 0.446906
1.000000 0.491005 0.292271
0.000000 0.590875 0.602716
0.000000 0.597589 0.604211
0.000000 0.618067 0.607111
0.558618 0.655268 0.611383
0.815549 0.641382 0.538140
1.000000 0.585229 0.362554
0.000000 0.689540 0.639277
0.000000 0.673610 0.616022
0.000000 0.686671 0.608301
0.442145 0.719753 0.607111
0.815427 0.744961 0.581811
1.000000 0.709895 0.424903
0.000000 0.515160 0.713527
0.000000 0.513695 0.704402
0.000000 0.503502 0.682460
0.333867 0.510674 0.665949
0.735317 0.557488 0.650599
0.917052 0.441596 0.470527
0.000000 0.537224 0.720638
0.000000 0.524071 0.704829
0.000000 0.518822 0.686885
0.336431 0.522179 0.666712
0.724758 0.560906 0.646204
0.891081 0.439185 0.460487
0.000000 0.542443 0.698756
0.000000 0.539727 0.694270
0.000000 0.538384 0.680079
0.323613 0.544274 0.663722
0.720394 0.587884 0.655818
0.919463 0.483436 0.485603
0.000000 0.579065 0.701198
0.000000 0.580316 0.700221
0.000000 0.581384 0.692012
0.258091 0.591913 0.683040
0.727504 0.643030 0.685206
0.964538 0.548241 0.513542
0.000000 0.643427 0.724880
0.000000 0.647517 0.725978
0.000000 0.660212 0.729000
0.151125 0.683101 0.730404
0.735592 0.735592 0.735592
1.000000 0.632319 0.529076
0.000000 0.744656 0.787442
0.000000 0.731594 0.767636
0.000000 0.742306 0.764279
0.000000 0.757412 0.745815
0.623835 0.795651 0.719936
1.000000 0.775479 0.596338
0.000000 0.645045 0.906065
0.000000 0.649317 0.901671
0.000000 0.647456 0.888853
0.000000 0.648951 0.870451
0.557641 0.666682 0.854795
0.940002 0.727474 0.838254
0.000000 0.653925 0.910063
0.000000 0.655818 0.902800
0.000000 0.649256 0.884398
0.000000 0.643580 0.857816
0.522728 0.644526 0.826749
0.902495 0.691402 0.801724
0.000000 0.663783 0.910826
0.000000 0.669917 0.909789
0.000000 0.672450 0.899199
0.000000 0.670710 0.877379
0.494606 0.666407 0.843900
0.920287 0.726833 0.827024
0.000000 0.699458 0.932952
0.000000 0.700801 0.931395
0.000000 0.704341 0.925841
0.000000 0.708309 0.907469
0.419226 0.710689 0.876066
0.935058 0.774075 0.856260
0.000000 0.761837 0.961975
0.000000 0.764126 0.961425
0.000000 0.772580 0.961151
0.000000 0.779782 0.957794
0.000000 0.787289 0.937621
0.955261 0.853666 0.904295
0.000000 0.838132 0.957549
0.000000 0.835355 0.950561
0.000000 0.843687 0.947997
0.000000 0.861753 0.943420
0.000000 0.885588 0.940948
0.954772 0.954772 0.954772
