luts/Dufferin ● 16.cube
# Created by Adobe Lightroom plugin Export LUT (1.16.0)
# www.johnrellis.com/lightroom/exportlut.htm
# Preset: Dufferin ●
# Color profile: C:\Program Files (x86)\Common Files\Adobe\Color\Profiles\Recommended\sRGB Color Space Profile.icm
LUT_3D_SIZE 16
DOMAIN_MIN 0.0 0.0 0.0
DOMAIN_MAX 1.0 1.0 1.0
0.000000 0.000000 0.000000
0.101808 0.002686 0.000000
0.207462 0.008728 0.000000
0.300481 0.023346 0.000000
0.381323 0.046632 0.000000
0.459083 0.073487 0.000000
0.534966 0.100374 0.000000
0.613764 0.128695 0.000000
0.691402 0.156863 0.000000
0.765957 0.182559 0.000000
0.832212 0.204776 0.000000
0.892210 0.223514 0.000000
0.948730 0.239536 0.000000
1.000000 0.253544 0.000000
1.000000 0.265293 0.000000
1.000000 0.274876 0.000000
0.000000 0.067781 0.005402
0.102296 0.067628 0.000122
0.200290 0.075776 0.000000
0.294163 0.086976 0.000000
0.376013 0.099397 0.000000
0.453834 0.115908 0.000000
0.532494 0.135958 0.000000
0.611414 0.158999 0.000000
0.689021 0.181613 0.000000
0.764096 0.203372 0.000000
0.830503 0.222263 0.000000
0.890684 0.238254 0.000000
0.947234 0.252079 0.000000
1.000000 0.264530 0.000000
1.000000 0.275059 0.000000
1.000000 0.283818 0.000000
0.000000 0.130587 0.008698
0.095064 0.130556 0.003326
0.187320 0.132998 0.000000
0.281773 0.142885 0.000000
0.366949 0.151919 0.000000
0.449104 0.165652 0.000000
0.528099 0.182712 0.000000
0.607111 0.200504 0.000000
0.685328 0.218173 0.000000
0.761349 0.235569 0.000000
0.827817 0.250065 0.000000
0.888273 0.262425 0.000000
0.944945 0.273381 0.000000
1.000000 0.283299 0.000000
1.000000 0.291875 0.000000
1.000000 0.299229 0.000000
0.000000 0.193606 0.006531
0.078309 0.193942 0.002106
0.178714 0.192935 0.000000
0.267948 0.197330 0.000000
0.356603 0.207004 0.000000
0.438392 0.214939 0.000000
0.519615 0.227329 0.000000
0.600641 0.241917 0.000000
0.680446 0.257755 0.000000
0.756313 0.273075 0.000000
0.822538 0.286015 0.000000
0.883360 0.295567 0.000000
0.941100 0.303166 0.000000
0.996643 0.310185 0.000000
1.000000 0.316167 0.000000
1.000000 0.321324 0.000000
0.000000 0.256870 0.003784
0.064637 0.257847 0.000000
0.169467 0.259495 0.000000
0.261540 0.257847 0.000000
0.346746 0.263157 0.000000
0.433448 0.273136 0.000000
0.515068 0.280156 0.000000
0.597955 0.290379 0.000000
0.680720 0.302556 0.000000
0.757534 0.314061 0.000000
0.823880 0.323339 0.000000
0.885405 0.332097 0.000000
0.943786 0.340734 0.000000
0.999786 0.346349 0.000000
1.000000 0.349798 0.000000
1.000000 0.352148 0.000000
0.000000 0.320806 0.000732
0.045716 0.322210 0.000000
0.154879 0.324102 0.000000
0.254551 0.324315 0.000000
0.338750 0.321080 0.000000
0.421912 0.326848 0.000000
0.508568 0.336889 0.000000
0.591699 0.343755 0.000000
0.673976 0.350835 0.000000
0.751675 0.358709 0.000000
0.820096 0.364080 0.000000
0.883421 0.369635 0.000000
0.942107 0.375463 0.000000
0.997894 0.381903 0.000000
1.000000 0.386481 0.000000
1.000000 0.386969 0.000000
0.000000 0.383764 0.000000
0.020935 0.385077 0.000000
0.143893 0.386572 0.000000
0.241886 0.387457 0.000000
0.334051 0.386816 0.000000
0.414862 0.383429 0.000000
0.499001 0.390631 0.000000
0.586786 0.400214 0.000000
0.668086 0.404974 0.000000
0.743954 0.407507 0.000000
0.813535 0.409705 0.000000
0.878935 0.412512 0.000000
0.939727 0.415137 0.000000
0.996460 0.418463 0.000000
1.000000 0.422614 0.000000
1.000000 0.425483 0.000000
0.000000 0.444892 0.000549
0.000000 0.446601 0.000000
0.132082 0.448310 0.000000
0.227573 0.450202 0.000000
0.324926 0.449928 0.000000
0.412451 0.447364 0.000000
0.490272 0.442786 0.000000
0.574517 0.449989 0.000000
0.660700 0.458320 0.000000
0.736141 0.459785 0.000000
0.806332 0.459449 0.000000
0.872190 0.458839 0.000000
0.934051 0.459480 0.000000
0.992065 0.459937 0.000000
1.000000 0.460609 0.000000
1.000000 0.462867 0.000000
0.000000 0.500938 0.006714
0.000000 0.501549 0.002258
0.115846 0.503166 0.000000
0.215915 0.505089 0.000000
0.310399 0.506523 0.000000
0.403418 0.506645 0.000000
0.488319 0.503929 0.000000
0.568536 0.502708 0.000000
0.651392 0.509026 0.000000
0.732113 0.514336 0.000000
0.803464 0.514244 0.000000
0.870054 0.512840 0.000000
0.932189 0.510430 0.000000
0.990692 0.508659 0.000000
1.000000 0.507134 0.000000
1.000000 0.505303 0.000000
0.000000 0.563317 0.020478
0.000000 0.563470 0.015869
0.092805 0.564446 0.007263
0.204868 0.565911 0.000000
0.296391 0.568170 0.000000
0.394476 0.568353 0.000000
0.485542 0.568109 0.000000
0.568902 0.564965 0.000000
0.648585 0.563897 0.000000
0.725063 0.566308 0.000000
0.797391 0.567254 0.000000
0.863767 0.565576 0.000000
0.926177 0.562860 0.000000
0.985260 0.559747 0.000000
1.000000 0.556207 0.000000
1.000000 0.552850 0.000000
0.000000 0.627985 0.050568
0.000000 0.628199 0.046265
0.057282 0.628717 0.038453
0.190829 0.629786 0.024109
0.288670 0.631434 0.003754
0.383856 0.632288 0.000000
0.478859 0.631952 0.000000
0.567071 0.630152 0.000000
0.648646 0.626703 0.000000
0.724605 0.623926 0.000000
0.793606 0.622187 0.000000
0.857694 0.619196 0.000000
0.920226 0.616571 0.000000
0.979797 0.613550 0.000000
1.000000 0.609705 0.000000
1.000000 0.604395 0.000000
0.000000 0.692226 0.096986
0.000000 0.692256 0.094209
0.014954 0.692653 0.089326
0.179324 0.693324 0.080934
0.280858 0.694331 0.066804
0.371252 0.695796 0.043671
0.469123 0.694911 0.016297
0.559930 0.694057 0.000000
0.645045 0.691096 0.000000
0.723903 0.687434 0.000000
0.795041 0.682338 0.000000
0.857481 0.677394 0.000000
0.915221 0.671351 0.000000
0.973663 0.667659 0.000000
1.000000 0.664057 0.000000
1.000000 0.659236 0.000000
0.000000 0.751736 0.149752
0.000000 0.752071 0.148257
0.003204 0.752987 0.146059
0.174960 0.754116 0.141421
0.277897 0.755734 0.134340
0.368414 0.757504 0.123812
0.460792 0.758511 0.110384
0.553643 0.758114 0.092439
0.641657 0.757595 0.068208
0.723842 0.754726 0.055573
0.801022 0.752102 0.038911
0.867002 0.745052 0.048737
0.924102 0.737972 0.000000
0.975647 0.728725 0.000000
1.000000 0.722316 0.000000
1.000000 0.715663 0.000000
0.000000 0.818479 0.231693
0.000000 0.816739 0.226413
0.081758 0.816312 0.222507
0.196902 0.816678 0.218631
0.289830 0.817777 0.213840
0.375555 0.818997 0.206790
0.458045 0.820554 0.197269
0.549950 0.819944 0.186587
0.637385 0.819425 0.172396
0.720516 0.817594 0.158755
0.798856 0.814786 0.152560
0.872068 0.811826 0.144045
0.931090 0.801877 0.153780
0.981781 0.791531 0.115694
1.000000 0.778988 0.045014
1.000000 0.769741 0.000000
0.094575 0.879026 0.320714
0.129335 0.877623 0.315892
0.185367 0.877043 0.312016
0.253666 0.877073 0.308293
0.326268 0.877653 0.304387
0.400305 0.878386 0.299168
0.475196 0.879484 0.292332
0.555322 0.879545 0.283330
0.639155 0.878691 0.272221
0.719905 0.877592 0.257053
0.797910 0.875212 0.249546
0.871489 0.872435 0.244480
0.941222 0.870085 0.239384
0.992981 0.857450 0.247196
1.000000 0.844236 0.214786
1.000000 0.828305 0.165011
0.265263 0.937926 0.419532
0.276402 0.936828 0.415564
0.302342 0.936339 0.412421
0.343267 0.936339 0.409644
0.394812 0.936645 0.406683
0.452644 0.937163 0.402594
0.514824 0.937835 0.397498
0.579492 0.938567 0.390692
0.655604 0.938018 0.382483
0.730648 0.937438 0.371679
0.804685 0.936828 0.358892
0.876921 0.934844 0.356725
0.946227 0.933379 0.355444
1.000000 0.932128 0.353368
1.000000 0.916716 0.363561
1.000000 0.900511 0.337743
0.000000 0.021302 0.052216
0.094911 0.025116 0.048707
0.203403 0.013825 0.033234
0.293462 0.036255 0.013519
0.369940 0.072541 0.000000
0.447608 0.099580 0.000000
0.525628 0.126894 0.000000
0.604852 0.153964 0.000000
0.683223 0.179843 0.000000
0.759335 0.204990 0.000000
0.826932 0.225467 0.000000
0.887694 0.240421 0.000000
0.944793 0.253086 0.000000
1.000000 0.264286 0.000000
1.000000 0.273808 0.000000
1.000000 0.281498 0.000000
0.000000 0.081605 0.054353
0.096010 0.083284 0.047883
0.193698 0.086091 0.035981
0.284062 0.095247 0.019135
0.366491 0.109468 0.000000
0.445472 0.128023 0.000000
0.524895 0.149752 0.000000
0.604242 0.172946 0.000000
0.682826 0.196139 0.000000
0.759548 0.218662 0.000000
0.826627 0.238407 0.000000
0.887175 0.253269 0.000000
0.944060 0.264530 0.000000
0.999390 0.274388 0.000000
1.000000 0.282872 0.000000
1.000000 0.289799 0.000000
0.002136 0.142824 0.057404
0.090822 0.143893 0.046448
0.186374 0.143404 0.038819
0.277348 0.148440 0.021546
0.363012 0.156924 0.000000
0.443824 0.169497 0.000000
0.523522 0.184970 0.000000
0.603021 0.202914 0.000000
0.682887 0.222354 0.000000
0.759060 0.241733 0.000000
0.825345 0.258030 0.000000
0.885466 0.272770 0.000000
0.942412 0.283696 0.000000
0.998108 0.291936 0.000000
1.000000 0.298741 0.000000
1.000000 0.304448 0.000000
0.011749 0.203586 0.058839
0.082277 0.204471 0.043946
0.179355 0.204196 0.035737
0.267613 0.204990 0.025574
0.354131 0.211673 0.002258
0.436744 0.218906 0.000000
0.518700 0.229984 0.000000
0.599756 0.243259 0.000000
0.680079 0.258213 0.000000
0.755764 0.273106 0.000000
0.822110 0.285924 0.000000
0.882750 0.297856 0.000000
0.940826 0.309331 0.000000
0.996216 0.317662 0.000000
1.000000 0.322301 0.000000
1.000000 0.326055 0.000000
0.014862 0.262119 0.058289
0.068910 0.264042 0.040192
0.166201 0.264988 0.031342
0.260319 0.263188 0.023011
0.342718 0.265690 0.008484
0.427527 0.273777 0.000000
0.509331 0.280278 0.000000
0.592798 0.290349 0.000000
0.675593 0.301579 0.000000
0.752529 0.312505 0.000000
0.819730 0.321599 0.000000
0.882078 0.330358 0.000000
0.941161 0.339422 0.000000
0.997223 0.348302 0.000000
1.000000 0.353887 0.000000
1.000000 0.355596 0.000000
0.000000 0.324071 0.051148
0.051026 0.325536 0.036591
0.155795 0.326604 0.028016
0.251194 0.326909 0.016968
0.337041 0.324071 0.007782
0.418738 0.328557 0.000000
0.503838 0.337255 0.000000
0.586572 0.343511 0.000000
0.668971 0.350683 0.000000
0.747097 0.358160 0.000000
0.816617 0.363500 0.000000
0.880400 0.368841 0.000000
0.939727 0.374334 0.000000
0.995789 0.380468 0.000000
1.000000 0.386755 0.000000
1.000000 0.389441 0.000000
0.000000 0.386999 0.039277
0.024475 0.387945 0.034974
0.145327 0.388830 0.026062
0.238651 0.389837 0.013367
0.332097 0.389197 0.000000
0.413123 0.385412 0.000000
0.495583 0.391150 0.000000
0.581872 0.399817 0.000000
0.663813 0.404761 0.000000
0.740078 0.407446 0.000000
0.810117 0.409766 0.000000
0.875853 0.412360 0.000000
0.937163 0.414588 0.000000
0.994049 0.417578 0.000000
1.000000 0.421180 0.000000
1.000000 0.425544 0.000000
0.000000 0.446571 0.041382
0.000000 0.447730 0.036713
0.132082 0.448707 0.028443
0.226658 0.450111 0.014496
0.321386 0.450111 0.000000
0.409522 0.448005 0.000000
0.487984 0.443854 0.000000
0.571649 0.450385 0.000000
0.657282 0.458350 0.000000
0.732845 0.459876 0.000000
0.803220 0.459632 0.000000
0.869383 0.459297 0.000000
0.931823 0.459754 0.000000
0.990082 0.459968 0.000000
1.000000 0.460060 0.000000
1.000000 0.461677 0.000000
0.000000 0.503807 0.047547
0.000000 0.504265 0.043702
0.115602 0.505211 0.036072
0.215702 0.506615 0.021851
0.307622 0.508049 0.004211
0.401404 0.507927 0.000000
0.487007 0.505425 0.000000
0.567254 0.503929 0.000000
0.649470 0.509697 0.000000
0.729732 0.514733 0.000000
0.801144 0.514702 0.000000
0.867948 0.513451 0.000000
0.930205 0.511101 0.000000
0.989319 0.509545 0.000000
1.000000 0.507988 0.000000
1.000000 0.505882 0.000000
0.000000 0.564996 0.061433
0.000000 0.565209 0.057740
0.092164 0.565972 0.050782
0.203983 0.567376 0.037751
0.295995 0.569512 0.017517
0.392432 0.569818 0.000000
0.483894 0.569421 0.000000
0.567529 0.566003 0.000000
0.647089 0.564599 0.000000
0.722957 0.566613 0.000000
0.795010 0.567498 0.000000
0.861692 0.565942 0.000000
0.924468 0.563561 0.000000
0.984009 0.560662 0.000000
1.000000 0.557397 0.000000
1.000000 0.554070 0.000000
0.000000 0.629175 0.084993
0.000000 0.629541 0.082460
0.054231 0.630091 0.077119
0.190249 0.631006 0.067720
0.287846 0.632410 0.051606
0.381384 0.633295 0.027955
0.476814 0.632563 0.002106
0.565179 0.630732 0.000000
0.646906 0.627222 0.000000
0.722957 0.624323 0.000000
0.791623 0.622400 0.000000
0.855833 0.619379 0.000000
0.918608 0.617121 0.000000
0.978424 0.614282 0.000000
1.000000 0.610620 0.000000
1.000000 0.605402 0.000000
0.000000 0.692714 0.122866
0.000000 0.692866 0.120882
0.013458 0.693111 0.116640
0.178103 0.693721 0.109865
0.279850 0.694759 0.099367
0.370459 0.696193 0.083589
0.466957 0.695674 0.065248
0.558312 0.694667 0.035920
0.643397 0.691676 0.012421
0.722286 0.687831 0.000000
0.793454 0.682704 0.000000
0.855741 0.677577 0.000000
0.913420 0.671473 0.000000
0.972015 0.667872 0.000000
1.000000 0.664332 0.000000
1.000000 0.659632 0.000000
0.000000 0.752926 0.171695
0.000000 0.753231 0.170596
0.004242 0.753994 0.168276
0.174899 0.754971 0.164126
0.277470 0.756435 0.157961
0.368017 0.758114 0.148775
0.459205 0.759365 0.137392
0.552270 0.758907 0.123323
0.640314 0.758389 0.104341
0.722652 0.755398 0.095644
0.799771 0.752682 0.085115
0.865934 0.745785 0.090486
0.923125 0.738705 0.048127
0.974670 0.729641 0.000000
1.000000 0.723507 0.000000
1.000000 0.717006 0.000000
0.000000 0.819120 0.248692
0.000000 0.817563 0.243992
0.085512 0.817105 0.240330
0.198917 0.817441 0.236637
0.290593 0.818479 0.232212
0.375921 0.819608 0.225650
0.457954 0.821042 0.216739
0.548669 0.820523 0.206516
0.636042 0.819883 0.193576
0.719203 0.818051 0.180728
0.797482 0.815183 0.175082
0.870787 0.812222 0.167483
0.930053 0.802518 0.176181
0.980896 0.792355 0.143252
1.000000 0.779995 0.091493
1.000000 0.770993 0.000000
0.102388 0.879362 0.334020
0.135012 0.878080 0.329473
0.189395 0.877531 0.326024
0.256291 0.877592 0.322576
0.328069 0.878141 0.318822
0.401495 0.878874 0.313695
0.475685 0.879850 0.307073
0.554467 0.880034 0.298100
0.638056 0.879057 0.287388
0.718685 0.877897 0.272923
0.796628 0.875547 0.265019
0.870207 0.872770 0.260166
0.939940 0.870420 0.255192
0.992004 0.858061 0.262455
1.000000 0.845029 0.232181
1.000000 0.829221 0.186709
0.267247 0.938140 0.428504
0.278355 0.937102 0.424750
0.304112 0.936645 0.421820
0.344976 0.936645 0.419196
0.395941 0.936980 0.416297
0.453498 0.937469 0.412482
0.515343 0.938140 0.407477
0.579675 0.938872 0.400763
0.654719 0.938354 0.392676
0.729732 0.937743 0.382147
0.803555 0.937102 0.369207
0.875731 0.935088 0.366857
0.945006 0.933532 0.365057
1.000000 0.932250 0.362737
1.000000 0.917113 0.372503
1.000000 0.900969 0.347631
0.000000 0.060090 0.104921
0.063630 0.051026 0.102296
0.178653 0.047761 0.094301
0.285252 0.032959 0.080140
0.367071 0.049928 0.052979
0.441566 0.089570 0.028992
0.517723 0.122927 0.002075
0.596124 0.151614 0.000000
0.675837 0.176181 0.000000
0.753780 0.200992 0.000000
0.822416 0.223178 0.000000
0.883818 0.242985 0.000000
0.941405 0.260960 0.000000
0.997406 0.277195 0.000000
1.000000 0.286198 0.000000
1.000000 0.291356 0.000000
0.000000 0.105531 0.103395
0.071138 0.101839 0.099001
0.178256 0.101045 0.092897
0.275883 0.097139 0.077394
0.357488 0.110597 0.059266
0.436408 0.130068 0.036744
0.515709 0.150698 0.005127
0.595911 0.171328 0.000000
0.676417 0.193027 0.000000
0.754391 0.215091 0.000000
0.822538 0.235080 0.000000
0.883696 0.252934 0.000000
0.941192 0.269322 0.000000
0.996918 0.284672 0.000000
1.000000 0.294469 0.000000
1.000000 0.299138 0.000000
0.000000 0.155337 0.102113
0.083894 0.154940 0.098054
0.178744 0.157443 0.091157
0.268040 0.159274 0.080140
0.352575 0.164920 0.064454
0.434607 0.174594 0.039765
0.515251 0.187564 0.004334
0.595758 0.202884 0.000000
0.677211 0.220859 0.000000
0.754360 0.238804 0.000000
0.821500 0.255161 0.000000
0.882506 0.270054 0.000000
0.940246 0.284337 0.000000
0.995972 0.298192 0.000000
1.000000 0.309117 0.000000
1.000000 0.312779 0.000000
0.004273 0.213474 0.103792
0.097078 0.213870 0.100099
0.172976 0.214878 0.089143
0.262486 0.214450 0.082521
0.347234 0.218418 0.067811
0.430762 0.224979 0.041566
0.512078 0.233677 0.003876
0.593988 0.245335 0.000000
0.674861 0.258518 0.000000
0.751583 0.272099 0.000000
0.818784 0.284215 0.000000
0.880217 0.295659 0.000000
0.939178 0.307195 0.000000
0.994690 0.318395 0.000000
1.000000 0.328954 0.000000
1.000000 0.333074 0.000000
0.031098 0.269963 0.105745
0.102754 0.270573 0.101015
0.165103 0.272190 0.086641
0.256260 0.272496 0.079072
0.339055 0.272404 0.070619
0.422217 0.278599 0.047120
0.504479 0.284611 0.011261
0.588495 0.293492 0.000000
0.671168 0.303349 0.000000
0.748226 0.313359 0.000000
0.816373 0.321660 0.000000
0.879850 0.329900 0.000000
0.939788 0.338140 0.000000
0.996338 0.346593 0.000000
1.000000 0.355230 0.000000
1.000000 0.361578 0.000000
0.034333 0.329412 0.107820
0.104829 0.329992 0.102846
0.155367 0.332250 0.084749
0.245426 0.333379 0.076478
0.335119 0.331243 0.069398
0.415656 0.333684 0.054841
0.499519 0.340887 0.017456
0.582544 0.346593 0.000000
0.665736 0.353735 0.000000
0.744167 0.360235 0.000000
0.814084 0.365057 0.000000
0.878111 0.370001 0.000000
0.938262 0.374792 0.000000
0.994965 0.379889 0.000000
1.000000 0.385412 0.000000
1.000000 0.391516 0.000000
0.042420 0.389593 0.111971
0.104799 0.390600 0.106081
0.144259 0.393103 0.084352
0.235355 0.394537 0.075563
0.328313 0.394415 0.065736
0.411719 0.391028 0.057069
0.493172 0.395117 0.032776
0.578515 0.402777 0.000000
0.660548 0.407416 0.000000
0.737148 0.409857 0.000000
0.807828 0.412421 0.000000
0.874083 0.414527 0.000000
0.935821 0.416297 0.000000
0.992950 0.418555 0.000000
1.000000 0.421057 0.000000
1.000000 0.424414 0.000000
0.050233 0.448005 0.118624
0.052644 0.450385 0.100984
0.129732 0.452186 0.086366
0.225467 0.453468 0.077790
0.317052 0.454139 0.066621
0.407294 0.452613 0.054170
0.487007 0.448219 0.043122
0.569451 0.453590 0.008179
0.654566 0.460731 0.000000
0.730404 0.462348 0.000000
0.801053 0.462226 0.000000
0.867735 0.462074 0.000000
0.930449 0.462379 0.000000
0.989166 0.461952 0.000000
1.000000 0.461280 0.000000
1.000000 0.461677 0.000000
0.000000 0.505516 0.117128
0.000000 0.507073 0.097230
0.113649 0.507988 0.092012
0.214572 0.509422 0.084291
0.302770 0.511467 0.071992
0.398199 0.511315 0.058717
0.485451 0.509209 0.045502
0.565270 0.506737 0.029603
0.647578 0.512322 0.000000
0.727474 0.517052 0.000000
0.799161 0.517174 0.000000
0.866178 0.515923 0.000000
0.928740 0.513725 0.000000
0.988312 0.512352 0.000000
1.000000 0.510460 0.000000
1.000000 0.507469 0.000000
0.000000 0.566857 0.118257
0.000000 0.567681 0.107759
0.087282 0.568383 0.103700
0.202182 0.569818 0.096437
0.294865 0.571893 0.085512
0.388708 0.572839 0.071839
0.481514 0.572564 0.053437
0.566094 0.569207 0.039673
0.645869 0.567590 0.021271
0.721340 0.568994 0.000000
0.793149 0.569635 0.000000
0.860075 0.568322 0.000000
0.923095 0.566064 0.000000
0.982879 0.563348 0.000000
1.000000 0.560204 0.000000
1.000000 0.556573 0.000000
0.000000 0.630945 0.129793
0.000000 0.631403 0.128023
0.047578 0.631952 0.124453
0.188022 0.632898 0.118318
0.286320 0.634211 0.108797
0.376989 0.635706 0.095399
0.473732 0.634913 0.081270
0.563104 0.633387 0.063508
0.645228 0.629755 0.049866
0.721584 0.626795 0.034668
0.790005 0.624506 0.000000
0.854063 0.621546 0.000000
0.917235 0.619501 0.000000
0.977325 0.616846 0.000000
1.000000 0.613153 0.000000
1.000000 0.607965 0.000000
0.000000 0.693874 0.161868
0.000000 0.694087 0.160311
0.004974 0.694331 0.157290
0.175753 0.694972 0.152132
0.278508 0.696040 0.144503
0.369299 0.697505 0.133669
0.463783 0.697475 0.121462
0.555688 0.696437 0.105837
0.641352 0.693629 0.092164
0.720516 0.689723 0.079927
0.791958 0.684749 0.074128
0.854215 0.679500 0.033082
0.911894 0.673487 0.000000
0.970794 0.670192 0.000000
1.000000 0.666682 0.000000
1.000000 0.661921 0.000000
0.000000 0.754025 0.206119
0.000000 0.754330 0.204959
0.000855 0.755032 0.202976
0.173831 0.755978 0.199588
0.276616 0.757412 0.194705
0.367285 0.759091 0.187411
0.455665 0.760769 0.178073
0.549493 0.760250 0.167575
0.637964 0.759884 0.153384
0.720546 0.756985 0.146792
0.797818 0.754238 0.140078
0.864439 0.747677 0.142824
0.921599 0.740627 0.118471
0.973236 0.731716 0.073243
1.000000 0.725795 0.000000
1.000000 0.719326 0.000000
0.000000 0.819638 0.276646
0.000000 0.818143 0.272313
0.089601 0.817807 0.269139
0.199619 0.818143 0.265812
0.291051 0.819120 0.261784
0.375738 0.820249 0.255955
0.457527 0.821683 0.248386
0.546136 0.821561 0.239597
0.633753 0.820920 0.228489
0.716976 0.819272 0.216709
0.795438 0.816342 0.211826
0.868711 0.813382 0.205600
0.928405 0.804074 0.212253
0.979339 0.793973 0.185214
1.000000 0.781796 0.145876
1.000000 0.773068 0.068605
0.111482 0.879545 0.356207
0.141634 0.878325 0.351934
0.193759 0.877836 0.348699
0.259159 0.877928 0.345678
0.329747 0.878447 0.342107
0.402319 0.879210 0.337407
0.476020 0.880247 0.331395
0.552636 0.880705 0.323186
0.636072 0.879728 0.313176
0.716548 0.878569 0.299962
0.794491 0.876371 0.291966
0.868132 0.873594 0.287297
0.937804 0.871244 0.282750
0.990326 0.859312 0.289036
1.000000 0.846433 0.261326
1.000000 0.830838 0.220615
0.268925 0.938293 0.443305
0.279881 0.937285 0.439765
0.305425 0.936828 0.437079
0.345953 0.936828 0.434546
0.396612 0.937224 0.432013
0.453925 0.937713 0.428382
0.515373 0.938384 0.423713
0.579370 0.939086 0.417487
0.652827 0.938811 0.409857
0.727779 0.938170 0.400092
0.801511 0.937621 0.387549
0.873625 0.935668 0.384710
0.942870 0.934112 0.382818
1.000000 0.932799 0.380377
1.000000 0.918059 0.389349
1.000000 0.902129 0.366033
0.000000 0.096071 0.150790
0.000000 0.084932 0.149905
0.142000 0.075044 0.145602
0.253788 0.077882 0.138033
0.355077 0.074617 0.126040
0.437812 0.073548 0.099794
0.515282 0.109957 0.077394
0.593103 0.142184 0.049592
0.671504 0.171603 0.006409
0.748592 0.199313 0.000000
0.817838 0.221561 0.000000
0.880491 0.240269 0.000000
0.939422 0.257023 0.000000
0.996429 0.272648 0.000000
1.000000 0.287449 0.000000
1.000000 0.301030 0.000000
0.000000 0.131777 0.149355
0.019867 0.125368 0.146212
0.146609 0.119356 0.143465
0.252781 0.122621 0.136721
0.348791 0.120607 0.124178
0.433326 0.121889 0.101045
0.511864 0.146456 0.081910
0.590692 0.169619 0.054231
0.670710 0.193423 0.011933
0.748714 0.215702 0.000000
0.817868 0.234257 0.000000
0.880308 0.251164 0.000000
0.939300 0.266300 0.000000
0.995911 0.280705 0.000000
1.000000 0.294316 0.000000
1.000000 0.307408 0.000000
0.000000 0.171969 0.148287
0.052705 0.170626 0.145266
0.154849 0.170047 0.140963
0.253605 0.173068 0.136172
0.344701 0.171817 0.122713
0.427375 0.179873 0.106477
0.507836 0.192935 0.087770
0.588342 0.208682 0.061769
0.670253 0.224369 0.015717
0.748501 0.240696 0.000000
0.816800 0.255772 0.000000
0.878996 0.269566 0.000000
0.938231 0.282567 0.000000
0.994995 0.294835 0.000000
1.000000 0.306767 0.000000
1.000000 0.318608 0.000000
0.000000 0.222477 0.148684
0.067720 0.222477 0.146059
0.163546 0.223819 0.141817
0.254154 0.228275 0.135378
0.338872 0.230137 0.124849
0.421729 0.234714 0.110903
0.503746 0.241947 0.091432
0.586358 0.251896 0.062928
0.667964 0.263157 0.015503
0.745693 0.275456 0.000000
0.813993 0.286717 0.000000
0.876829 0.297215 0.000000
0.937102 0.307347 0.000000
0.993622 0.316686 0.000000
1.000000 0.325750 0.000000
1.000000 0.335210 0.000000
0.000000 0.278508 0.150546
0.082643 0.279789 0.148714
0.168582 0.281254 0.144656
0.246708 0.282872 0.133394
0.332525 0.282597 0.127504
0.415259 0.287022 0.114717
0.498939 0.292790 0.094972
0.582605 0.300206 0.065766
0.664668 0.308751 0.017823
0.742672 0.317693 0.000000
0.811704 0.325536 0.000000
0.876616 0.333165 0.000000
0.937560 0.340368 0.000000
0.995087 0.347112 0.000000
1.000000 0.353429 0.000000
1.000000 0.359930 0.000000
0.014069 0.337652 0.156130
0.097810 0.338384 0.153689
0.172457 0.339086 0.148348
0.239292 0.341131 0.133059
0.328954 0.341405 0.126528
0.410620 0.341558 0.119203
0.493935 0.347265 0.101442
0.577203 0.352300 0.077028
0.661280 0.359350 0.029389
0.740291 0.365270 0.000000
0.809689 0.369879 0.000000
0.874754 0.374395 0.000000
0.935729 0.378454 0.000000
0.993408 0.382391 0.000000
1.000000 0.385962 0.000000
1.000000 0.389624 0.000000
0.035981 0.396307 0.162570
0.103975 0.397070 0.159609
0.174502 0.397833 0.153536
0.231144 0.400366 0.134371
0.319799 0.401587 0.126925
0.408026 0.399207 0.121126
0.488960 0.401373 0.110475
0.573571 0.407752 0.085634
0.655726 0.411994 0.050019
0.733242 0.414923 0.000000
0.804593 0.417395 0.000000
0.871489 0.419318 0.000000
0.933165 0.420905 0.000000
