luts/Dufferin ● 16.cube
# Created by Adobe Lightroom plugin Export LUT (1.16.0)
# www.johnrellis.com/lightroom/exportlut.htm
# Preset: Dufferin ●
# Color profile: C:\Program Files (x86)\Common Files\Adobe\Color\Profiles\Recommended\sRGB Color Space Profile.icm
LUT_3D_SIZE 6
DOMAIN_MIN 0.0 0.0 0.0
DOMAIN_MAX 1.0 1.0 1.0
0.000000 0.000000 0.000000
0.300481 0.023346 0.000000
0.534966 0.100374 0.000000
0.765957 0.182559 0.000000
0.948730 0.239536 0.000000
1.000000 0.274876 0.000000
0.000000 0.193606 0.006531
0.267948 0.197330 0.000000
0.519615 0.227329 0.000000
0.756313 0.273075 0.000000
0.941100 0.303166 0.000000
1.000000 0.321324 0.000000
0.000000 0.383764 0.000000
0.241886 0.387457 0.000000
0.499001 0.390631 0.000000
0.743954 0.407507 0.000000
0.939727 0.415137 0.000000
1.000000 0.425483 0.000000
0.000000 0.563317 0.020478
0.204868 0.565911 0.000000
0.485542 0.568109 0.000000
0.725063 0.566308 0.000000
0.926177 0.562860 0.000000
1.000000 0.552850 0.000000
0.000000 0.751736 0.149752
0.174960 0.754116 0.141421
0.460792 0.758511 0.110384
0.723842 0.754726 0.055573
0.924102 0.737972 0.000000
1.000000 0.715663 0.000000
0.265263 0.937926 0.419532
0.343267 0.936339 0.409644
0.514824 0.937835 0.397498
0.730648 0.937438 0.371679
0.946227 0.933379 0.355444
1.000000 0.900511 0.337743
0.000000 0.096071 0.150790
0.253788 0.077882 0.138033
0.515282 0.109957 0.077394
0.748592 0.199313 0.000000
0.939422 0.257023 0.000000
1.000000 0.301030 0.000000
0.000000 0.222477 0.148684
0.254154 0.228275 0.135378
0.503746 0.241947 0.091432
0.745693 0.275456 0.000000
0.937102 0.307347 0.000000
1.000000 0.335210 0.000000
0.035981 0.396307 0.162570
0.231144 0.400366 0.134371
0.488960 0.401373 0.110475
0.733242 0.414923 0.000000
0.933165 0.420905 0.000000
1.000000 0.424628 0.000000
0.058747 0.568536 0.198215
0.197421 0.573327 0.156008
0.476661 0.576928 0.131075
0.718532 0.572900 0.096712
0.920897 0.570397 0.000000
1.000000 0.560815 0.000000
0.000000 0.754482 0.268986
0.170993 0.757198 0.247868
0.451301 0.762600 0.231479
0.716976 0.759365 0.207553
0.919005 0.743740 0.187961
1.000000 0.723079 0.000000
0.270268 0.938476 0.465126
0.346227 0.937102 0.457221
0.514794 0.938689 0.447456
0.724392 0.938933 0.426276
0.939574 0.935027 0.408911
1.000000 0.903990 0.393133
0.000000 0.188327 0.290257
0.087221 0.164920 0.292912
0.454353 0.189242 0.287785
0.733700 0.203220 0.243626
0.930571 0.280156 0.179873
1.000000 0.320745 0.050660
0.000000 0.268711 0.298741
0.142672 0.263279 0.292607
0.456123 0.280339 0.294713
0.726864 0.287907 0.245640
0.924468 0.339757 0.194675
1.000000 0.355016 0.048432
0.000000 0.409369 0.323674
0.171054 0.414740 0.321416
0.458381 0.433021 0.313451
0.709285 0.443885 0.281315
0.917571 0.454017 0.227359
1.000000 0.451209 0.088624
0.000000 0.588739 0.392554
0.189242 0.590326 0.385412
0.442359 0.595544 0.350256
0.697444 0.593622 0.337438
0.906645 0.595697 0.298711
1.000000 0.586053 0.172641
0.000000 0.762539 0.454017
0.187076 0.762997 0.452796
0.438697 0.768399 0.427558
0.692195 0.771664 0.413306
0.901457 0.760006 0.403632
1.000000 0.743832 0.330541
0.236393 0.940185 0.561852
0.380163 0.936797 0.568872
0.499031 0.940581 0.542168
0.700740 0.943236 0.529198
0.920684 0.940032 0.511620
1.000000 0.913420 0.499672
0.000000 0.272251 0.468330
0.000000 0.259861 0.471809
0.310521 0.259220 0.487251
0.641108 0.294865 0.502220
0.898070 0.346075 0.471870
1.000000 0.454994 0.460426
0.000000 0.326543 0.483131
0.000000 0.318212 0.477638
0.314488 0.320470 0.493751
0.641810 0.352789 0.508507
0.892241 0.396612 0.478584
1.000000 0.479500 0.464485
0.000000 0.432624 0.506096
0.000000 0.433753 0.505241
0.320562 0.437903 0.501457
0.644190 0.473945 0.525292
0.882506 0.507866 0.502129
1.000000 0.542168 0.475319
0.000000 0.580407 0.551171
0.000000 0.583978 0.550896
0.347143 0.596124 0.550866
0.650660 0.624872 0.553399
0.879545 0.638300 0.534874
1.000000 0.634852 0.479896
0.000000 0.777890 0.616236
0.000000 0.780270 0.614435
0.341619 0.783047 0.606683
0.645228 0.785733 0.589288
0.872435 0.783597 0.581384
1.000000 0.777523 0.546441
0.000000 0.961028 0.629419
0.000000 0.958129 0.621973
0.298009 0.950225 0.641413
0.663416 0.948455 0.647517
0.884825 0.949401 0.630671
1.000000 0.928954 0.620508
0.000000 0.364965 0.662379
0.000000 0.355810 0.662196
0.000000 0.345403 0.669062
0.511223 0.371649 0.677974
0.827451 0.428901 0.690150
1.000000 0.532494 0.671809
0.000000 0.399084 0.668025
0.000000 0.391516 0.664698
0.000000 0.385290 0.669642
0.513146 0.410163 0.679194
0.825284 0.465583 0.690822
1.000000 0.557000 0.673579
0.000000 0.475502 0.678035
0.000000 0.472236 0.676143
0.000000 0.466499 0.670192
0.513909 0.495979 0.681758
0.823362 0.552850 0.696101
1.000000 0.626246 0.686366
0.000000 0.592432 0.700313
0.000000 0.591638 0.699184
0.000000 0.589105 0.694728
0.482429 0.598138 0.685298
0.823697 0.667994 0.709255
1.000000 0.720882 0.705226
0.000000 0.747738 0.734798
0.000000 0.750149 0.734371
0.000000 0.758267 0.732876
0.524559 0.776028 0.730495
0.828794 0.811185 0.737881
1.000000 0.819852 0.717922
0.000000 0.976165 0.835172
0.000000 0.974609 0.828794
0.000000 0.972778 0.816587
0.411872 0.967407 0.797055
0.824704 0.960906 0.786831
1.000000 0.951537 0.772519
0.000000 0.482246 0.907347
0.000000 0.478706 0.905943
0.000000 0.482033 0.904601
0.430854 0.528832 0.901701
0.760128 0.578576 0.901396
0.997040 0.652674 0.903685
0.000000 0.502403 0.911498
0.000000 0.499184 0.909422
0.000000 0.501366 0.906096
0.430610 0.549432 0.901610
0.756710 0.593744 0.899565
0.993378 0.662440 0.900816
0.000000 0.550866 0.922728
0.000000 0.548211 0.921630
0.000000 0.548547 0.916258
0.388678 0.591577 0.910338
0.752712 0.643336 0.907286
0.992432 0.706813 0.909422
0.000000 0.638117 0.945159
0.000000 0.632471 0.944640
0.000000 0.617456 0.942351
0.000000 0.639673 0.930541
0.731563 0.713222 0.922240
0.990784 0.773648 0.923766
0.000000 0.769711 0.973724
0.000000 0.767819 0.973480
0.000000 0.764401 0.972442
0.000000 0.765286 0.968109
0.624414 0.792813 0.952026
0.989014 0.865019 0.946960
0.000000 0.924407 1.000000
0.000000 0.924865 0.999512
0.000000 0.929534 0.998108
0.000000 0.942443 0.993652
0.558526 0.962158 0.986267
0.984710 0.983734 0.979095
