luts/Elgin ● 16.cube
# Created by Adobe Lightroom plugin Export LUT (1.16.0)
# www.johnrellis.com/lightroom/exportlut.htm
# Preset: Elgin ●
# Color profile: C:\Program Files (x86)\Common Files\Adobe\Color\Profiles\Recommended\sRGB Color Space Profile.icm
LUT_3D_SIZE 6
DOMAIN_MIN 0.0 0.0 0.0
DOMAIN_MAX 1.0 1.0 1.0
0.000000 0.000000 0.000000
0.182406 0.011200 0.000000
0.389380 0.060029 0.000000
0.667109 0.145785 0.000000
0.922301 0.219608 0.000000
1.000000 0.253056 0.000000
0.044800 0.109194 0.058900
0.170230 0.129976 0.031067
0.394079 0.167361 0.000000
0.674220 0.236942 0.000000
0.923705 0.291539 0.000000
1.000000 0.307286 0.000000
0.120333 0.274754 0.157656
0.210910 0.279240 0.160281
0.412268 0.323033 0.073579
0.704524 0.378759 0.000000
0.931670 0.409216 0.000000
1.000000 0.422034 0.000000
0.195407 0.526696 0.284642
0.309178 0.531426 0.295689
0.483711 0.550927 0.257481
0.745846 0.587640 0.093080
0.951690 0.568231 0.000000
1.000000 0.548150 0.000000
0.479438 0.784939 0.545434
0.536217 0.785428 0.557488
0.646418 0.788388 0.574914
0.771389 0.794614 0.485664
0.951324 0.770016 0.317693
1.000000 0.711025 0.000000
0.759884 0.937957 0.792874
0.777310 0.938231 0.796750
0.822538 0.939117 0.807767
0.872404 0.944213 0.793637
0.959686 0.951873 0.745632
1.000000 0.932067 0.649378
0.002686 0.070924 0.124331
0.145327 0.060365 0.134707
0.381781 0.031128 0.087984
0.658930 0.131075 0.000000
0.918944 0.221958 0.000000
1.000000 0.282383 0.000000
0.023194 0.145602 0.153048
0.153994 0.153994 0.153994
0.385626 0.160464 0.111177
0.669764 0.212131 0.000000
0.922850 0.275914 0.000000
1.000000 0.319921 0.000000
0.072145 0.300114 0.221408
0.209567 0.304967 0.228550
0.405493 0.334997 0.186374
0.697475 0.370459 0.005158
0.931914 0.397711 0.000000
1.000000 0.411231 0.000000
0.131533 0.546471 0.338720
0.288334 0.551354 0.349401
0.483803 0.567529 0.341314
0.740078 0.594842 0.223880
0.947875 0.566949 0.000000
1.000000 0.544060 0.000000
0.486854 0.788388 0.581659
0.543023 0.789029 0.592828
0.660487 0.791775 0.623407
0.768246 0.798459 0.552453
0.942657 0.777310 0.404486
1.000000 0.714260 0.000000
0.756710 0.939818 0.801144
0.774624 0.940124 0.805020
0.820920 0.941070 0.815885
0.873381 0.945495 0.808804
0.956390 0.953185 0.763699
1.000000 0.935698 0.675654
0.000000 0.190188 0.319829
0.117861 0.190799 0.326574
0.347204 0.154025 0.324437
0.666590 0.000000 0.282078
0.926055 0.011414 0.175326
1.000000 0.195132 0.012299
0.000000 0.252079 0.341222
0.170413 0.257877 0.340764
0.355047 0.224735 0.337652
0.673823 0.111696 0.272160
0.926940 0.187716 0.189700
1.000000 0.253483 0.010040
0.000000 0.367071 0.385992
0.149783 0.368444 0.382910
0.368536 0.368536 0.368536
0.689143 0.360876 0.301335
0.931456 0.371771 0.217655
1.000000 0.378790 0.040650
0.000000 0.586267 0.477272
0.101869 0.590997 0.477333
0.473823 0.600763 0.497810
0.713863 0.617609 0.436957
0.933806 0.566766 0.278294
1.000000 0.537957 0.125887
0.400855 0.800504 0.630732
0.498054 0.799405 0.645716
0.654566 0.800443 0.681453
0.764248 0.808011 0.674556
0.916747 0.797421 0.575433
1.000000 0.728664 0.323278
0.716365 0.945068 0.808743
0.750271 0.945312 0.819333
0.809812 0.946380 0.834348
0.876677 0.949065 0.846647
0.947601 0.956847 0.806302
1.000000 0.944366 0.732326
0.000000 0.373724 0.619989
0.000000 0.373510 0.623102
0.348730 0.351232 0.621637
0.642298 0.264958 0.600061
0.917876 0.115023 0.515282
1.000000 0.191135 0.418189
0.000000 0.425940 0.633570
0.093477 0.430671 0.633692
0.375372 0.414923 0.630640
0.646326 0.331914 0.608331
0.916411 0.225010 0.516899
1.000000 0.272099 0.428016
0.000000 0.526146 0.660304
0.165286 0.531151 0.658991
0.456458 0.548608 0.651087
0.650477 0.482643 0.626734
0.909117 0.406592 0.528099
1.000000 0.402594 0.440070
0.000000 0.661891 0.692836
0.198367 0.663264 0.690486
0.459876 0.664759 0.681361
0.650996 0.650996 0.650996
0.898741 0.609430 0.568780
1.000000 0.557214 0.453162
0.146395 0.821866 0.738949
0.301823 0.820890 0.737301
0.538262 0.817838 0.738186
0.754208 0.819425 0.765469
0.883177 0.821836 0.724544
1.000000 0.764614 0.576349
0.481636 0.959991 0.805783
0.545129 0.958648 0.809995
0.718502 0.955901 0.839750
0.861357 0.957641 0.878202
0.935973 0.963439 0.869261
1.000000 0.957244 0.806088
0.225284 0.584314 0.833188
0.365942 0.603754 0.832639
0.546899 0.637812 0.831388
0.670130 0.622187 0.827085
0.856626 0.540520 0.815244
1.000000 0.477485 0.731868
0.313359 0.619287 0.835172
0.426978 0.638880 0.834073
0.578302 0.668544 0.832639
0.686244 0.657130 0.828153
0.852689 0.580987 0.815915
1.000000 0.519432 0.738643
0.395117 0.680812 0.841428
0.478706 0.694026 0.840482
0.630030 0.726467 0.838132
0.720027 0.725704 0.833280
0.845579 0.662623 0.819089
1.000000 0.606836 0.754604
0.461158 0.758114 0.852750
0.517449 0.763851 0.852262
0.631342 0.777279 0.850919
0.755978 0.795743 0.847196
0.841489 0.749569 0.827298
1.000000 0.703365 0.771481
0.494026 0.843473 0.869383
0.537652 0.845426 0.869200
0.634089 0.850248 0.868467
0.745022 0.854826 0.864988
0.839231 0.839231 0.839231
1.000000 0.810849 0.782437
0.337865 0.975128 0.911955
0.411780 0.974670 0.911009
0.553796 0.974090 0.908080
0.719661 0.973816 0.903563
0.926452 0.974609 0.934600
1.000000 0.975280 0.895903
0.657191 0.800748 0.957427
0.692470 0.811948 0.957244
0.757076 0.831846 0.959014
0.825101 0.848264 0.961700
0.882170 0.834562 0.962737
0.990661 0.794644 0.961975
0.659174 0.807736 0.958770
0.695003 0.818723 0.958495
0.761959 0.839353 0.959808
0.831907 0.857939 0.962860
0.885069 0.844022 0.963897
0.990570 0.804227 0.963104
0.638087 0.818021 0.963073
0.677882 0.828611 0.962707
0.762814 0.853727 0.962463
0.840299 0.876219 0.965759
0.892454 0.868223 0.967407
0.990967 0.828824 0.966705
0.593500 0.840726 0.970916
0.625910 0.845579 0.970581
0.703090 0.858244 0.970001
0.835386 0.894987 0.970275
0.904997 0.905241 0.974029
0.992523 0.868559 0.973571
0.568322 0.892332 0.981720
0.602594 0.895506 0.981506
0.684382 0.904021 0.981140
0.792508 0.917906 0.981079
0.917144 0.945098 0.982330
0.995270 0.924743 0.984131
0.442847 0.961334 0.995819
0.495857 0.963134 0.995697
0.609094 0.968444 0.995300
0.746029 0.977142 0.995026
0.883970 0.988037 0.995819
1.000000 1.000000 1.000000
