luts/Elgin ● 16.cube
# Created by Adobe Lightroom plugin Export LUT (1.16.0)
# www.johnrellis.com/lightroom/exportlut.htm
# Preset: Elgin ●
# Color profile: C:\Program Files (x86)\Common Files\Adobe\Color\Profiles\Recommended\sRGB Color Space Profile.icm
LUT_3D_SIZE 16
DOMAIN_MIN 0.0 0.0 0.0
DOMAIN_MAX 1.0 1.0 1.0
0.000000 0.000000 0.000000
0.061189 0.001770 0.000000
0.120546 0.004791 0.000000
0.182406 0.011200 0.000000
0.246220 0.021637 0.000000
0.314275 0.038117 0.000000
0.389380 0.060029 0.000000
0.473274 0.085451 0.000000
0.566827 0.115023 0.000000
0.667109 0.145785 0.000000
0.763973 0.175113 0.000000
0.849027 0.199924 0.000000
0.922301 0.219608 0.000000
0.985199 0.234379 0.000000
1.000000 0.245212 0.000000
1.000000 0.253056 0.000000
0.011261 0.032990 0.014954
0.056580 0.037415 0.007416
0.120729 0.040467 0.000000
0.182498 0.046906 0.000000
0.246372 0.057160 0.000000
0.314580 0.071229 0.000000
0.389990 0.089204 0.000000
0.473823 0.112093 0.000000
0.567620 0.138216 0.000000
0.668025 0.166445 0.000000
0.764614 0.193545 0.000000
0.849485 0.216159 0.000000
0.922484 0.233799 0.000000
0.985290 0.246983 0.000000
1.000000 0.256565 0.000000
1.000000 0.263401 0.000000
0.027375 0.068330 0.035340
0.055573 0.070039 0.033448
0.109987 0.081666 0.019623
0.182712 0.091157 0.000000
0.246403 0.098421 0.000000
0.315404 0.110597 0.000000
0.391089 0.128023 0.000000
0.475380 0.148928 0.000000
0.569757 0.172732 0.000000
0.670253 0.198581 0.000000
0.765896 0.222873 0.000000
0.850309 0.242557 0.000000
0.922911 0.257664 0.000000
0.985504 0.268345 0.000000
1.000000 0.275883 0.000000
1.000000 0.281010 0.000000
0.044800 0.109194 0.058900
0.072145 0.108736 0.061585
0.106111 0.114961 0.051942
0.170230 0.129976 0.031067
0.250126 0.144717 0.000000
0.317327 0.152773 0.000000
0.394079 0.167361 0.000000
0.479530 0.186709 0.000000
0.574243 0.210513 0.000000
0.674220 0.236942 0.000000
0.768276 0.261784 0.000000
0.851835 0.279728 0.000000
0.923705 0.291539 0.000000
0.985809 0.299413 0.000000
1.000000 0.304356 0.000000
1.000000 0.307286 0.000000
0.067659 0.157687 0.088258
0.092622 0.157290 0.090669
0.122499 0.160037 0.088319
0.166873 0.167849 0.073884
0.239139 0.185275 0.046754
0.327031 0.203250 0.000000
0.402686 0.213931 0.000000
0.486641 0.230198 0.000000
0.581781 0.252506 0.000000
0.680873 0.276829 0.000000
0.773098 0.298589 0.000000
0.854948 0.316533 0.000000
0.925170 0.330755 0.000000
0.986481 0.337682 0.000000
1.000000 0.340002 0.000000
1.000000 0.340673 0.000000
0.093477 0.212650 0.121370
0.116640 0.212589 0.123629
0.148257 0.212772 0.127352
0.184451 0.219394 0.115877
0.236881 0.227817 0.096986
0.318822 0.248936 0.061982
0.416266 0.270970 0.000000
0.504417 0.285679 0.000000
0.592340 0.301579 0.000000
0.690059 0.323369 0.000000
0.779721 0.341650 0.000000
0.859556 0.356542 0.000000
0.928008 0.367651 0.000000
0.987976 0.375982 0.000000
1.000000 0.380896 0.000000
1.000000 0.379400 0.000000
0.120333 0.274754 0.157656
0.142702 0.274907 0.159670
0.174441 0.275547 0.163088
0.210910 0.279240 0.160281
0.256840 0.287175 0.143862
0.317571 0.296178 0.119814
0.412268 0.323033 0.073579
0.521752 0.350072 0.000000
0.619898 0.367468 0.000000
0.704524 0.378759 0.000000
0.787778 0.391119 0.000000
0.865049 0.401831 0.000000
0.931670 0.409216 0.000000
0.990326 0.414679 0.000000
1.000000 0.419287 0.000000
1.000000 0.422034 0.000000
0.146670 0.346288 0.196109
0.168215 0.346807 0.197818
0.201236 0.347784 0.201266
0.243992 0.349432 0.206821
0.285893 0.356756 0.192172
0.342657 0.365667 0.170443
0.411841 0.375525 0.140200
0.521874 0.409522 0.076539
0.636805 0.436988 0.000000
0.731136 0.448798 0.000000
0.804105 0.450965 0.000000
0.870848 0.452583 0.000000
0.935485 0.455756 0.000000
0.993133 0.457557 0.000000
1.000000 0.459174 0.000000
1.000000 0.461738 0.000000
0.170352 0.429389 0.237430
0.192844 0.430091 0.239048
0.228214 0.431373 0.242435
0.274876 0.433509 0.247776
0.322515 0.438697 0.244022
0.376379 0.447211 0.223209
0.443397 0.456641 0.195193
0.524071 0.469612 0.158114
0.638483 0.501579 0.075257
0.741390 0.517815 0.000000
0.823941 0.519951 0.000000
0.885557 0.513878 0.000000
0.941070 0.507927 0.000000
0.995727 0.504662 0.000000
1.000000 0.503136 0.000000
1.000000 0.503044 0.000000
0.195407 0.526696 0.284642
0.219638 0.527489 0.286564
0.257908 0.528985 0.290013
0.309178 0.531426 0.295689
0.367376 0.535088 0.304082
0.419287 0.542596 0.284367
0.483711 0.550927 0.257481
0.559167 0.559319 0.222721
0.647028 0.572168 0.179477
0.745846 0.587640 0.093080
0.827604 0.587243 0.000000
0.896361 0.579522 0.000000
0.951690 0.568231 0.000000
1.000000 0.558099 0.000000
1.000000 0.550896 0.000000
1.000000 0.548150 0.000000
0.244633 0.630610 0.347814
0.267552 0.631189 0.349950
0.305272 0.632227 0.353979
0.356573 0.633936 0.360540
0.416236 0.636500 0.370123
0.471443 0.640650 0.366369
0.527367 0.646082 0.340490
0.594965 0.651514 0.308019
0.671229 0.656245 0.267460
0.754086 0.661799 0.225589
0.831022 0.658381 0.147555
0.895964 0.645502 0.000000
0.956085 0.631586 0.000000
1.000000 0.617456 0.000000
1.000000 0.605737 0.000000
1.000000 0.597498 0.000000
0.346838 0.718532 0.437385
0.363622 0.718746 0.439612
0.392523 0.719203 0.444038
0.433967 0.719936 0.451209
0.484199 0.721035 0.461402
0.539666 0.722560 0.475074
0.578943 0.725917 0.452216
0.629694 0.729122 0.422553
0.691554 0.731685 0.385992
0.762356 0.733425 0.341283
0.834195 0.731289 0.302861
0.897063 0.716976 0.225132
0.952819 0.697200 0.108766
1.000000 0.679866 0.000000
1.000000 0.664698 0.000000
1.000000 0.652583 0.000000
0.479438 0.784939 0.545434
0.489876 0.785000 0.547478
0.508415 0.785153 0.551263
0.536217 0.785428 0.557488
0.571740 0.785916 0.566155
0.612604 0.786618 0.577417
0.646418 0.788388 0.574914
0.677516 0.790921 0.551965
0.718990 0.793118 0.522759
0.771389 0.794614 0.485664
0.834134 0.795193 0.438972
0.895079 0.788815 0.403296
0.951324 0.770016 0.317693
1.000000 0.746914 0.210361
1.000000 0.727687 0.000000
1.000000 0.711025 0.000000
0.597650 0.838804 0.645624
0.604059 0.838865 0.647089
0.615503 0.838987 0.649744
0.633356 0.839231 0.654047
0.656825 0.839597 0.660060
0.685023 0.840177 0.667781
0.716152 0.841062 0.677119
0.734920 0.843229 0.662226
0.760769 0.845396 0.642847
0.795254 0.847288 0.617945
0.839414 0.848722 0.585992
0.893767 0.849424 0.544549
0.945464 0.842130 0.512871
0.999054 0.822934 0.422583
1.000000 0.797940 0.312932
1.000000 0.775845 0.162997
0.687312 0.888823 0.725612
0.691524 0.888884 0.726558
0.699184 0.889036 0.728328
0.711330 0.889250 0.731167
0.727596 0.889647 0.735164
0.747738 0.890166 0.740352
0.770779 0.890929 0.746639
0.789975 0.892363 0.744839
0.807492 0.894469 0.732113
0.831144 0.896574 0.716152
0.861936 0.898558 0.696101
0.900847 0.900267 0.670741
0.948699 0.901518 0.637964
0.992370 0.893950 0.610773
1.000000 0.876585 0.533898
1.000000 0.851011 0.428779
0.759884 0.937957 0.792874
0.762966 0.937987 0.793545
0.768460 0.938079 0.794766
0.777310 0.938231 0.796750
0.789487 0.938445 0.799619
0.804715 0.938720 0.803281
0.822538 0.939117 0.807767
0.842283 0.939666 0.813046
0.855070 0.941833 0.804288
0.872404 0.944213 0.793637
0.895048 0.946715 0.780697
0.923919 0.949279 0.764920
0.959686 0.951873 0.745632
1.000000 0.954406 0.721492
1.000000 0.946471 0.702174
1.000000 0.932067 0.649378
0.004364 0.017762 0.037201
0.046479 0.016907 0.041810
0.113893 0.015412 0.032593
0.176669 0.022004 0.021393
0.238254 0.041321 0.015137
0.307073 0.059449 0.000000
0.382757 0.081147 0.000000
0.467140 0.106233 0.000000
0.561425 0.135286 0.000000
0.662287 0.167147 0.000000
0.760128 0.196536 0.000000
0.846189 0.218479 0.000000
0.920226 0.235080 0.000000
0.983734 0.247074 0.000000
1.000000 0.255436 0.000000
1.000000 0.261173 0.000000
0.006683 0.043183 0.046387
0.048280 0.048280 0.048280
0.111147 0.050477 0.041016
0.174014 0.056519 0.031067
0.238895 0.067048 0.018952
0.307927 0.081331 0.003143
0.384070 0.099794 0.000000
0.468635 0.122683 0.000000
0.563012 0.149813 0.000000
0.664057 0.179782 0.000000
0.761166 0.209537 0.000000
0.846769 0.232334 0.000000
0.920562 0.247745 0.000000
0.983886 0.258488 0.000000
1.000000 0.265934 0.000000
1.000000 0.270756 0.000000
0.020325 0.079805 0.061250
0.060731 0.081666 0.064302
0.106569 0.088441 0.056428
0.174807 0.094026 0.039460
0.240452 0.101198 0.025299
0.310124 0.112612 0.007324
0.386664 0.128145 0.000000
0.471565 0.148745 0.000000
0.566278 0.173800 0.000000
0.667018 0.201877 0.000000
0.763302 0.229099 0.000000
0.848142 0.253147 0.000000
0.921141 0.269200 0.000000
0.984192 0.278325 0.000000
1.000000 0.284031 0.000000
1.000000 0.287480 0.000000
0.043366 0.120058 0.082002
0.075776 0.120638 0.084596
0.109316 0.123171 0.082338
0.168215 0.135103 0.066865
0.244694 0.145205 0.038178
0.313970 0.152529 0.014099
0.391394 0.166079 0.000000
0.476997 0.184329 0.000000
0.572015 0.207584 0.000000
0.672267 0.233585 0.000000
0.766934 0.258152 0.000000
0.850736 0.279362 0.000000
0.922545 0.296849 0.000000
0.984741 0.307347 0.000000
1.000000 0.311040 0.000000
1.000000 0.312749 0.000000
0.066346 0.166629 0.107362
0.094850 0.166445 0.109743
0.128145 0.166598 0.112764
0.168368 0.174136 0.099916
0.237491 0.188876 0.078828
0.324254 0.204044 0.032776
0.399329 0.212589 0.000000
0.485054 0.228428 0.000000
0.580377 0.249821 0.000000
0.679805 0.273533 0.000000
0.772305 0.295018 0.000000
0.854459 0.313329 0.000000
0.924865 0.327855 0.000000
0.985992 0.339391 0.000000
1.000000 0.345190 0.000000
1.000000 0.344945 0.000000
0.092073 0.219547 0.137087
0.116640 0.219608 0.139071
0.150362 0.219821 0.142824
0.186618 0.224582 0.136751
0.237522 0.232670 0.119753
0.317601 0.251621 0.090944
0.414282 0.271366 0.024689
0.501671 0.284245 0.000000
0.591272 0.299962 0.000000
0.689235 0.321019 0.000000
0.779202 0.338964 0.000000
0.859342 0.353613 0.000000
0.928038 0.364843 0.000000
0.987976 0.373571 0.000000
1.000000 0.380774 0.000000
1.000000 0.382727 0.000000
0.117525 0.280430 0.170687
0.140536 0.280797 0.172671
0.174411 0.281407 0.176028
0.213809 0.283696 0.177859
0.257877 0.291447 0.162234
0.318059 0.300328 0.140047
0.411475 0.325170 0.100893
0.519921 0.350347 0.002319
0.617578 0.366278 0.000000
0.702632 0.376806 0.000000
0.787320 0.389380 0.000000
0.864897 0.399908 0.000000
0.931670 0.407141 0.000000
0.990539 0.412390 0.000000
1.000000 0.417151 0.000000
1.000000 0.421881 0.000000
0.141329 0.351263 0.207462
0.164920 0.351751 0.209262
0.199680 0.352667 0.212619
0.244053 0.354406 0.218082
0.287175 0.360754 0.208133
0.342962 0.369543 0.187503
0.412268 0.379156 0.159213
0.521050 0.411200 0.105379
0.635401 0.437171 0.000000
0.729366 0.447791 0.000000
0.802914 0.449683 0.000000
0.870665 0.451423 0.000000
0.935485 0.454414 0.000000
0.993225 0.455940 0.000000
1.000000 0.457404 0.000000
1.000000 0.460060 0.000000
0.163821 0.433814 0.247623
0.187747 0.434577 0.249393
0.225040 0.435859 0.252781
0.273411 0.437995 0.258183
0.324041 0.442451 0.258854
0.376806 0.450874 0.238590
0.443793 0.460151 0.211704
0.523674 0.472023 0.176486
0.637812 0.502983 0.106722
0.740322 0.518120 0.000000
0.823209 0.519646 0.000000
0.884764 0.513176 0.000000
0.940581 0.506950 0.000000
0.995727 0.503746 0.000000
1.000000 0.502007 0.000000
1.000000 0.501701 0.000000
0.187869 0.530510 0.294621
0.213474 0.531243 0.296422
0.253971 0.532769 0.300084
0.306676 0.535302 0.305760
0.366674 0.538903 0.314183
0.419989 0.545922 0.299351
0.483742 0.553979 0.273075
0.559075 0.562249 0.239475
0.646448 0.574182 0.198703
0.744930 0.588861 0.123903
0.826749 0.587732 0.000000
0.895811 0.579583 0.000000
0.951080 0.567987 0.000000
1.000000 0.557610 0.000000
1.000000 0.550317 0.000000
1.000000 0.547295 0.000000
0.239933 0.633143 0.357794
0.264073 0.633692 0.359960
0.302678 0.634760 0.363928
0.355016 0.636469 0.370550
0.415656 0.638911 0.380285
0.473274 0.642817 0.381170
0.527886 0.648280 0.355688
0.594537 0.653498 0.323919
0.670405 0.658137 0.284489
0.753017 0.663355 0.243748
0.830014 0.659541 0.172427
0.895171 0.646143 0.032837
0.955535 0.631952 0.000000
1.000000 0.617456 0.000000
1.000000 0.605554 0.000000
1.000000 0.597009 0.000000
0.346990 0.719844 0.446601
0.364355 0.720058 0.448920
0.393256 0.720516 0.453193
0.434730 0.721248 0.460334
0.485145 0.722316 0.470588
0.540642 0.723873 0.484169
0.581048 0.727077 0.466072
0.630304 0.730312 0.436988
0.690883 0.732906 0.401282
0.761044 0.734585 0.357336
0.832822 0.732479 0.319463
0.895903 0.718135 0.244755
0.951904 0.698024 0.139284
1.000000 0.680446 0.000000
1.000000 0.665003 0.000000
1.000000 0.652613 0.000000
0.481056 0.785550 0.552300
0.491646 0.785641 0.554345
0.510033 0.785794 0.558129
0.537804 0.786069 0.564233
0.573114 0.786557 0.572808
0.613794 0.787350 0.583856
0.649378 0.788998 0.584863
0.679255 0.791531 0.562646
0.719478 0.793759 0.534203
0.770840 0.795285 0.498390
0.832639 0.795926 0.453101
0.893462 0.789883 0.417578
0.949920 0.771237 0.333837
1.000000 0.748013 0.230472
1.000000 0.728542 0.055848
1.000000 0.711513 0.000000
0.598596 0.839200 0.649836
0.605005 0.839292 0.651301
0.616388 0.839414 0.653895
0.634180 0.839658 0.658167
0.657618 0.840085 0.664088
0.685603 0.840665 0.671687
0.716670 0.841581 0.680873
0.736477 0.843656 0.668605
0.761654 0.845823 0.649866
0.795377 0.847745 0.625757
0.838712 0.849180 0.594781
0.892393 0.849943 0.554620
0.943908 0.843107 0.523888
0.997498 0.824186 0.435950
1.000000 0.799130 0.328191
1.000000 0.776913 0.185855
0.687343 0.889189 0.728084
0.691615 0.889250 0.729061
0.699214 0.889433 0.730831
0.711330 0.889647 0.733608
0.727687 0.890043 0.737575
0.747768 0.890593 0.742702
0.770871 0.891325 0.748928
0.791043 0.892699 0.748714
0.808194 0.894804 0.736233
0.831418 0.896910 0.720607
0.861753 0.898894 0.700984
0.900175 0.900633 0.676204
0.947631 0.901884 0.644251
0.991180 0.894682 0.617731
1.000000 0.877623 0.542962
1.000000 0.852293 0.440589
0.759457 0.938293 0.794400
0.762570 0.938323 0.795041
0.768093 0.938415 0.796292
0.777005 0.938537 0.798276
0.789181 0.938750 0.801083
0.804440 0.939055 0.804746
0.822293 0.939483 0.809232
0.842191 0.940002 0.814511
0.855497 0.942077 0.806882
0.872557 0.944427 0.796292
0.894987 0.946929 0.783505
0.923552 0.949523 0.767941
0.959136 0.952087 0.748867
1.000000 0.954620 0.725063
1.000000 0.946929 0.706050
1.000000 0.932738 0.654170
0.010803 0.043610 0.077852
0.038117 0.044739 0.081880
0.093019 0.036957 0.085603
0.171084 0.025025 0.079622
0.238224 0.022736 0.059236
0.305364 0.045624 0.047028
0.379736 0.070832 0.030365
0.463600 0.096681 0.004883
0.558343 0.124514 0.000000
0.659602 0.155856 0.000000
0.757900 0.187594 0.000000
0.844388 0.216098 0.000000
0.918669 0.240513 0.000000
0.982025 0.260899 0.000000
1.000000 0.269657 0.000000
1.000000 0.272648 0.000000
0.015686 0.063233 0.085389
0.051759 0.068208 0.087037
0.095521 0.065187 0.091157
0.168490 0.057618 0.081819
0.235080 0.062715 0.068635
0.304234 0.076051 0.055940
0.380468 0.093050 0.036164
0.465492 0.113832 0.005066
0.560327 0.139651 0.000000
0.661616 0.169253 0.000000
0.759304 0.199313 0.000000
0.845396 0.226444 0.000000
0.919249 0.249638 0.000000
0.982483 0.268833 0.000000
1.000000 0.279149 0.000000
1.000000 0.281437 0.000000
0.017365 0.091615 0.096834
0.054810 0.094484 0.097688
0.098939 0.098939 0.098939
0.166720 0.099306 0.089876
0.234592 0.102602 0.078248
0.305913 0.110506 0.062654
0.383459 0.123232 0.039551
0.468971 0.141451 0.006226
0.564263 0.164767 0.000000
0.665095 0.192050 0.000000
0.761746 0.219577 0.000000
0.847257 0.244236 0.000000
0.920470 0.265537 0.000000
0.983154 0.283177 0.000000
1.000000 0.295781 0.000000
1.000000 0.297124 0.000000
0.021515 0.131044 0.111879
0.062165 0.133425 0.112947
0.112184 0.135470 0.116426
0.163333 0.142824 0.107637
0.237583 0.146914 0.087861
0.310094 0.152651 0.070375
0.388525 0.163485 0.046021
0.474922 0.179507 0.008545
0.570245 0.200626 0.000000
0.670802 0.225193 0.000000
0.765866 0.249546 0.000000
0.850187 0.271244 0.000000
0.922332 0.289586 0.000000
0.984405 0.304936 0.000000
1.000000 0.317815 0.000000
1.000000 0.320897 0.000000
0.052949 0.176791 0.133791
0.085542 0.178042 0.134737
0.128695 0.179232 0.138430
0.169131 0.182956 0.135195
0.234226 0.194888 0.117952
0.318578 0.204898 0.087343
0.395544 0.211429 0.055940
0.483009 0.225956 0.013825
0.578973 0.245243 0.000000
0.678584 0.267460 0.000000
0.771542 0.288304 0.000000
0.854215 0.306432 0.000000
0.924987 0.321202 0.000000
0.986145 0.333562 0.000000
1.000000 0.344152 0.000000
1.000000 0.351659 0.000000
0.079652 0.228672 0.160098
0.107881 0.229862 0.161563
0.148440 0.230594 0.165164
0.190311 0.232212 0.167880
0.237613 0.240238 0.152743
0.314946 0.256291 0.129061
0.411017 0.272557 0.083894
0.497292 0.282170 0.026703
0.589990 0.297642 0.000000
0.688167 0.317144 0.000000
0.778653 0.334264 0.000000
0.859159 0.348516 0.000000
0.928222 0.359472 0.000000
0.988373 0.368231 0.000000
1.000000 0.376043 0.000000
1.000000 0.383520 0.000000
0.104799 0.289036 0.191104
0.131136 0.290074 0.192569
0.170504 0.290593 0.195987
0.216098 0.291844 0.201541
0.258915 0.298528 0.191135
0.318181 0.307073 0.171084
0.409430 0.328954 0.139010
0.517266 0.351080 0.073976
0.613550 0.363989 0.000000
0.699367 0.373480 0.000000
0.786770 0.386481 0.000000
0.864714 0.396551 0.000000
0.931762 0.403388 0.000000
0.990845 0.408423 0.000000
1.000000 0.412940 0.000000
1.000000 0.418128 0.000000
0.126223 0.359564 0.225925
0.153597 0.360082 0.227634
0.193118 0.361059 0.230930
0.241917 0.362707 0.236454
0.289433 0.367529 0.234836
0.343420 0.376196 0.215274
0.412940 0.385473 0.189120
0.519402 0.414313 0.145144
0.633082 0.437568 0.050233
0.726253 0.446174 0.000000
0.800717 0.447517 0.000000
0.870420 0.449409 0.000000
0.935424 0.452033 0.000000
0.993439 0.453285 0.000000
1.000000 0.454444 0.000000
1.000000 0.456733 0.000000
0.145724 0.441505 0.265171
0.174472 0.442206 0.266972
0.216587 0.443488 0.270390
0.269200 0.445716 0.275853
0.326818 0.449042 0.283879
0.377722 0.457282 0.264927
0.444007 0.466316 0.239597
0.522728 0.476417 0.206729
0.636225 0.505577 0.150088
0.738399 0.518791 0.030182
0.821225 0.519097 0.000000
0.883238 0.511864 0.000000
0.939574 0.505211 0.000000
0.995789 0.502220 0.000000
1.000000 0.500114 0.000000
1.000000 0.499458 0.000000
0.169802 0.537072 0.311955
0.199313 0.537835 0.313817
0.244266 0.539269 0.317327
0.301213 0.541772 0.323278
0.364385 0.545403 0.331823
0.421515 0.551568 0.325444
0.483864 0.559442 0.300175
0.558495 0.567315 0.268406
0.645014 0.577691 0.230228
0.743313 0.591089 0.167880
0.825101 0.588769 0.052125
0.894621 0.579828 0.000000
0.949920 0.567529 0.000000
1.000000 0.556695 0.000000
1.000000 0.549401 0.000000
1.000000 0.545983 0.000000
0.230106 0.637537 0.375158
0.256077 0.638056 0.377356
0.297154 0.639063 0.381476
0.351720 0.640772 0.388159
0.414160 0.643214 0.397894
0.477485 0.646601 0.407233
0.529137 0.651972 0.382696
0.593774 0.657069 0.351873
0.668696 0.661494 0.313939
0.750973 0.666011 0.275090
0.828031 0.661616 0.211307
0.893431 0.647486 0.112734
0.954437 0.632685 0.000000
1.000000 0.617609 0.000000
1.000000 0.605280 0.000000
1.000000 0.596307 0.000000
0.347112 0.722133 0.462531
0.364416 0.722347 0.464881
0.393927 0.722774 0.469215
0.435828 0.723507 0.476356
0.486732 0.724575 0.486488
0.542168 0.726101 0.499763
0.585534 0.729030 0.490455
0.631586 0.732265 0.462440
0.689967 0.734890 0.427710
0.758633 0.736568 0.385534
0.830259 0.734676 0.348302
0.893553 0.720241 0.277867
0.950042 0.699702 0.184024
1.000000 0.681666 0.000000
1.000000 0.665583 0.000000
1.000000 0.652735 0.000000
0.483894 0.786709 0.564294
0.494331 0.786770 0.566247
0.512627 0.786954 0.569940
0.540276 0.787228 0.575860
0.575341 0.787778 0.584131
0.615717 0.788602 0.594965
0.654688 0.790036 0.602014
0.682338 0.792630 0.581109
0.720455 0.794888 0.554284
0.769711 0.796536 0.520317
0.829892 0.797238 0.477455
0.890593 0.791806 0.442359
0.947234 0.773495 0.362097
1.000000 0.750027 0.263890
1.000000 0.730159 0.125460
1.000000 0.712459 0.000000
0.599878 0.839963 0.657191
0.606226 0.840024 0.658595
0.617700 0.840208 0.661158
0.635309 0.840452 0.665278
0.658656 0.840909 0.671046
0.686549 0.841550 0.678462
0.717433 0.842496 0.687434
0.739223 0.844450 0.679805
0.763241 0.846647 0.661982
0.795682 0.848569 0.639246
0.837644 0.850065 0.609979
0.889891 0.850858 0.572168
0.941222 0.844785 0.542473
0.994629 0.826474 0.459083
1.000000 0.801419 0.354925
1.000000 0.778866 0.222324
0.687221 0.889860 0.732479
0.691432 0.889921 0.733394
0.699123 0.890074 0.735103
0.711238 0.890349 0.737911
0.727626 0.890776 0.741817
0.747768 0.891325 0.746822
0.770901 0.892088 0.752987
0.792905 0.893309 0.755612
0.809415 0.895415 0.743496
0.831937 0.897551 0.728389
0.861479 0.899565 0.709529
0.899107 0.901274 0.685725
0.945708 0.902586 0.655207
0.989136 0.895964 0.629938
1.000000 0.879454 0.558618
1.000000 0.854582 0.460945
0.758541 0.938872 0.797055
0.761654 0.938933 0.797726
0.767269 0.938994 0.798947
0.776242 0.939117 0.800931
0.788540 0.939361 0.803738
0.803891 0.939666 0.807370
0.821897 0.940093 0.811826
0.841855 0.940612 0.817105
0.856260 0.942473 0.811582
0.872892 0.944823 0.801175
0.894835 0.947326 0.788602
0.922972 0.949920 0.773342
0.958068 0.952514 0.754696
1.000000 0.955047 0.731502
1.000000 0.947753 0.712947
1.000000 0.933898 0.662745
0.002686 0.070924 0.124331
0.030762 0.071962 0.127687
0.078676 0.069642 0.131350
0.145327 0.060365 0.134707
0.230442 0.042176 0.131563
0.304936 0.022705 0.109407
0.381781 0.031128 0.087984
0.465248 0.063844 0.069612
0.558770 0.096254 0.039185
0.658930 0.131075 0.000000
0.757198 0.164218 0.000000
0.844358 0.194797 0.000000
0.918944 0.221958 0.000000
0.982605 0.245060 0.000000
1.000000 0.265171 0.000000
1.000000 0.282383 0.000000
0.016907 0.089998 0.131563
0.051698 0.093141 0.132387
0.089723 0.093629 0.136355
0.147372 0.085817 0.139132
0.229099 0.071473 0.132998
0.304479 0.054963 0.109621
0.381384 0.070008 0.093782
0.465644 0.091859 0.075044
0.559808 0.118044 0.045045
0.660609 0.147768 0.000000
0.758541 0.177890 0.000000
0.845304 0.206699 0.000000
0.919707 0.231937 0.000000
0.983093 0.253635 0.000000
1.000000 0.272679 0.000000
1.000000 0.289097 0.000000
0.023987 0.113771 0.140749
0.061433 0.116854 0.141573
0.104433 0.121675 0.142306
0.150668 0.116793 0.145449
0.228946 0.105867 0.134951
0.303563 0.104433 0.117861
0.381872 0.113802 0.102602
0.467506 0.129152 0.083558
0.562768 0.149508 0.050477
0.664118 0.174472 0.000000
0.761074 0.201328 0.000000
0.847257 0.226780 0.000000
0.920867 0.249393 0.000000
0.983948 0.268772 0.000000
1.000000 0.285924 0.000000
1.000000 0.301091 0.000000
0.023194 0.145602 0.153048
0.060395 0.147250 0.153475
0.105287 0.149996 0.153841
0.153994 0.153994 0.153994
0.229282 0.152529 0.142184
0.305303 0.154238 0.128206
0.385626 0.160464 0.111177
0.472999 0.172427 0.088716
0.568841 0.190066 0.053285
0.669764 0.212131 0.000000
0.765225 0.235416 0.000000
0.850187 0.257145 0.000000
0.922850 0.275914 0.000000
0.985199 0.292027 0.000000
1.000000 0.306584 0.000000
1.000000 0.319921 0.000000
0.018769 0.186954 0.168582
0.056458 0.189548 0.169436
0.107240 0.193240 0.170260
0.169680 0.195804 0.174350
0.227543 0.203647 0.164279
0.310124 0.206821 0.140597
0.391943 0.211795 0.120546
0.480903 0.222721 0.096162
0.577447 0.238743 0.058625
0.677607 0.258274 0.000000
0.770962 0.277775 0.000000
0.854154 0.295567 0.000000
0.925414 0.310185 0.000000
0.986908 0.322759 0.000000
1.000000 0.333959 0.000000
1.000000 0.344854 0.000000
0.035859 0.240330 0.192142
0.079927 0.241642 0.192813
0.130495 0.243626 0.194156
0.188266 0.245701 0.199100
0.236179 0.250706 0.194919
0.309941 0.263432 0.175296
0.405554 0.274266 0.141421
0.491035 0.279423 0.106477
0.588190 0.294316 0.066621
0.687037 0.311498 0.000000
0.777920 0.327276 0.000000
0.859068 0.340703 0.000000
0.928496 0.351263 0.000000
0.989014 0.359869 0.000000
1.000000 0.367590 0.000000
1.000000 0.375341 0.000000
0.072145 0.300114 0.221408
0.105745 0.301152 0.221836
0.152407 0.303075 0.223362
0.209567 0.304967 0.228550
0.261112 0.308446 0.231205
0.316655 0.316991 0.212924
0.405493 0.334997 0.186374
0.513146 0.352544 0.138949
0.607385 0.361059 0.085359
0.697475 0.370459 0.005158
0.786007 0.382300 0.000000
0.864439 0.391424 0.000000
0.931914 0.397711 0.000000
