luts/Elliot ● 16.cube
# Created by Adobe Lightroom plugin Export LUT (1.16.0)
# www.johnrellis.com/lightroom/exportlut.htm
# Preset: Elliot ●
# Color profile: C:\Program Files (x86)\Common Files\Adobe\Color\Profiles\Recommended\sRGB Color Space Profile.icm
LUT_3D_SIZE 6
DOMAIN_MIN 0.0 0.0 0.0
DOMAIN_MAX 1.0 1.0 1.0
0.000000 0.000000 0.000000
0.217746 0.033051 0.004364
0.437446 0.092744 0.000000
0.667964 0.142031 0.000000
0.864866 0.191806 0.000000
1.000000 0.238804 0.000000
0.000000 0.163546 0.066773
0.204868 0.176181 0.047730
0.438087 0.201633 0.005585
0.669154 0.229252 0.000000
0.865690 0.259892 0.000000
1.000000 0.292271 0.000000
0.000000 0.333349 0.169162
0.212680 0.335027 0.162325
0.437415 0.344060 0.137209
0.674708 0.364019 0.099825
0.868956 0.383795 0.017609
1.000000 0.405371 0.000000
0.088472 0.503593 0.275242
0.254368 0.504692 0.271641
0.457862 0.508110 0.255131
0.668147 0.519829 0.227085
0.870420 0.535576 0.204013
1.000000 0.548608 0.160311
0.208682 0.706996 0.383337
0.318303 0.707820 0.381079
0.503410 0.710384 0.372656
0.692836 0.715023 0.347448
0.881773 0.711574 0.325628
1.000000 0.711116 0.319493
0.418647 0.924437 0.562646
0.472206 0.925048 0.561730
0.600427 0.926787 0.558618
0.766598 0.930022 0.545159
0.951568 0.935485 0.517510
1.000000 0.909117 0.514122
0.000000 0.084382 0.209476
0.176577 0.080354 0.198245
0.420661 0.123720 0.174075
0.653559 0.178103 0.163027
0.856840 0.225254 0.126741
1.000000 0.270146 0.006165
0.000000 0.201755 0.227634
0.174807 0.206577 0.217624
0.418372 0.222599 0.205905
0.656550 0.244388 0.184360
0.858305 0.277256 0.149722
1.000000 0.313329 0.059327
0.000000 0.349920 0.277592
0.187778 0.353094 0.271336
0.427436 0.358434 0.256321
0.664210 0.376013 0.239719
0.861570 0.395392 0.210880
1.000000 0.415991 0.155856
0.000000 0.515343 0.344488
0.232425 0.516564 0.341802
0.451331 0.519615 0.330877
0.661433 0.528771 0.310063
0.864836 0.544732 0.295506
1.000000 0.557855 0.265721
0.177615 0.712673 0.431098
0.300084 0.713466 0.429114
0.495186 0.716060 0.423102
0.686122 0.720424 0.401160
0.876677 0.717311 0.381384
1.000000 0.718288 0.376349
0.405188 0.926085 0.590112
0.460395 0.926726 0.589227
0.591211 0.928466 0.586389
0.760464 0.931701 0.575097
0.945342 0.937224 0.549248
1.000000 0.912688 0.544335
0.000000 0.190707 0.414588
0.000000 0.173739 0.412268
0.372717 0.191928 0.398352
0.633539 0.219699 0.379034
0.841428 0.260624 0.357000
1.000000 0.314031 0.340368
0.000000 0.265507 0.422156
0.000000 0.262272 0.418524
0.378546 0.266514 0.406806
0.630274 0.286900 0.391058
0.840238 0.315557 0.372656
1.000000 0.350652 0.347265
0.000000 0.389593 0.442969
0.000000 0.391119 0.439002
0.395331 0.395117 0.427741
0.635279 0.407324 0.418250
0.842741 0.427619 0.402686
1.000000 0.445319 0.374212
0.000000 0.539300 0.478096
0.139376 0.541985 0.475624
0.421118 0.548028 0.468330
0.642359 0.553277 0.455116
0.850980 0.571344 0.448188
1.000000 0.583154 0.424292
0.000000 0.726131 0.530510
0.193881 0.727230 0.530785
0.459968 0.729946 0.533410
0.665370 0.734493 0.520226
0.861662 0.733547 0.502281
1.000000 0.738705 0.498421
0.260716 0.932952 0.636408
0.384649 0.932494 0.646967
0.553429 0.933593 0.652522
0.739010 0.936645 0.646479
0.926757 0.942229 0.623651
1.000000 0.922210 0.615198
0.000000 0.293523 0.602319
0.000000 0.284581 0.601343
0.220096 0.277195 0.597986
0.592218 0.290166 0.582483
0.817716 0.323430 0.556634
0.999847 0.447547 0.575830
0.000000 0.344182 0.606531
0.000000 0.339696 0.604669
0.240421 0.331121 0.601465
0.594934 0.341650 0.587182
0.814786 0.373693 0.563287
1.000000 0.458747 0.572107
0.000000 0.445624 0.618585
0.000000 0.445930 0.616449
0.282841 0.445289 0.610254
0.599878 0.454902 0.599268
0.809354 0.486275 0.585199
1.000000 0.520775 0.580743
0.000000 0.580743 0.637720
0.000000 0.581628 0.635706
0.314092 0.585168 0.629938
0.605921 0.594202 0.618738
0.824918 0.608911 0.608850
1.000000 0.621576 0.589715
0.000000 0.751156 0.674372
0.000000 0.751308 0.671290
0.308507 0.752102 0.663020
0.618830 0.757229 0.660212
0.836423 0.760281 0.646509
1.000000 0.770932 0.643153
0.000000 0.952819 0.700557
0.000000 0.951934 0.696101
0.290593 0.947814 0.717525
0.679347 0.946319 0.748013
0.890654 0.951446 0.734432
1.000000 0.938689 0.721706
0.000000 0.397101 0.794827
0.000000 0.393896 0.794156
0.000000 0.394873 0.792203
0.504875 0.408606 0.788449
0.791562 0.439551 0.773068
0.987335 0.485512 0.740352
0.000000 0.432502 0.797238
0.000000 0.430671 0.796139
0.000000 0.432685 0.793851
0.511620 0.448066 0.790005
0.790951 0.475715 0.775265
0.986511 0.516747 0.745418
0.000000 0.513176 0.804776
0.000000 0.512810 0.803586
0.000000 0.515373 0.799557
0.524804 0.536370 0.794797
0.790524 0.557183 0.782010
0.987152 0.592920 0.759213
0.000000 0.628626 0.818112
0.000000 0.628626 0.817044
0.000000 0.629419 0.813504
0.507988 0.642725 0.804990
0.791165 0.667048 0.794339
0.992798 0.701076 0.783749
0.000000 0.773587 0.835386
0.000000 0.774899 0.834348
0.000000 0.779385 0.831022
0.500114 0.788266 0.824430
0.796323 0.799985 0.813626
1.000000 0.809873 0.802976
0.000000 0.980591 0.885893
0.000000 0.979675 0.882383
0.000000 0.976349 0.872465
0.371466 0.971130 0.855955
0.829007 0.966949 0.862211
1.000000 0.963622 0.850004
0.000000 0.510338 0.986206
0.000000 0.516106 0.985290
0.000000 0.545739 0.981720
0.503960 0.610681 0.974456
0.766873 0.649348 0.968872
0.987671 0.678981 0.958465
0.000000 0.530999 0.987640
0.000000 0.536461 0.986694
0.000000 0.564080 0.983032
0.511315 0.633356 0.975097
0.768826 0.668330 0.969665
0.987701 0.694667 0.959625
0.000000 0.575982 0.992889
0.000000 0.580285 0.991974
0.000000 0.603143 0.988159
0.499001 0.676967 0.978943
0.771267 0.713436 0.972869
0.988678 0.734035 0.963500
0.000000 0.658534 1.000000
0.000000 0.655940 1.000000
0.000000 0.651728 1.000000
0.340795 0.713252 0.990509
0.767514 0.776761 0.980133
0.991394 0.796201 0.971099
0.000000 0.790066 1.000000
0.000000 0.789853 1.000000
0.000000 0.790951 1.000000
0.000000 0.803464 1.000000
0.710353 0.847227 0.994507
0.995239 0.883574 0.982940
0.000000 0.942748 1.000000
0.000000 0.944121 1.000000
0.000000 0.950103 1.000000
0.000000 0.964385 1.000000
0.622705 0.984283 1.000000
1.000000 1.000000 1.000000
