luts/Elliot ● 16.cube
# Created by Adobe Lightroom plugin Export LUT (1.16.0)
# www.johnrellis.com/lightroom/exportlut.htm
# Preset: Elliot ●
# Color profile: C:\Program Files (x86)\Common Files\Adobe\Color\Profiles\Recommended\sRGB Color Space Profile.icm
LUT_3D_SIZE 16
DOMAIN_MIN 0.0 0.0 0.0
DOMAIN_MAX 1.0 1.0 1.0
0.000000 0.000000 0.000000
0.071748 0.004883 0.001862
0.145052 0.015473 0.004150
0.217746 0.033051 0.004364
0.289097 0.054871 0.002930
0.360998 0.075380 0.000122
0.437446 0.092744 0.000000
0.516625 0.108125 0.000000
0.593378 0.124788 0.000000
0.667964 0.142031 0.000000
0.738308 0.158816 0.000000
0.802914 0.174960 0.000000
0.864866 0.191806 0.000000
0.926360 0.207950 0.000000
0.988952 0.223056 0.000000
1.000000 0.238804 0.000000
0.000885 0.053742 0.015290
0.071382 0.056245 0.010132
0.144045 0.066163 0.003388
0.216770 0.079408 0.000000
0.287816 0.093812 0.000000
0.360174 0.108431 0.000000
0.437171 0.121492 0.000000
0.516258 0.134066 0.000000
0.593225 0.147616 0.000000
0.667903 0.161807 0.000000
0.738247 0.176028 0.000000
0.802945 0.190341 0.000000
0.864958 0.205356 0.000000
0.926543 0.220066 0.000000
0.989197 0.234165 0.000000
1.000000 0.248936 0.000000
0.000366 0.107271 0.037812
0.066835 0.109224 0.033478
0.137270 0.116762 0.024262
0.214023 0.128420 0.013458
0.286259 0.138582 0.001953
0.359442 0.149599 0.000000
0.436835 0.160891 0.000000
0.516289 0.170962 0.000000
0.593347 0.181155 0.000000
0.668208 0.192569 0.000000
0.738277 0.203677 0.000000
0.803067 0.215213 0.000000
0.865141 0.227909 0.000000
0.926940 0.240635 0.000000
0.989654 0.252964 0.000000
1.000000 0.266331 0.000000
0.000000 0.163546 0.066773
0.063874 0.164614 0.064698
0.131563 0.167117 0.058198
0.204868 0.176181 0.047730
0.283482 0.186557 0.035492
0.359411 0.194491 0.021515
0.438087 0.201633 0.005585
0.517754 0.209323 0.000000
0.594507 0.218601 0.000000
0.669154 0.229252 0.000000
0.738674 0.240055 0.000000
0.803433 0.249668 0.000000
0.865690 0.259892 0.000000
0.927550 0.270634 0.000000
0.990417 0.280949 0.000000
1.000000 0.292271 0.000000
0.000000 0.221469 0.100130
0.060029 0.222049 0.098482
0.132326 0.223484 0.095003
0.200900 0.226078 0.087251
0.276036 0.234134 0.077760
0.358251 0.242588 0.066926
0.439948 0.248234 0.053071
0.520195 0.253880 0.033692
0.596735 0.260533 0.009735
0.670954 0.268711 0.000000
0.739773 0.276982 0.000000
0.804379 0.286625 0.000000
0.866545 0.298039 0.000000
0.928679 0.307713 0.000000
0.991577 0.316106 0.000000
1.000000 0.325200 0.000000
0.000000 0.278202 0.134463
0.060914 0.278660 0.133394
0.136843 0.279240 0.130861
0.204959 0.281010 0.125246
0.274205 0.283146 0.116823
0.353887 0.289830 0.107820
0.440711 0.296788 0.097566
0.521752 0.301732 0.084993
0.599634 0.308049 0.068360
0.673274 0.314214 0.043885
0.741207 0.320500 0.013642
0.805539 0.328588 0.000000
0.867674 0.338140 0.000000
0.930114 0.347967 0.000000
0.993256 0.356664 0.000000
1.000000 0.363439 0.000000
0.000000 0.333349 0.169162
0.071626 0.333593 0.168185
0.143099 0.334081 0.166293
0.212680 0.335027 0.162325
0.281987 0.336461 0.155612
0.354467 0.337804 0.145815
0.437415 0.344060 0.137209
0.522393 0.351629 0.126619
0.599695 0.357519 0.114717
0.674708 0.364019 0.099825
0.742763 0.369604 0.081758
0.806668 0.376135 0.056489
0.868956 0.383795 0.017609
0.931731 0.391485 0.000000
0.995178 0.398779 0.000000
1.000000 0.405371 0.000000
0.020844 0.388067 0.204776
0.087739 0.388281 0.203983
0.154208 0.388678 0.202426
0.224552 0.389197 0.199863
0.293339 0.390173 0.194186
0.365179 0.391180 0.185855
0.436957 0.392157 0.175174
0.517693 0.400153 0.166537
0.599115 0.409583 0.156191
0.672633 0.415320 0.144839
0.742184 0.421149 0.132479
0.807889 0.427588 0.117403
0.870390 0.433204 0.097169
0.933684 0.438788 0.068879
0.997192 0.444068 0.019867
1.000000 0.449287 0.000000
0.054047 0.443915 0.240452
0.106661 0.444099 0.239780
0.168856 0.444404 0.238437
0.237461 0.444923 0.236179
0.307347 0.445563 0.232059
0.376776 0.446540 0.225101
0.445930 0.447913 0.215976
0.514031 0.449500 0.205295
0.593042 0.459297 0.196384
0.670741 0.467933 0.187198
0.740139 0.473091 0.177646
0.806241 0.478676 0.167453
0.871427 0.484382 0.155123
0.935912 0.488777 0.138643
0.999298 0.492653 0.116274
1.000000 0.496956 0.081788
0.088472 0.503593 0.275242
0.131930 0.503807 0.274723
0.188235 0.504143 0.273533
0.254368 0.504692 0.271641
0.323857 0.505516 0.268894
0.390600 0.506584 0.263035
0.457862 0.508110 0.255131
0.525475 0.510094 0.245243
0.593469 0.512505 0.234379
0.668147 0.519829 0.227085
0.738186 0.525505 0.220096
0.804440 0.530571 0.212680
0.870420 0.535576 0.204013
0.936614 0.540337 0.193729
1.000000 0.544854 0.180240
1.000000 0.548608 0.160311
0.129244 0.568505 0.309606
0.164065 0.568688 0.308995
0.214054 0.568902 0.308171
0.275181 0.569360 0.306645
0.341344 0.570062 0.304295
0.407477 0.570977 0.300084
0.472786 0.572107 0.293339
0.539422 0.573571 0.284947
0.606287 0.575433 0.274571
0.671809 0.577203 0.264591
0.739071 0.581659 0.258946
0.802976 0.584710 0.253696
0.869261 0.589319 0.247654
0.935851 0.593988 0.240421
1.000000 0.598535 0.231815
1.000000 0.603052 0.220523
0.171328 0.635706 0.345037
0.198795 0.635828 0.344549
0.241306 0.636103 0.343664
0.296544 0.636561 0.342382
0.358495 0.637263 0.340337
0.424231 0.638331 0.337621
0.487770 0.639399 0.331670
0.552789 0.640803 0.324193
0.618067 0.642695 0.314946
0.682612 0.645045 0.303838
0.744594 0.645655 0.294621
0.808225 0.646937 0.290776
0.869810 0.646326 0.287083
0.935149 0.649348 0.282811
1.000000 0.653437 0.277653
1.000000 0.657313 0.271092
0.208682 0.706996 0.383337
0.231601 0.707149 0.382971
0.268467 0.707393 0.382361
0.318303 0.707820 0.381079
0.376715 0.708492 0.379339
0.439979 0.709377 0.377020
0.503410 0.710384 0.372656
0.566064 0.711604 0.365789
0.629175 0.713161 0.357580
0.692836 0.715023 0.347448
0.758083 0.717098 0.335393
0.819974 0.714626 0.327611
0.881773 0.711574 0.325628
0.938872 0.707027 0.323552
1.000000 0.707820 0.321630
1.000000 0.711116 0.319493
0.261204 0.778714 0.429603
0.279118 0.778805 0.429328
0.309545 0.778988 0.428656
0.352789 0.779294 0.427680
0.405280 0.779721 0.426184
0.463569 0.780331 0.424201
0.524987 0.781216 0.421668
0.583490 0.782132 0.415412
0.644373 0.783261 0.407813
0.707637 0.784512 0.398566
0.773831 0.785794 0.387579
0.841855 0.787106 0.374487
0.900542 0.781064 0.368505
0.956603 0.774258 0.368414
1.000000 0.766445 0.367620
1.000000 0.764950 0.368597
0.335180 0.849699 0.489021
0.348363 0.849760 0.488685
0.371405 0.849943 0.488258
0.405615 0.850217 0.487404
0.448646 0.850645 0.486213
0.498634 0.851255 0.484657
0.553674 0.852079 0.482673
0.610224 0.852995 0.478431
0.668452 0.853971 0.471504
0.730495 0.855039 0.463050
0.795041 0.856199 0.452918
0.860960 0.857481 0.440925
0.927703 0.858976 0.426581
0.980072 0.849180 0.423529
1.000000 0.838804 0.425025
1.000000 0.827604 0.425635
0.418647 0.924437 0.562646
0.428321 0.924529 0.562493
0.445472 0.924712 0.562219
0.472206 0.925048 0.561730
0.507591 0.925475 0.560998
0.550774 0.926085 0.559991
0.600427 0.926787 0.558618
0.655207 0.927581 0.556970
0.709224 0.928710 0.551598
0.766598 0.930022 0.545159
0.826352 0.931579 0.537407
0.888090 0.933379 0.528222
0.951568 0.935485 0.517510
1.000000 0.936553 0.505150
1.000000 0.923461 0.507774
1.000000 0.909117 0.514122
0.000000 0.017182 0.072572
0.057618 0.021576 0.067323
0.138064 0.030884 0.062196
0.212192 0.046479 0.051118
0.280400 0.075563 0.051667
0.352972 0.096437 0.041810
0.429999 0.114961 0.027405
0.510063 0.130922 0.009461
0.588128 0.147066 0.000000
0.663508 0.164126 0.000000
0.734829 0.179477 0.000000
0.800259 0.192569 0.000000
0.862913 0.206516 0.000000
0.924926 0.220035 0.000000
0.987915 0.232944 0.000000
1.000000 0.246708 0.000000
0.000000 0.067659 0.081147
0.055695 0.070680 0.076051
0.133852 0.077852 0.072389
0.207767 0.089662 0.067201
0.279789 0.104250 0.060609
0.353002 0.119936 0.050446
0.430549 0.134524 0.036774
0.510765 0.147707 0.018067
0.588556 0.162081 0.000000
0.664027 0.177157 0.000000
0.735042 0.192447 0.000000
0.800473 0.205692 0.000000
0.863096 0.218387 0.000000
0.925170 0.230991 0.000000
0.988159 0.243229 0.000000
1.000000 0.256107 0.000000
0.000000 0.118685 0.095552
0.053590 0.121523 0.092164
0.129641 0.125826 0.087068
0.206149 0.134249 0.081697
0.278996 0.143587 0.074861
0.353185 0.154299 0.065705
0.431495 0.164767 0.053346
0.511925 0.175082 0.035462
0.589624 0.186526 0.013092
0.664942 0.199283 0.000000
0.735592 0.212284 0.000000
0.800870 0.226047 0.000000
0.863493 0.238804 0.000000
0.925658 0.250095 0.000000
0.988708 0.260929 0.000000
1.000000 0.272618 0.000000
0.000000 0.173159 0.115328
0.049622 0.174563 0.111757
0.127108 0.176455 0.108217
0.200290 0.182437 0.101747
0.277745 0.190768 0.095216
0.354009 0.198215 0.087068
0.433509 0.205234 0.076570
0.513878 0.212436 0.062226
0.591333 0.221286 0.042206
0.666438 0.231388 0.015290
0.736538 0.241733 0.000000
0.801633 0.253422 0.000000
0.864195 0.266453 0.000000
0.926482 0.278111 0.000000
0.989624 0.287419 0.000000
1.000000 0.297520 0.000000
0.000000 0.228580 0.136599
0.045869 0.229129 0.135378
0.128450 0.230137 0.132845
0.198428 0.232456 0.126802
0.272831 0.238560 0.119844
0.354314 0.245884 0.112673
0.436408 0.251377 0.103792
0.516930 0.256626 0.092287
0.593774 0.263127 0.077119
0.668574 0.270939 0.055909
0.737758 0.279118 0.028473
0.802762 0.288548 0.000000
0.865202 0.299840 0.000000
0.927642 0.311620 0.000000
0.990936 0.321233 0.000000
1.000000 0.329412 0.000000
0.000000 0.283238 0.162966
0.048646 0.283574 0.162081
0.131441 0.284123 0.159976
0.202609 0.285557 0.155673
0.272679 0.287572 0.148196
0.351812 0.293065 0.140902
0.438025 0.299443 0.132845
0.519280 0.304326 0.123690
0.597101 0.310277 0.111910
0.670985 0.316442 0.096468
0.739254 0.322728 0.077913
0.803983 0.330632 0.052491
0.866361 0.340093 0.013184
0.929076 0.349798 0.000000
0.992615 0.359045 0.000000
1.000000 0.366674 0.000000
0.000000 0.337072 0.192569
0.060731 0.337285 0.191714
0.137789 0.337774 0.190097
0.210697 0.338598 0.186893
0.280797 0.339818 0.180545
0.353674 0.341192 0.171817
0.435981 0.346746 0.164218
0.520134 0.353796 0.156039
0.597772 0.359655 0.146212
0.672847 0.366247 0.134524
0.740932 0.371618 0.120516
0.805142 0.378149 0.102907
0.867674 0.385748 0.079652
0.930724 0.393347 0.043610
0.994354 0.400519 0.000000
1.000000 0.407294 0.000000
0.002747 0.391028 0.224460
0.077852 0.391272 0.223728
0.148714 0.391608 0.222354
0.221439 0.392126 0.219944
0.292027 0.392981 0.214725
0.364111 0.393896 0.207431
0.436500 0.395178 0.197543
0.516167 0.402380 0.189975
0.597345 0.411444 0.180789
0.671046 0.417151 0.171420
0.740749 0.423011 0.161013
0.806394 0.429480 0.148592
0.869078 0.435096 0.132326
0.932616 0.440558 0.111574
0.996338 0.445747 0.081178
1.000000 0.451026 0.025635
0.037324 0.446418 0.256840
0.098848 0.446571 0.256199
0.163668 0.446937 0.254978
0.234257 0.447395 0.252964
0.305821 0.448035 0.249424
0.375494 0.448951 0.242863
0.445106 0.450263 0.234318
0.512932 0.451637 0.224186
0.591760 0.461219 0.216251
0.669276 0.469520 0.208042
0.738705 0.474739 0.199893
0.805051 0.480415 0.190799
0.870359 0.486091 0.180301
0.934844 0.490364 0.165957
0.998474 0.494301 0.146975
1.000000 0.498604 0.120272
0.077241 0.505791 0.289036
0.124605 0.505974 0.288365
0.183841 0.506279 0.287419
0.251041 0.506859 0.285618
0.321569 0.507622 0.283116
0.389288 0.508721 0.277836
0.456764 0.510155 0.270359
0.524590 0.512078 0.261082
0.592554 0.514336 0.250950
0.666926 0.521416 0.244114
0.736965 0.526909 0.237766
0.803311 0.532006 0.231174
0.869383 0.537133 0.223270
0.935729 0.541894 0.213870
1.000000 0.546410 0.201511
1.000000 0.550195 0.183688
0.120882 0.570275 0.321202
0.158145 0.570367 0.320745
0.209628 0.570642 0.319799
0.271946 0.571038 0.318273
0.338903 0.571710 0.316045
0.406104 0.572625 0.312352
0.471626 0.573754 0.306035
0.538293 0.575189 0.297978
0.605310 0.577020 0.288060
0.670863 0.578668 0.278416
0.738003 0.583062 0.273198
0.801968 0.585962 0.268315
0.868376 0.590753 0.262669
0.935058 0.595483 0.256077
1.000000 0.600092 0.247990
1.000000 0.604608 0.237156
0.164950 0.637049 0.354955
0.193942 0.637201 0.354467
0.237430 0.637446 0.353735
0.293126 0.637903 0.352361
0.355749 0.638636 0.350469
0.422156 0.639643 0.347814
0.486397 0.640742 0.342351
0.551598 0.642176 0.335088
0.616938 0.644007 0.326207
0.681605 0.646326 0.315404
0.743587 0.646937 0.306523
0.807309 0.648096 0.302800
0.868894 0.647486 0.299321
0.934356 0.650690 0.295293
0.999451 0.654841 0.290471
1.000000 0.658686 0.284092
0.203922 0.708003 0.392035
0.227390 0.708125 0.391730
0.264744 0.708400 0.391058
0.315312 0.708827 0.389837
0.374151 0.709468 0.388190
0.437781 0.710353 0.385931
0.502159 0.711452 0.381933
0.564843 0.712612 0.375341
0.627924 0.714137 0.367193
0.691707 0.715969 0.357397
0.756985 0.717983 0.345586
0.819028 0.715633 0.337926
0.880980 0.712520 0.336065
0.937987 0.708095 0.334112
0.999603 0.709041 0.332250
1.000000 0.712337 0.330175
0.257725 0.779385 0.437293
0.276341 0.779477 0.437018
0.306920 0.779629 0.436408
0.350713 0.779904 0.435462
0.403388 0.780392 0.434058
0.461830 0.781003 0.432105
0.523278 0.781857 0.429633
0.582391 0.782803 0.423682
0.643183 0.783932 0.416266
0.706477 0.785183 0.407172
0.772671 0.786435 0.396399
0.840757 0.787747 0.383490
0.899657 0.781888 0.377508
0.955749 0.775113 0.377386
1.000000 0.767361 0.376654
1.000000 0.766110 0.377630
0.333288 0.850095 0.495552
0.346532 0.850187 0.495308
0.369482 0.850370 0.494789
0.403845 0.850645 0.494026
0.447150 0.851072 0.492897
0.497078 0.851682 0.491402
0.552209 0.852506 0.489326
0.609277 0.853422 0.485481
0.667506 0.854429 0.478614
0.729427 0.855467 0.470405
0.793912 0.856626 0.460487
0.859831 0.857939 0.448676
0.926574 0.859434 0.434577
0.979156 0.849882 0.431220
1.000000 0.839597 0.432685
1.000000 0.828458 0.433234
0.416693 0.924712 0.567590
0.426368 0.924834 0.567437
0.443580 0.925017 0.567163
0.470466 0.925322 0.566674
0.505882 0.925750 0.565911
0.549187 0.926360 0.564965
0.598932 0.927062 0.563653
0.653864 0.927886 0.561975
0.708248 0.928985 0.556909
0.765621 0.930297 0.550500
0.825345 0.931853 0.542870
0.887022 0.933684 0.533867
0.950530 0.935760 0.523186
1.000000 0.937255 0.510857
1.000000 0.924041 0.513359
1.000000 0.909728 0.519554
0.000000 0.047639 0.142580
0.003479 0.044526 0.139742
0.116030 0.048249 0.133639
0.205478 0.056703 0.128664
0.278019 0.071504 0.114382
0.348577 0.098634 0.111635
0.423896 0.121645 0.110597
0.503807 0.138979 0.106020
0.582910 0.153231 0.093965
0.659052 0.168734 0.078340
0.731075 0.184573 0.057343
0.797177 0.200656 0.027985
0.860441 0.217716 0.000000
0.923003 0.234714 0.000000
0.986572 0.246677 0.000000
1.000000 0.257694 0.000000
0.000000 0.090181 0.147372
0.005921 0.089784 0.144839
0.115755 0.091707 0.139681
0.197940 0.101411 0.134676
0.272251 0.112245 0.127260
0.345312 0.128969 0.124575
0.423346 0.143374 0.119783
0.504601 0.155245 0.110811
0.583429 0.167910 0.099031
0.659632 0.181888 0.083772
0.731472 0.196323 0.064637
0.797452 0.211307 0.036988
0.860685 0.227390 0.000000
0.923308 0.243565 0.000000
0.986908 0.256046 0.000000
1.000000 0.266453 0.000000
0.000000 0.136141 0.155612
0.004486 0.137087 0.152895
0.113710 0.139834 0.148043
0.193668 0.145754 0.144839
0.269078 0.153719 0.140749
0.344945 0.163333 0.135317
0.424567 0.172732 0.128176
0.506035 0.181827 0.119295
0.584741 0.192386 0.107851
0.660700 0.204196 0.093782
0.731991 0.216587 0.076295
0.798001 0.229709 0.052003
0.861204 0.244297 0.014923
0.923857 0.259312 0.000000
0.987549 0.272282 0.000000
1.000000 0.281926 0.000000
0.000000 0.183780 0.166354
0.014374 0.185977 0.165164
0.113558 0.188937 0.162020
0.191135 0.192416 0.157565
0.269261 0.198917 0.153780
0.346441 0.205386 0.148226
0.427192 0.211704 0.141207
0.508537 0.218479 0.132601
0.586664 0.226474 0.121950
0.662379 0.236027 0.109071
0.732998 0.245945 0.093324
0.798825 0.257267 0.073121
0.861967 0.270054 0.042634
0.924712 0.283238 0.000000
0.988495 0.295964 0.000000
1.000000 0.305486 0.000000
0.000000 0.236912 0.185397
0.014221 0.238285 0.182773
0.113863 0.239933 0.179568
0.192111 0.241611 0.175479
0.267002 0.245884 0.170138
0.348089 0.251926 0.165316
0.431098 0.257023 0.159030
0.511925 0.261692 0.150881
0.589410 0.267857 0.140963
0.664576 0.275395 0.129122
0.734401 0.283299 0.115450
0.799924 0.292668 0.098329
0.862943 0.303593 0.074891
0.925811 0.315068 0.036561
0.989654 0.325994 0.000000
1.000000 0.335821 0.000000
0.000000 0.289799 0.205173
0.014466 0.290806 0.202976
0.117128 0.291722 0.200900
0.196872 0.292699 0.198154
0.269108 0.294499 0.191867
0.347784 0.298680 0.185824
0.433265 0.304234 0.180087
0.515251 0.309026 0.173281
0.593011 0.314519 0.164584
0.667262 0.320439 0.153536
0.736080 0.326665 0.141482
0.801175 0.334600 0.127077
0.864073 0.343908 0.108186
0.927153 0.353491 0.081941
0.991089 0.362493 0.036439
1.000000 0.370947 0.000000
0.000000 0.342748 0.228946
0.027588 0.343359 0.227604
0.124453 0.343755 0.226078
0.204349 0.344366 0.223819
0.277226 0.345495 0.218692
0.351385 0.346624 0.211032
0.432715 0.351293 0.204715
0.516381 0.357824 0.198367
0.594385 0.363653 0.190738
0.669673 0.370214 0.181949
0.737789 0.375250 0.171542
0.802426 0.381872 0.158724
0.865354 0.389441 0.143343
0.928801 0.396887 0.123476
0.992798 0.403906 0.095918
1.000000 0.410529 0.047883
0.000000 0.396185 0.255131
0.051301 0.396246 0.254856
0.135897 0.396674 0.253574
0.213901 0.397101 0.251591
0.288823 0.397864 0.247807
0.361883 0.398749 0.241062
0.434699 0.399969 0.232334
0.513390 0.406378 0.225803
0.594110 0.414771 0.218814
0.668116 0.420569 0.211337
0.738125 0.426581 0.203098
0.803738 0.432654 0.193088
0.866758 0.438453 0.180423
0.930694 0.443854 0.165011
0.994781 0.449012 0.145052
1.000000 0.454170 0.116274
0.000000 0.450843 0.283696
0.077974 0.451057 0.283146
0.152621 0.451301 0.282048
0.227237 0.451759 0.280247
0.302617 0.452308 0.277653
0.373114 0.453254 0.271763
0.443061 0.454536 0.264164
0.510948 0.455512 0.254978
0.589441 0.464576 0.248203
0.666529 0.472480 0.241459
0.736294 0.477790 0.234958
0.802823 0.483497 0.227390
0.868467 0.489326 0.218631
0.932952 0.493446 0.206485
0.996857 0.497353 0.191165
1.000000 0.501640 0.170596
0.051179 0.509636 0.312016
0.108980 0.509789 0.311437
0.173648 0.510094 0.310552
0.244480 0.510613 0.308934
0.317113 0.511376 0.306645
0.386938 0.512474 0.302342
0.454810 0.513878 0.295537
0.522881 0.515709 0.287236
0.590692 0.517601 0.277775
0.664851 0.524254 0.271885
0.734646 0.529564 0.266514
0.801266 0.534813 0.260868
0.867582 0.540032 0.254154
0.934142 0.544884 0.246006
0.998810 0.549340 0.235142
1.000000 0.553124 0.219577
0.103914 0.573388 0.340978
0.145449 0.573449 0.340551
0.200778 0.573693 0.339696
0.265507 0.574121 0.338323
0.334020 0.574762 0.336278
0.403388 0.575647 0.333379
0.469276 0.576776 0.327398
0.536248 0.578119 0.320043
0.603540 0.579889 0.310826
0.669001 0.581415 0.301701
0.736019 0.585534 0.297093
0.799893 0.588434 0.292821
0.866667 0.593347 0.287907
0.933562 0.598230 0.281834
0.998718 0.602899 0.274418
1.000000 0.607477 0.264714
0.152346 0.639521 0.372168
0.183230 0.639643 0.371832
0.229282 0.639918 0.371099
0.286839 0.640345 0.369848
0.350896 0.641016 0.368078
0.418128 0.642054 0.365576
0.484016 0.643214 0.360906
0.549340 0.644556 0.354009
0.614893 0.646296 0.345617
0.679591 0.648646 0.335454
0.741756 0.649226 0.326909
0.805509 0.650294 0.323522
0.867094 0.649683 0.320287
0.933013 0.653101 0.316625
0.998260 0.657313 0.312078
1.000000 0.661189 0.306218
0.194308 0.709834 0.407568
0.219150 0.709957 0.407172
0.257725 0.710231 0.406531
0.309606 0.710628 0.405432
0.369482 0.711269 0.403815
0.433967 0.712123 0.401678
0.499763 0.713222 0.398383
0.562463 0.714412 0.392004
0.625666 0.715877 0.384192
0.689601 0.717708 0.374701
0.755001 0.719661 0.363622
0.817411 0.717433 0.355871
0.879301 0.714351 0.354162
0.936492 0.710018 0.352392
0.998444 0.711238 0.350744
1.000000 0.714626 0.348577
0.252140 0.780545 0.451087
0.270817 0.780636 0.450843
0.302342 0.780819 0.450324
0.346410 0.781094 0.449409
0.399756 0.781552 0.447974
0.458534 0.782162 0.446143
0.520348 0.783017 0.443793
0.580285 0.783993 0.438575
0.641108 0.785122 0.431250
0.704372 0.786404 0.422461
0.770626 0.787625 0.411963
0.838773 0.788907 0.399573
0.898009 0.783291 0.393347
0.954223 0.776669 0.393225
1.000000 0.769070 0.392462
1.000000 0.768124 0.393408
0.328985 0.850889 0.507195
0.342443 0.850950 0.506920
0.365728 0.851133 0.506432
0.400366 0.851438 0.505730
0.443977 0.851835 0.504631
0.494148 0.852506 0.503166
0.549401 0.853269 0.501183
0.607416 0.854215 0.497993
0.665644 0.855222 0.491371
0.727504 0.856291 0.483375
0.791928 0.857450 0.473762
0.857786 0.858762 0.462287
0.924468 0.860258 0.448707
0.977539 0.851102 0.444923
1.000000 0.841001 0.446296
1.000000 0.830045 0.446815
0.412512 0.925231 0.576379
0.422431 0.925353 0.576287
0.439857 0.925536 0.576013
0.466926 0.925841 0.575494
0.502647 0.926299 0.574792
0.546136 0.926909 0.573816
0.596124 0.927581 0.572534
0.651240 0.928405 0.570947
0.706355 0.929503 0.566400
0.763699 0.930846 0.560174
0.823392 0.932403 0.552697
0.885069 0.934234 0.543847
0.948516 0.936339 0.533440
1.000000 0.938506 0.521202
1.000000 0.925078 0.523308
1.000000 0.910857 0.529351
0.000000 0.084382 0.209476
0.000000 0.077882 0.208011
0.059236 0.071626 0.204990
0.176577 0.080354 0.198245
0.269108 0.090425 0.194766
0.341466 0.113375 0.185183
0.420661 0.123720 0.174075
0.500450 0.141817 0.170230
0.578332 0.159670 0.166720
0.653559 0.178103 0.163027
0.725887 0.193790 0.154574
0.792844 0.209079 0.142458
0.856840 0.225254 0.126741
0.920195 0.241245 0.104921
0.984558 0.256138 0.071626
1.000000 0.270146 0.006165
0.000000 0.118532 0.212741
0.000000 0.114687 0.211246
0.062287 0.110445 0.208621
0.176150 0.117037 0.202457
0.263798 0.125521 0.197971
0.337499 0.142550 0.191592
0.418738 0.149294 0.181918
0.499458 0.162844 0.177798
0.577722 0.177371 0.174075
0.653773 0.192111 0.168185
0.726162 0.205356 0.158083
0.793088 0.219486 0.146334
0.857115 0.234806 0.130922
0.920439 0.250187 0.109682
0.984863 0.264408 0.077455
1.000000 0.278019 0.015930
0.000000 0.156130 0.218753
0.000000 0.156222 0.216983
0.068330 0.156497 0.213779
0.175662 0.159548 0.208560
0.257847 0.167605 0.204257
0.336400 0.174472 0.197818
0.416938 0.183810 0.193668
0.498634 0.193484 0.189822
0.578058 0.202914 0.182986
0.654810 0.213443 0.174380
0.726802 0.225010 0.164614
0.793698 0.237583 0.152956
0.857542 0.251652 0.138338
0.920989 0.265843 0.118013
0.985351 0.279240 0.088289
1.000000 0.291752 0.032532
0.000000 0.201755 0.227634
0.000000 0.202335 0.225772
0.068299 0.203708 0.222568
0.174807 0.206577 0.217624
0.256107 0.211276 0.214572
0.336034 0.216953 0.210788
0.418372 0.222599 0.205905
0.500999 0.228550 0.200046
0.580011 0.235843 0.192935
0.656550 0.244388 0.184360
0.727810 0.254124 0.175082
0.794491 0.264866 0.163760
0.858305 0.277256 0.149722
0.921721 0.290074 0.131136
0.986145 0.302068 0.104005
1.000000 0.313329 0.059327
0.000000 0.248020 0.237858
0.000000 0.249119 0.237125
0.078004 0.251102 0.235386
0.176516 0.253941 0.232334
0.256352 0.256565 0.227878
0.339117 0.261662 0.224826
0.422675 0.265660 0.220005
0.504601 0.270207 0.214145
0.582971 0.275792 0.207065
0.658808 0.282933 0.198947
0.729244 0.290654 0.189883
0.795529 0.299748 0.179232
0.859190 0.310674 0.165866
0.922759 0.321843 0.148898
0.987243 0.332250 0.125246
1.000000 0.341924 0.089204
0.000000 0.298375 0.256504
0.000000 0.299413 0.255619
0.085267 0.301122 0.253452
0.180392 0.302922 0.250370
0.260777 0.304204 0.246006
0.340490 0.307195 0.240787
0.426490 0.311833 0.237003
0.509270 0.316625 0.232303
0.586603 0.321263 0.225376
0.661555 0.327092 0.217472
0.730953 0.333318 0.208774
0.796780 0.341222 0.198734
0.860288 0.350591 0.186435
0.924071 0.359960 0.171115
0.988586 0.368597 0.150637
1.000000 0.376593 0.121248
0.000000 0.349920 0.277592
0.000000 0.350622 0.276219
0.095125 0.351934 0.273747
0.187778 0.353094 0.271336
0.269993 0.353735 0.268132
0.346349 0.354833 0.261692
0.427436 0.358434 0.256321
0.510674 0.364141 0.251743
0.589075 0.370062 0.246433
0.664210 0.376013 0.239719
0.732784 0.381231 0.231418
0.798062 0.387854 0.221897
0.861570 0.395392 0.210880
