luts/Front ●● 16.cube
# Created by Adobe Lightroom plugin Export LUT (1.16.0)
# www.johnrellis.com/lightroom/exportlut.htm
# Preset: Front ●●
# Color profile: C:\Program Files (x86)\Common Files\Adobe\Color\Profiles\Recommended\sRGB Color Space Profile.icm
LUT_3D_SIZE 6
DOMAIN_MIN 0.0 0.0 0.0
DOMAIN_MAX 1.0 1.0 1.0
0.000000 0.000000 0.000000
0.202579 0.002380 0.000000
0.501457 0.001984 0.000000
0.786862 0.098909 0.000000
0.978912 0.188418 0.000000
1.000000 0.250584 0.000000
0.025116 0.080903 0.047608
0.202792 0.093538 0.022034
0.500755 0.145937 0.000000
0.782132 0.215488 0.000000
0.975952 0.264652 0.000000
1.000000 0.303471 0.000000
0.000000 0.240574 0.128511
0.234165 0.245945 0.107271
0.509483 0.290440 0.001526
0.779477 0.352667 0.000000
0.970611 0.399725 0.000000
1.000000 0.417365 0.000000
0.000000 0.478737 0.239261
0.206851 0.484871 0.218997
0.504540 0.498451 0.169680
0.768887 0.529992 0.000000
0.968292 0.537682 0.000000
1.000000 0.549310 0.000000
0.000000 0.735714 0.400000
0.169924 0.737942 0.385840
0.500633 0.742306 0.358892
0.771267 0.745937 0.292821
0.967041 0.717525 0.187869
1.000000 0.688411 0.000000
0.417121 0.931029 0.638270
0.475196 0.931823 0.631769
0.622126 0.933227 0.619287
0.813931 0.933837 0.587030
1.000000 0.925628 0.524376
1.000000 0.869322 0.412970
0.000000 0.064027 0.145815
0.150668 0.042939 0.128481
0.474678 0.018311 0.071290
0.767117 0.145846 0.000000
0.967132 0.255039 0.000000
1.000000 0.296086 0.000000
0.000000 0.126497 0.173129
0.169284 0.119844 0.156466
0.476570 0.137270 0.109651
0.768612 0.210422 0.000000
0.967651 0.293614 0.000000
1.000000 0.338170 0.000000
0.000000 0.274052 0.245548
0.184115 0.279454 0.220951
0.492836 0.304723 0.174228
0.768948 0.351873 0.036469
0.967895 0.393042 0.000000
1.000000 0.437476 0.000000
0.000000 0.502464 0.334661
0.137392 0.506157 0.315160
0.484169 0.520043 0.277226
0.755825 0.542931 0.201968
0.961425 0.546868 0.000000
1.000000 0.548394 0.000000
0.000000 0.744747 0.455512
0.147097 0.744289 0.452949
0.482521 0.749660 0.427619
0.755032 0.752712 0.374578
0.957092 0.728206 0.298131
1.000000 0.698665 0.043610
0.353246 0.934874 0.650752
0.468208 0.933013 0.660883
0.611231 0.934783 0.647242
0.803067 0.935851 0.619074
1.000000 0.930236 0.562463
1.000000 0.876585 0.466651
0.000000 0.204990 0.390600
0.000000 0.174319 0.380011
0.401099 0.127169 0.347784
0.747372 0.114870 0.281102
0.959747 0.233341 0.187167
1.000000 0.306371 0.000000
0.000000 0.251164 0.406683
0.000000 0.233707 0.396887
0.410315 0.207187 0.365270
0.740139 0.227268 0.306401
0.955016 0.299107 0.220340
1.000000 0.340642 0.000000
0.000000 0.371832 0.448249
0.000000 0.368170 0.437720
0.418616 0.365850 0.404028
0.724697 0.400488 0.361975
0.946563 0.430243 0.281163
1.000000 0.434394 0.000000
0.000000 0.559564 0.501732
0.000000 0.562921 0.494087
0.410346 0.569024 0.467689
0.709987 0.585443 0.428809
0.933043 0.591730 0.366430
1.000000 0.574884 0.189639
0.000000 0.768429 0.573663
0.000000 0.767758 0.569024
0.436164 0.764889 0.565393
0.708919 0.770779 0.531304
0.927611 0.757809 0.480964
1.000000 0.732326 0.372656
0.000000 0.947906 0.681727
0.191257 0.945006 0.690486
0.571923 0.939147 0.713680
0.768399 0.941741 0.691859
0.987396 0.942443 0.645838
1.000000 0.894499 0.576043
0.000000 0.368811 0.633417
0.000000 0.348486 0.629297
0.082307 0.308110 0.612848
0.649836 0.318242 0.578332
0.900816 0.411109 0.526360
1.000000 0.486641 0.481727
0.000000 0.401953 0.640040
0.000000 0.388251 0.635828
0.143771 0.367041 0.619440
0.647517 0.377539 0.585412
0.892393 0.461524 0.540551
1.000000 0.514427 0.491493
0.000000 0.493080 0.657435
0.000000 0.490364 0.652552
0.199130 0.492409 0.635920
0.637140 0.504936 0.602686
0.881102 0.557733 0.568688
1.000000 0.570214 0.501671
0.000000 0.635035 0.682856
0.000000 0.636744 0.678096
0.195438 0.642420 0.663081
0.622339 0.646326 0.629480
0.881437 0.667414 0.598138
1.000000 0.652857 0.510704
0.000000 0.808103 0.734524
0.000000 0.807919 0.728634
0.000000 0.803250 0.709255
0.630854 0.796658 0.687526
0.879576 0.799161 0.656794
1.000000 0.787594 0.596674
0.000000 0.978851 0.763149
0.000000 0.976287 0.754208
0.000000 0.962982 0.763577
0.698177 0.950958 0.788540
0.928893 0.953277 0.756893
1.000000 0.921294 0.706813
0.000000 0.515007 0.823484
0.000000 0.503136 0.822446
0.000000 0.500053 0.815763
0.499214 0.552728 0.795987
0.827481 0.592737 0.769131
1.000000 0.671229 0.735561
0.000000 0.537560 0.826322
0.000000 0.529717 0.824979
0.000000 0.535210 0.817655
0.509239 0.587366 0.797543
0.823362 0.619043 0.771572
1.000000 0.689235 0.742123
0.000000 0.599878 0.834257
0.000000 0.598260 0.832456
0.000000 0.612696 0.824338
0.522820 0.660182 0.804379
0.815549 0.677790 0.779141
1.000000 0.732326 0.758602
0.000000 0.700740 0.847654
0.000000 0.702419 0.845731
0.000000 0.712276 0.838712
0.496803 0.739101 0.821439
0.809323 0.752468 0.793576
1.000000 0.787381 0.778073
0.000000 0.820951 0.867552
0.000000 0.823575 0.865751
0.000000 0.831846 0.859648
0.491707 0.843137 0.846769
0.805570 0.842618 0.816678
1.000000 0.848386 0.785855
0.000000 0.989563 0.937194
0.000000 0.992523 0.935393
0.000000 0.998566 0.928649
0.000000 0.986542 0.898650
0.841123 0.969818 0.883848
1.000000 0.956298 0.847898
0.000000 0.643366 0.990936
0.000000 0.638422 0.990753
0.000000 0.665736 0.985809
0.471199 0.767025 0.970153
0.785489 0.813230 0.957427
0.986267 0.827512 0.944091
0.000000 0.657893 0.992340
0.000000 0.652461 0.992218
0.000000 0.679683 0.987182
0.467781 0.776242 0.971832
0.787259 0.822354 0.958984
0.986175 0.835111 0.945861
0.000000 0.687800 0.997284
0.000000 0.688869 0.996796
0.000000 0.704829 0.992859
0.427588 0.795163 0.977630
0.789731 0.845212 0.964019
0.986786 0.854917 0.951232
0.000000 0.743465 1.000000
0.000000 0.743832 1.000000
0.000000 0.735225 1.000000
0.000000 0.810391 0.990875
0.784024 0.878202 0.974182
0.989044 0.887510 0.961242
0.000000 0.833127 1.000000
0.000000 0.834318 1.000000
0.000000 0.834440 1.000000
0.000000 0.852750 1.000000
0.704128 0.909850 0.992615
0.993194 0.934417 0.976745
0.000000 0.945892 1.000000
0.000000 0.948547 1.000000
0.000000 0.956909 1.000000
0.000000 0.969512 1.000000
0.550744 0.989899 1.000000
1.000000 1.000000 1.000000
