luts/Front ●● 16.cube
# Created by Adobe Lightroom plugin Export LUT (1.16.0)
# www.johnrellis.com/lightroom/exportlut.htm
# Preset: Front ●●
# Color profile: C:\Program Files (x86)\Common Files\Adobe\Color\Profiles\Recommended\sRGB Color Space Profile.icm
LUT_3D_SIZE 16
DOMAIN_MIN 0.0 0.0 0.0
DOMAIN_MAX 1.0 1.0 1.0
0.000000 0.000000 0.000000
0.061250 0.000397 0.000000
0.125734 0.001129 0.000000
0.202579 0.002380 0.000000
0.293523 0.000153 0.000000
0.395178 0.000000 0.000000
0.501457 0.001984 0.000000
0.604700 0.021363 0.000000
0.701106 0.060395 0.000000
0.786862 0.098909 0.000000
0.858488 0.132662 0.000000
0.920958 0.162051 0.000000
0.978912 0.188418 0.000000
1.000000 0.211765 0.000000
1.000000 0.232364 0.000000
1.000000 0.250584 0.000000
0.004791 0.023499 0.010895
0.063722 0.022431 0.004242
0.127199 0.023835 0.000000
0.203647 0.025452 0.000000
0.294133 0.027802 0.000000
0.395148 0.033021 0.000000
0.501213 0.045136 0.000000
0.603693 0.067994 0.000000
0.700130 0.096895 0.000000
0.785794 0.127077 0.000000
0.857511 0.155123 0.000000
0.920195 0.180514 0.000000
0.978363 0.203586 0.000000
1.000000 0.224765 0.000000
1.000000 0.243687 0.000000
1.000000 0.260563 0.000000
0.017334 0.049226 0.027924
0.062501 0.049653 0.023285
0.125826 0.053956 0.013458
0.205295 0.060029 0.000000
0.295048 0.070130 0.000000
0.395361 0.083070 0.000000
0.500359 0.099336 0.000000
0.602564 0.119234 0.000000
0.698817 0.142550 0.000000
0.784298 0.166720 0.000000
0.855924 0.189059 0.000000
0.918975 0.209476 0.000000
0.977386 0.229099 0.000000
1.000000 0.246921 0.000000
1.000000 0.263157 0.000000
1.000000 0.277623 0.000000
0.025116 0.080903 0.047608
0.070466 0.081483 0.043214
0.123293 0.081941 0.036744
0.202792 0.093538 0.022034
0.297246 0.107485 0.000000
0.396735 0.124331 0.000000
0.500755 0.145937 0.000000
0.601709 0.172061 0.000000
0.697230 0.194980 0.000000
0.782132 0.215488 0.000000
0.853605 0.233249 0.000000
0.917052 0.249516 0.000000
0.975952 0.264652 0.000000
1.000000 0.278996 0.000000
1.000000 0.291844 0.000000
1.000000 0.303471 0.000000
0.031250 0.122164 0.071778
0.079622 0.122957 0.066743
0.136843 0.123842 0.061158
0.203433 0.127779 0.050050
0.297887 0.145907 0.024628
0.402167 0.166476 0.000000
0.504173 0.188052 0.000000
0.603357 0.212619 0.000000
0.697292 0.239261 0.000000
0.780179 0.264988 0.000000
0.850858 0.283238 0.000000
0.914763 0.295995 0.000000
0.974090 0.307713 0.000000
1.000000 0.318425 0.000000
1.000000 0.327947 0.000000
1.000000 0.336400 0.000000
0.024628 0.175662 0.098939
0.082704 0.176761 0.093019
0.149660 0.178073 0.087526
0.220218 0.180056 0.078004
0.301122 0.189853 0.059541
0.404120 0.212833 0.018433
0.509728 0.237247 0.000000
0.606836 0.259403 0.000000
0.698787 0.283268 0.000000
0.779843 0.305791 0.000000
0.849332 0.325689 0.000000
0.912474 0.344701 0.000000
0.971893 0.355749 0.000000
1.000000 0.363043 0.000000
1.000000 0.369421 0.000000
1.000000 0.374945 0.000000
0.000000 0.240574 0.128511
0.070710 0.241886 0.121401
0.154086 0.243503 0.116304
0.234165 0.245945 0.107271
0.313695 0.249393 0.092805
0.405921 0.265782 0.063050
0.509483 0.290440 0.001526
0.610590 0.314458 0.000000
0.700404 0.334936 0.000000
0.779477 0.352667 0.000000
0.848722 0.368292 0.000000
0.911955 0.384070 0.000000
0.970611 0.399725 0.000000
1.000000 0.411200 0.000000
1.000000 0.414710 0.000000
1.000000 0.417365 0.000000
0.000000 0.314427 0.162112
0.023468 0.315892 0.153841
0.145602 0.317662 0.148836
0.238010 0.320714 0.140627
0.325231 0.324102 0.126619
0.410285 0.328954 0.105837
0.507683 0.349889 0.062959
0.606592 0.372717 0.000000
0.700587 0.393988 0.000000
0.777951 0.406470 0.000000
0.847562 0.417609 0.000000
0.911437 0.428748 0.000000
0.970581 0.440253 0.000000
1.000000 0.452369 0.000000
1.000000 0.462409 0.000000
1.000000 0.462470 0.000000
0.000000 0.394079 0.198795
0.000000 0.395483 0.189883
0.116854 0.397314 0.185275
0.228885 0.400336 0.177646
0.325048 0.403937 0.165377
0.415564 0.408392 0.146944
0.505394 0.417700 0.118318
0.600122 0.436378 0.066957
0.692500 0.454200 0.000000
0.774990 0.466499 0.000000
0.845335 0.473091 0.000000
0.909972 0.479561 0.000000
0.969970 0.486336 0.000000
1.000000 0.493782 0.000000
1.000000 0.502342 0.000000
1.000000 0.509239 0.000000
0.000000 0.478737 0.239261
0.000000 0.480171 0.229923
0.048219 0.481971 0.225834
0.206851 0.484871 0.218997
0.314397 0.489113 0.208408
0.412146 0.493141 0.192264
0.504540 0.498451 0.169680
0.597375 0.510338 0.134463
0.687343 0.522576 0.082521
0.768887 0.529992 0.000000
0.841398 0.533410 0.000000
0.907012 0.535576 0.000000
0.968292 0.537682 0.000000
1.000000 0.540429 0.000000
1.000000 0.544121 0.000000
1.000000 0.549310 0.000000
0.000000 0.569818 0.284794
0.000000 0.571160 0.275517
0.000000 0.572656 0.271885
0.171359 0.575158 0.265812
0.298314 0.578759 0.256718
0.404364 0.582422 0.243168
0.502251 0.586175 0.223972
0.595239 0.590753 0.198428
0.685878 0.598352 0.162783
0.766445 0.600122 0.119600
0.838560 0.598688 0.044831
0.902892 0.595148 0.000000
0.965087 0.593225 0.000000
1.000000 0.591821 0.000000
1.000000 0.590906 0.000000
1.000000 0.590875 0.000000
0.000000 0.657618 0.337957
0.000000 0.658625 0.329320
0.000000 0.659571 0.326329
0.144625 0.661189 0.321263
0.286595 0.663416 0.313787
0.397467 0.666224 0.303319
0.498329 0.668177 0.287358
0.593072 0.670558 0.266758
0.684016 0.673213 0.239750
0.767636 0.673671 0.208316
0.839445 0.667994 0.172213
0.903899 0.660578 0.120516
0.961944 0.651911 0.011200
1.000000 0.646632 0.000000
1.000000 0.642176 0.000000
1.000000 0.637415 0.000000
0.000000 0.735714 0.400000
0.000000 0.736294 0.393896
0.000000 0.736995 0.390051
0.169924 0.737942 0.385840
0.297642 0.739315 0.379767
0.403143 0.740993 0.371405
0.500633 0.742306 0.358892
0.593530 0.743252 0.341985
0.683345 0.744381 0.320500
0.771267 0.745937 0.292821
0.844663 0.739132 0.265354
0.908904 0.728939 0.232578
0.967041 0.717525 0.187869
1.000000 0.705043 0.117861
1.000000 0.696407 0.000000
1.000000 0.688411 0.000000
0.000000 0.805570 0.471656
0.058534 0.805844 0.468635
0.152285 0.806485 0.463752
0.251408 0.807065 0.460273
0.342931 0.807889 0.455207
0.431708 0.808896 0.448219
0.518486 0.809995 0.438788
0.604028 0.810300 0.424384
0.688991 0.810513 0.406378
0.773037 0.810727 0.383948
0.855985 0.810788 0.356268
0.919066 0.798459 0.330480
0.976867 0.785306 0.297948
1.000000 0.770901 0.254093
1.000000 0.755001 0.191287
1.000000 0.742214 0.050782
0.262242 0.869474 0.552056
0.284489 0.869474 0.551293
0.308873 0.870115 0.545953
0.360052 0.870481 0.543236
0.420752 0.870970 0.539269
0.487922 0.871611 0.533776
0.559106 0.872374 0.526543
0.632532 0.872679 0.515496
0.707881 0.872618 0.500725
0.784878 0.872465 0.482307
0.863066 0.872160 0.459174
0.936461 0.868132 0.431922
0.992676 0.854002 0.404578
1.000000 0.838407 0.369818
1.000000 0.820920 0.323796
1.000000 0.801144 0.259220
0.417121 0.931029 0.638270
0.432410 0.930907 0.638972
0.443305 0.931548 0.633814
0.475196 0.931823 0.631769
0.516655 0.932219 0.628809
0.566400 0.932647 0.624720
0.622126 0.933227 0.619287
0.682551 0.933745 0.611994
0.746609 0.933837 0.600885
0.813931 0.933837 0.587030
0.884092 0.933776 0.569818
0.956847 0.933593 0.548333
1.000000 0.925628 0.524376
1.000000 0.909667 0.498238
1.000000 0.891295 0.462898
1.000000 0.869322 0.412970
0.000000 0.012604 0.042298
0.046601 0.013886 0.037354
0.116518 0.013611 0.025452
0.193606 0.015320 0.011566
0.279423 0.024964 0.001587
0.381018 0.038422 0.000000
0.488106 0.063661 0.000000
0.593072 0.086732 0.000000
0.691554 0.112917 0.000000
0.779416 0.140261 0.000000
0.852934 0.165408 0.000000
0.916686 0.188510 0.000000
0.975738 0.209506 0.000000
1.000000 0.228672 0.000000
1.000000 0.245914 0.000000
1.000000 0.261204 0.000000
0.000000 0.033326 0.050019
0.049073 0.033539 0.044770
0.114809 0.033906 0.037415
0.190646 0.036866 0.026062
0.280369 0.044617 0.009277
0.381933 0.059083 0.000000
0.488808 0.081544 0.000000
0.593164 0.110506 0.000000
0.691341 0.134737 0.000000
0.778988 0.159701 0.000000
0.852262 0.182681 0.000000
0.916167 0.203403 0.000000
0.975311 0.222660 0.000000
1.000000 0.240330 0.000000
1.000000 0.256291 0.000000
1.000000 0.270390 0.000000
0.012757 0.057923 0.061555
0.056092 0.058625 0.057252
0.117800 0.060121 0.050477
0.194064 0.064424 0.037903
0.283360 0.072724 0.019928
0.384131 0.087160 0.000000
0.490425 0.108553 0.000000
0.593957 0.135927 0.000000
0.691066 0.167910 0.000000
0.778134 0.190463 0.000000
0.851102 0.210239 0.000000
0.915251 0.228244 0.000000
0.974578 0.244999 0.000000
1.000000 0.260410 0.000000
1.000000 0.274266 0.000000
1.000000 0.286473 0.000000
0.022797 0.089815 0.080293
0.064088 0.090364 0.074006
0.121981 0.090700 0.067994
0.197604 0.097169 0.056550
0.289158 0.107912 0.035981
0.389227 0.122652 0.005432
0.493935 0.143648 0.000000
0.595972 0.169253 0.000000
0.692103 0.198459 0.000000
0.777340 0.227817 0.000000
0.849516 0.248539 0.000000
0.913817 0.263615 0.000000
0.973358 0.277470 0.000000
1.000000 0.289891 0.000000
1.000000 0.301091 0.000000
1.000000 0.311040 0.000000
0.026184 0.130220 0.101869
0.069825 0.131167 0.094545
0.132723 0.132204 0.088319
0.201053 0.133486 0.079316
0.294041 0.148562 0.060365
0.396704 0.166140 0.025116
0.499184 0.186191 0.000000
0.599451 0.209720 0.000000
0.693874 0.236088 0.000000
0.777615 0.262364 0.000000
0.848325 0.285985 0.000000
0.911986 0.306645 0.000000
0.971801 0.317540 0.000000
1.000000 0.327062 0.000000
1.000000 0.335393 0.000000
1.000000 0.342565 0.000000
0.013672 0.182986 0.127413
0.067659 0.184176 0.118868
0.140963 0.185763 0.111635
0.217350 0.187442 0.103151
0.299199 0.194766 0.088014
0.401038 0.214908 0.057893
0.506035 0.237095 0.002625
0.603601 0.258122 0.000000
0.696162 0.281193 0.000000
0.777920 0.303288 0.000000
0.847929 0.323217 0.000000
0.911406 0.342901 0.000000
0.970184 0.361700 0.000000
1.000000 0.369665 0.000000
1.000000 0.375250 0.000000
1.000000 0.379797 0.000000
0.000000 0.247227 0.155764
0.048859 0.248356 0.147097
0.141115 0.250278 0.138613
0.228244 0.252720 0.130434
0.311681 0.255741 0.117250
0.403815 0.269657 0.093690
0.507134 0.292332 0.048188
0.607507 0.314763 0.000000
0.698116 0.334417 0.000000
0.777676 0.351568 0.000000
0.847501 0.366979 0.000000
0.911254 0.382422 0.000000
0.970123 0.398169 0.000000
1.000000 0.413581 0.000000
1.000000 0.419287 0.000000
1.000000 0.421241 0.000000
0.000000 0.320317 0.187167
0.000000 0.321447 0.179171
0.127230 0.323491 0.169650
0.229435 0.326421 0.161929
0.320806 0.329808 0.149386
0.408148 0.334508 0.131075
0.505333 0.353094 0.097749
0.604181 0.374578 0.034180
0.698177 0.394720 0.000000
0.776150 0.406683 0.000000
0.846281 0.417487 0.000000
0.910582 0.428260 0.000000
0.970092 0.439429 0.000000
1.000000 0.451179 0.000000
1.000000 0.463294 0.000000
1.000000 0.465614 0.000000
0.000000 0.399115 0.221103
0.000000 0.400061 0.214328
0.092256 0.402228 0.204471
0.218479 0.405097 0.197208
0.318883 0.408942 0.186221
0.411810 0.413214 0.169345
0.501427 0.419959 0.145205
0.597803 0.439124 0.104372
0.690394 0.456123 0.029023
0.772946 0.467720 0.000000
0.843809 0.474006 0.000000
0.908873 0.480110 0.000000
0.969299 0.486488 0.000000
1.000000 0.493446 0.000000
1.000000 0.501610 0.000000
1.000000 0.510460 0.000000
0.000000 0.483101 0.258762
0.000000 0.483742 0.253544
0.000000 0.485969 0.243320
0.195041 0.488869 0.236820
0.307652 0.493050 0.227268
0.407599 0.497200 0.212345
0.501274 0.502281 0.191653
0.594934 0.513512 0.160800
0.685115 0.525109 0.119234
0.766812 0.532006 0.051850
0.839536 0.535119 0.000000
0.905669 0.536950 0.000000
0.967285 0.538842 0.000000
1.000000 0.541070 0.000000
1.000000 0.544244 0.000000
1.000000 0.548821 0.000000
0.000000 0.573236 0.301579
0.000000 0.573754 0.297765
0.000000 0.575769 0.287541
0.157565 0.578210 0.281895
0.291173 0.581689 0.273381
0.399237 0.585504 0.260868
0.498543 0.589136 0.242924
0.592218 0.593591 0.219303
0.683345 0.600824 0.187442
0.764279 0.602289 0.150515
0.836576 0.600732 0.097810
0.901274 0.596918 0.000000
0.963806 0.594934 0.000000
1.000000 0.593225 0.000000
1.000000 0.591852 0.000000
1.000000 0.591150 0.000000
0.000000 0.659968 0.351781
0.000000 0.660151 0.349554
0.000000 0.661585 0.340063
0.131044 0.663142 0.335271
0.280156 0.665370 0.328161
0.392859 0.668269 0.318242
0.494453 0.670253 0.303288
0.589960 0.672511 0.283696
0.681300 0.675105 0.258610
0.765408 0.675593 0.229191
0.837400 0.669947 0.196780
0.902098 0.662562 0.152743
0.960327 0.653773 0.080201
1.000000 0.648463 0.000000
1.000000 0.643763 0.000000
1.000000 0.638514 0.000000
0.000000 0.737301 0.410376
0.000000 0.737240 0.409735
0.000000 0.738216 0.401465
0.162142 0.739132 0.397528
0.292943 0.740475 0.391669
0.399420 0.742245 0.383673
0.497536 0.743587 0.371862
0.590723 0.744564 0.355474
0.680537 0.745632 0.334905
0.768124 0.746792 0.308904
0.842557 0.740749 0.282506
0.907012 0.730648 0.251957
0.965423 0.719326 0.210880
1.000000 0.706935 0.151308
1.000000 0.698360 0.000000
1.000000 0.690028 0.000000
0.000000 0.806699 0.478767
0.071870 0.806455 0.479774
0.149233 0.807156 0.473243
0.249271 0.807736 0.469886
0.341009 0.808560 0.465003
0.429511 0.809598 0.458259
0.516228 0.810819 0.449256
0.601801 0.811093 0.435157
0.686488 0.811368 0.417670
0.770504 0.811582 0.395911
0.853910 0.811978 0.368994
0.917235 0.799802 0.344244
0.975219 0.786801 0.313024
1.000000 0.772519 0.271763
1.000000 0.756741 0.213779
1.000000 0.744015 0.103151
0.249943 0.870268 0.556390
0.282200 0.869963 0.558007
0.307256 0.870481 0.552941
0.358434 0.870848 0.550225
0.419287 0.871366 0.546410
0.486427 0.872007 0.541070
0.557366 0.872801 0.533989
0.630762 0.873198 0.523461
0.706020 0.873136 0.509117
0.782712 0.873014 0.491218
0.860746 0.872709 0.468727
0.934661 0.869139 0.442145
0.991058 0.855192 0.415473
1.000000 0.839750 0.381689
1.000000 0.822385 0.337255
1.000000 0.802701 0.275822
0.407721 0.931701 0.640497
0.426856 0.931365 0.642390
0.441352 0.931792 0.638575
0.473365 0.932067 0.636591
0.514916 0.932433 0.633661
0.564569 0.932921 0.629664
0.620356 0.933501 0.624353
0.680873 0.934081 0.617304
0.744869 0.934142 0.606378
0.812131 0.934173 0.592828
0.882231 0.934142 0.575952
0.954833 0.933989 0.554955
1.000000 0.926421 0.531243
1.000000 0.910613 0.505760
1.000000 0.892424 0.471534
1.000000 0.870603 0.422950
0.000000 0.032197 0.089082
0.009979 0.031678 0.084871
0.092866 0.028260 0.078157
0.184176 0.015656 0.064302
0.273960 0.016724 0.047425
0.373114 0.027924 0.027405
0.478248 0.053162 0.000000
0.583093 0.086976 0.000000
0.682765 0.125673 0.000000
0.771695 0.164858 0.000000
0.845945 0.200046 0.000000
0.911040 0.219730 0.000000
0.971344 0.236759 0.000000
1.000000 0.251743 0.000000
1.000000 0.265080 0.000000
1.000000 0.276585 0.000000
0.000000 0.051942 0.094728
0.020020 0.050507 0.091157
0.097230 0.046418 0.085267
0.180270 0.040620 0.073945
0.270237 0.042817 0.060548
0.370703 0.053468 0.040955
0.478096 0.073548 0.007233
0.584131 0.102541 0.000000
0.683314 0.138216 0.000000
0.772000 0.175448 0.000000
0.845884 0.209262 0.000000
0.910735 0.231937 0.000000
0.971069 0.247745 0.000000
1.000000 0.261936 0.000000
1.000000 0.274296 0.000000
1.000000 0.285008 0.000000
0.000000 0.074830 0.104921
0.031464 0.073182 0.101106
0.103334 0.071290 0.094972
0.181094 0.071412 0.086671
0.271305 0.074708 0.073945
0.373541 0.083803 0.052308
0.481025 0.101625 0.014466
0.586175 0.127535 0.000000
0.684779 0.159579 0.000000
0.772519 0.193698 0.000000
0.845762 0.225193 0.000000
0.910124 0.252720 0.000000
0.970550 0.267033 0.000000
1.000000 0.279698 0.000000
1.000000 0.290532 0.000000
1.000000 0.299901 0.000000
0.001587 0.100862 0.116579
0.048310 0.102266 0.115419
0.110994 0.103151 0.109529
0.187747 0.105013 0.100832
0.279026 0.111086 0.087282
0.380011 0.121950 0.065705
0.486122 0.139193 0.026551
0.589563 0.162661 0.000000
0.686763 0.190860 0.000000
0.773342 0.220859 0.000000
0.845762 0.249088 0.000000
0.909911 0.275853 0.000000
0.969665 0.295781 0.000000
1.000000 0.306188 0.000000
1.000000 0.315068 0.000000
1.000000 0.322667 0.000000
0.005280 0.142092 0.140810
0.053010 0.143099 0.137301
0.117494 0.144472 0.127932
0.196170 0.145480 0.119478
0.286992 0.154299 0.106020
0.388495 0.167636 0.084260
0.492531 0.184939 0.047822
0.593683 0.206088 0.000000
0.689418 0.230869 0.000000
0.774197 0.256535 0.000000
0.845884 0.280461 0.000000
0.909911 0.304326 0.000000
0.969085 0.327031 0.000000
1.000000 0.340368 0.000000
1.000000 0.347051 0.000000
1.000000 0.352422 0.000000
0.000000 0.194522 0.167056
0.042023 0.195712 0.162051
0.119539 0.197543 0.150607
0.207828 0.199344 0.141543
0.293767 0.203342 0.129427
0.395148 0.219638 0.108248
0.499550 0.238254 0.074708
0.598444 0.257359 0.014343
0.692134 0.278874 0.000000
0.774838 0.299931 0.000000
0.845823 0.319280 0.000000
0.910063 0.338811 0.000000
0.969238 0.358556 0.000000
1.000000 0.377508 0.000000
1.000000 0.384802 0.000000
1.000000 0.387915 0.000000
0.000000 0.258122 0.195315
0.007752 0.259190 0.189303
0.113985 0.261051 0.177157
0.213687 0.263859 0.167391
0.305303 0.266636 0.155917
0.398718 0.276799 0.137484
0.502068 0.296452 0.107851
0.602441 0.316228 0.058686
0.693904 0.334478 0.000000
0.774441 0.350683 0.000000
0.845212 0.365393 0.000000
0.909819 0.380224 0.000000
0.969421 0.395483 0.000000
1.000000 0.411109 0.000000
1.000000 0.426429 0.000000
1.000000 0.427893 0.000000
0.000000 0.330388 0.225101
0.000000 0.331273 0.219303
0.094972 0.332982 0.207706
0.210727 0.336156 0.196994
0.311070 0.339757 0.186313
0.403235 0.343999 0.170321
0.500450 0.359319 0.145083
0.599573 0.378485 0.106813
0.693690 0.396735 0.038300
0.772671 0.407935 0.000000
0.843809 0.418097 0.000000
0.908843 0.428107 0.000000
0.969085 0.438544 0.000000
1.000000 0.449561 0.000000
1.000000 0.461585 0.000000
1.000000 0.470954 0.000000
0.000000 0.407996 0.256474
0.000000 0.408820 0.251225
0.050538 0.410376 0.241215
0.196750 0.413519 0.230076
0.306554 0.417548 0.220554
0.404364 0.421546 0.205875
0.496101 0.427008 0.185733
0.593164 0.444556 0.154604
0.686091 0.460151 0.111055
0.769039 0.470588 0.035828
0.840726 0.476478 0.000000
0.906676 0.481910 0.000000
0.967864 0.487526 0.000000
1.000000 0.493507 0.000000
1.000000 0.500664 0.000000
1.000000 0.509270 0.000000
0.000000 0.490669 0.290623
0.000000 0.491371 0.286351
0.000000 0.492622 0.278355
0.170657 0.495796 0.267124
0.294438 0.499916 0.258579
0.398627 0.504326 0.245518
0.495125 0.509209 0.227237
0.589990 0.519341 0.201511
0.680598 0.529839 0.169406
0.762814 0.535973 0.127321
0.835966 0.538506 0.060548
0.902922 0.540063 0.000000
0.965240 0.541405 0.000000
1.000000 0.542840 0.000000
1.000000 0.544915 0.000000
1.000000 0.548211 0.000000
0.000000 0.579339 0.329656
0.000000 0.579828 0.326390
0.000000 0.580774 0.320562
0.128817 0.583551 0.309331
0.277470 0.586938 0.301732
0.389807 0.590936 0.290684
0.491402 0.594446 0.274601
0.586603 0.598596 0.253666
0.678706 0.605310 0.226078
0.760037 0.606470 0.196506
0.832883 0.604547 0.157931
0.897917 0.600549 0.101656
0.961181 0.598444 0.000000
1.000000 0.596277 0.000000
1.000000 0.594049 0.000000
1.000000 0.592065 0.000000
0.000000 0.664210 0.375067
0.000000 0.664393 0.373083
0.000000 0.664729 0.369604
0.102022 0.666682 0.359197
0.268040 0.668879 0.352789
0.384375 0.671656 0.343755
0.487800 0.673823 0.330358
0.584070 0.675990 0.312413
0.676112 0.678462 0.289647
0.761135 0.679194 0.263493
0.833585 0.673518 0.235721
0.898711 0.666133 0.199466
0.957275 0.657435 0.148806
1.000000 0.652094 0.041657
1.000000 0.646967 0.000000
1.000000 0.640772 0.000000
0.000000 0.740139 0.428504
0.000000 0.740139 0.427832
0.000000 0.740017 0.426947
0.147036 0.741299 0.417823
0.284733 0.742611 0.412360
0.393164 0.744350 0.404883
0.491676 0.745998 0.394293
0.585229 0.746944 0.378973
0.675471 0.747951 0.359808
0.763180 0.749081 0.335637
0.838712 0.743740 0.311345
0.903593 0.733822 0.283848
0.962280 0.722683 0.247929
1.000000 0.710414 0.198856
1.000000 0.701869 0.110384
1.000000 0.693141 0.000000
0.000000 0.808713 0.491432
0.000000 0.808438 0.492226
0.167117 0.808011 0.494148
0.245304 0.808927 0.486763
0.337316 0.809781 0.482094
0.425818 0.810819 0.475715
0.512322 0.812100 0.467262
0.597559 0.812589 0.454200
0.682094 0.812863 0.437537
0.765896 0.813107 0.416815
0.850187 0.814206 0.391058
0.913817 0.802274 0.367773
0.972107 0.789609 0.338811
1.000000 0.775570 0.301061
1.000000 0.759945 0.249668
1.000000 0.747341 0.162875
0.223117 0.871763 0.564202
0.259525 0.871458 0.565667
0.313939 0.870909 0.568505
0.355322 0.871550 0.562676
0.416144 0.872099 0.558923
0.483223 0.872740 0.553857
0.554162 0.873564 0.547112
0.627405 0.874113 0.537530
0.702419 0.874083 0.523735
0.778836 0.874022 0.506645
0.856626 0.873777 0.485298
0.931365 0.870939 0.459907
0.988067 0.857267 0.434577
1.000000 0.842130 0.402380
1.000000 0.825040 0.360327
1.000000 0.805539 0.303502
0.388983 0.932860 0.644465
0.409430 0.932555 0.646296
0.443336 0.932006 0.649622
0.469612 0.932494 0.645136
0.511406 0.932891 0.642390
0.561151 0.933410 0.638483
0.617060 0.933989 0.633356
0.677607 0.934661 0.626764
0.741573 0.934783 0.616297
0.808713 0.934813 0.603174
0.878660 0.934813 0.586877
0.951171 0.934691 0.566613
1.000000 0.927886 0.543603
1.000000 0.912352 0.519188
1.000000 0.894408 0.486488
1.000000 0.872953 0.440528
0.000000 0.064027 0.145815
0.000000 0.060883 0.142611
0.036622 0.047883 0.137118
0.150668 0.042939 0.128481
0.261143 0.019837 0.119997
0.366949 0.004517 0.094453
0.474678 0.018311 0.071290
0.579797 0.056062 0.032929
0.678401 0.101442 0.000000
0.767117 0.145846 0.000000
0.842069 0.185397 0.000000
0.907286 0.221317 0.000000
0.967132 0.255039 0.000000
1.000000 0.279118 0.000000
1.000000 0.288701 0.000000
1.000000 0.296086 0.000000
0.000000 0.079530 0.150729
0.000000 0.075898 0.147951
0.054108 0.067964 0.142824
0.155123 0.061921 0.134737
0.259495 0.045472 0.123873
0.364782 0.038514 0.103487
0.473274 0.052094 0.081086
0.578851 0.081239 0.045624
0.677699 0.119051 0.000000
0.767056 0.158694 0.000000
0.842100 0.195041 0.000000
0.907347 0.229404 0.000000
0.967224 0.262028 0.000000
1.000000 0.287999 0.000000
1.000000 0.296788 0.000000
1.000000 0.303807 0.000000
0.000000 0.098817 0.159518
0.000000 0.096468 0.156680
0.069306 0.092256 0.151461
0.161715 0.086854 0.143771
0.259770 0.080171 0.131807
0.364446 0.081331 0.116487
0.472847 0.092988 0.095460
0.578515 0.115633 0.063020
0.678157 0.145510 0.000275
0.767758 0.179294 0.000000
0.842283 0.212314 0.000000
0.907561 0.243687 0.000000
0.967346 0.274357 0.000000
1.000000 0.302434 0.000000
1.000000 0.311345 0.000000
1.000000 0.317205 0.000000
0.000000 0.126497 0.173129
0.000000 0.124758 0.170077
0.077852 0.122499 0.164706
0.169284 0.119844 0.156466
0.264622 0.120607 0.146181
0.368566 0.125551 0.131563
0.476570 0.137270 0.109651
0.581781 0.156252 0.076081
0.680354 0.181552 0.013764
0.768612 0.210422 0.000000
0.842466 0.238560 0.000000
0.907774 0.266270 0.000000
0.967651 0.293614 0.000000
1.000000 0.319799 0.000000
1.000000 0.333654 0.000000
1.000000 0.338170 0.000000
0.000000 0.159365 0.187564
0.000000 0.159304 0.185306
0.086580 0.161288 0.182742
0.177096 0.162722 0.174105
0.273503 0.165835 0.163241
0.376898 0.173922 0.147951
0.482979 0.186618 0.125765
0.586145 0.204166 0.093416
0.683192 0.225986 0.036652
0.769558 0.250065 0.000000
0.842557 0.273350 0.000000
0.907927 0.296452 0.000000
0.967956 0.319890 0.000000
1.000000 0.343236 0.000000
1.000000 0.362982 0.000000
1.000000 0.365972 0.000000
0.000000 0.210636 0.215335
0.000000 0.212161 0.213291
0.084504 0.214206 0.207919
0.183017 0.216190 0.195621
0.281559 0.218112 0.184665
0.384466 0.228855 0.169070
0.489876 0.243076 0.147097
0.590448 0.259129 0.116365
0.685603 0.278141 0.069001
0.769894 0.297642 0.000000
0.842222 0.315892 0.000000
0.907836 0.334325 0.000000
0.968109 0.353094 0.000000
1.000000 0.372229 0.000000
1.000000 0.391485 0.000000
1.000000 0.399451 0.000000
0.000000 0.274052 0.245548
0.000000 0.275181 0.241917
0.069032 0.277134 0.234623
0.184115 0.279454 0.220951
0.289799 0.282719 0.209812
0.388312 0.288762 0.195163
0.492836 0.304723 0.174228
0.593683 0.320958 0.145174
0.686824 0.337194 0.104585
0.768948 0.351873 0.036469
0.841215 0.365454 0.000000
0.907103 0.379187 0.000000
0.967895 0.393042 0.000000
