luts/Grading 1.CUBE
#Created by: Adobe Photoshop Export Color Lookup Plugin
#Copyright: (C) Copyright 2017 rafyA
TITLE "Grading 1.jpg"
#LUT size
LUT_3D_SIZE 8
#data domain
#LUT data points
DOMAIN_MIN 0.000000 0.000000 0.000000
DOMAIN_MAX 0.903226 0.903226 0.903226
0.000000 0.000000 0.147095
0.033417 0.006531 0.150238
0.157806 0.013855 0.153748
0.320221 0.022614 0.158386
0.468536 0.042542 0.169128
0.611023 0.057739 0.177429
0.741516 0.062836 0.180359
0.862061 0.060089 0.179016
0.000000 0.113953 0.147125
0.038452 0.113953 0.147125
0.151978 0.120026 0.150543
0.291626 0.135406 0.155975
0.447052 0.151886 0.162079
0.594391 0.164642 0.168304
0.725189 0.169617 0.170990
0.835876 0.170746 0.173248
0.000000 0.244232 0.147125
0.047455 0.239471 0.147125
0.169830 0.244232 0.147125
0.311157 0.255737 0.148804
0.458801 0.269073 0.154907
0.601898 0.280212 0.161896
0.729523 0.284698 0.166107
0.838318 0.285828 0.170929
0.000000 0.403534 0.147125
0.060608 0.392365 0.147125
0.192780 0.392578 0.147125
0.340820 0.403564 0.147125
0.495483 0.415558 0.153503
0.633575 0.421112 0.164185
0.760193 0.421570 0.168976
0.877991 0.416748 0.168915
0.000000 0.557953 0.160461
0.079803 0.550140 0.155975
0.216064 0.549103 0.155396
0.366272 0.557648 0.160248
0.520721 0.569519 0.167511
0.669403 0.577271 0.171906
0.799042 0.573639 0.174683
0.914917 0.564484 0.175354
0.000000 0.705261 0.169556
0.095367 0.697113 0.164825
0.232239 0.696136 0.164276
0.382599 0.704865 0.169373
0.537170 0.716949 0.176392
0.685547 0.724823 0.181091
0.821228 0.723083 0.180115
0.943451 0.712646 0.176880
0.000000 0.835724 0.167664
0.091949 0.827637 0.162933
0.228607 0.826630 0.162354
0.379089 0.835388 0.167480
0.533569 0.847656 0.174500
0.681915 0.855865 0.179199
0.817688 0.853882 0.177948
0.943665 0.844940 0.172913
0.000000 0.954102 0.157379
0.074188 0.945953 0.152679
0.210175 0.944916 0.152069
0.360260 0.953796 0.157196
0.514954 0.966187 0.164185
0.663696 0.974426 0.168793
0.799805 0.972473 0.167847
0.925903 0.963440 0.162567
0.000000 0.000061 0.210510
0.038452 0.000061 0.210480
0.160400 0.006836 0.216644
0.315460 0.017822 0.228729
0.466522 0.038177 0.241638
0.607910 0.054749 0.251709
0.738464 0.059601 0.255188
0.859070 0.057129 0.253265
0.000000 0.113953 0.210480
0.038452 0.113953 0.210480
0.165619 0.119598 0.214020
0.307983 0.135193 0.223602
0.455627 0.154053 0.235809
0.598175 0.168396 0.245483
0.728851 0.173218 0.248749
0.849670 0.170654 0.246979
0.000000 0.242096 0.217163
0.036438 0.245575 0.209229
0.170258 0.244568 0.208618
0.312439 0.253113 0.218231
0.456696 0.270477 0.232452
0.596008 0.285583 0.244171
0.726746 0.290283 0.247253
0.847595 0.288086 0.245636
0.000000 0.398956 0.226410
0.053223 0.393219 0.220154
0.188080 0.392212 0.219238
0.337860 0.400940 0.224915
0.489044 0.411530 0.234955
0.627228 0.420410 0.247192
0.753967 0.423157 0.252777
0.871338 0.420593 0.253021
0.000000 0.555145 0.240875
0.076843 0.547272 0.235504
0.212952 0.546112 0.234863
0.363098 0.554871 0.240692
0.517609 0.566742 0.248993
0.666321 0.574432 0.254120
0.791718 0.570587 0.260132
0.908051 0.563873 0.261017
0.000000 0.702209 0.251404
0.092377 0.694305 0.245941
0.229218 0.693329 0.245270
0.379578 0.701904 0.251190
0.533997 0.714020 0.259430
0.682465 0.721741 0.264893
0.818237 0.720123 0.263733
0.937805 0.709076 0.261932
0.000000 0.832855 0.249207
0.088928 0.824738 0.243744
0.225586 0.823547 0.242920
0.375854 0.832550 0.248993
0.530457 0.844818 0.257141
0.678986 0.852753 0.262634
0.814697 0.851013 0.261475
0.940735 0.841766 0.255280
0.000000 0.951202 0.237274
0.071289 0.942841 0.231995
0.207214 0.941772 0.231079
0.357178 0.950897 0.236908
0.511749 0.963287 0.245148
0.660645 0.971313 0.250519
0.796722 0.969604 0.249359
0.922974 0.960297 0.243317
0.000000 0.000061 0.299438
0.043182 0.000061 0.289734
0.169800 0.000061 0.299347
0.329163 0.002869 0.316528
0.479401 0.024139 0.328491
0.618469 0.043182 0.338013
0.746124 0.050995 0.341431
0.864227 0.050873 0.339539
0.000000 0.117371 0.287018
0.038055 0.113586 0.301819
0.172028 0.112549 0.301086
0.314758 0.127991 0.307495
0.459320 0.149597 0.320465
0.598846 0.167053 0.332123
0.728455 0.172638 0.336243
0.849304 0.170288 0.334290
0.000000 0.244263 0.299377
0.036102 0.245178 0.300079
0.169830 0.244232 0.299377
0.312317 0.259155 0.310730
0.459900 0.277557 0.324951
0.602448 0.291626 0.335999
0.733063 0.296356 0.339569
0.853790 0.294067 0.337769
0.000000 0.398712 0.319122
0.052826 0.392853 0.313080
0.187653 0.391846 0.312347
0.337402 0.400543 0.318909
0.484772 0.412140 0.333221
0.623779 0.425354 0.347015
0.750854 0.431152 0.353271
0.871155 0.428558 0.351105
0.000000 0.554810 0.337433
0.076416 0.546753 0.331177
0.212585 0.545746 0.330414
0.362732 0.554474 0.337158
0.517212 0.566406 0.346710
0.662689 0.573120 0.355225
0.788116 0.572357 0.362030
0.904510 0.568207 0.362793
0.000000 0.701874 0.349396
0.092041 0.693970 0.343201
0.228821 0.692963 0.342407
0.379089 0.701538 0.349182
0.533661 0.713623 0.358856
0.682037 0.721375 0.365112
0.817780 0.719727 0.363770
0.933197 0.708679 0.364899
0.000000 0.832489 0.346863
0.088531 0.824188 0.340515
0.225189 0.823181 0.339569
0.375488 0.832123 0.346649
0.529999 0.844421 0.356018
0.678528 0.852325 0.362274
0.814301 0.850616 0.360901
0.940308 0.841461 0.353882
0.000000 0.950806 0.332977
0.070923 0.942444 0.326935
0.206787 0.941406 0.326111
0.356781 0.950500 0.332794
0.511414 0.962891 0.342285
0.660187 0.970917 0.348389
0.796417 0.969238 0.347137
0.922546 0.959869 0.339905
0.000000 0.000061 0.428894
0.051880 0.000061 0.397461
0.180756 0.000061 0.404999
0.340851 0.000061 0.428955
0.496033 0.013916 0.439850
0.635529 0.032501 0.444977
0.762329 0.041199 0.445099
0.880402 0.040863 0.440643
0.000000 0.123718 0.386719
0.041199 0.116974 0.409790
0.175323 0.115967 0.408966
0.324799 0.124756 0.416229
0.476868 0.139343 0.425812
0.615417 0.157562 0.433136
0.742584 0.165436 0.435272
0.860474 0.165649 0.432892
0.000000 0.250580 0.399933
0.039154 0.248199 0.407898
0.173187 0.247284 0.407074
0.322632 0.256012 0.414581
0.470520 0.273926 0.424591
0.609955 0.290955 0.435669
0.737457 0.298401 0.440491
0.857056 0.297089 0.438873
0.000000 0.403534 0.428894
0.055969 0.396118 0.422485
0.191040 0.395111 0.421631
0.340820 0.403564 0.428925
0.488434 0.421753 0.444855
0.630707 0.435791 0.457275
0.760834 0.440491 0.461487
0.881042 0.438202 0.459473
0.000000 0.557831 0.449707
0.079651 0.550018 0.442810
0.215912 0.549011 0.441742
0.366119 0.557526 0.449432
0.520599 0.569397 0.459930
0.662201 0.577087 0.472687
0.788452 0.580841 0.479553
0.905121 0.579498 0.480194
0.000000 0.705139 0.462952
0.095276 0.697021 0.456177
0.232178 0.695984 0.455200
0.382538 0.704620 0.462738
0.536957 0.716675 0.473358
0.685425 0.724670 0.480255
0.817871 0.721802 0.481689
0.933289 0.713959 0.482880
0.000000 0.835602 0.460175
0.091797 0.827515 0.453094
0.228577 0.826538 0.452148
0.378906 0.835266 0.459900
0.533386 0.847534 0.470520
0.681885 0.855713 0.477386
0.817566 0.853729 0.475922
0.943542 0.844818 0.467896
0.000000 0.954010 0.444824
0.074127 0.945862 0.438019
0.210144 0.944824 0.437164
0.360229 0.953674 0.444641
0.514679 0.966095 0.455078
0.663483 0.974304 0.461853
0.799622 0.972382 0.460419
0.925781 0.963287 0.452515
0.000000 0.005493 0.552155
0.059753 0.000061 0.529755
0.191803 0.000061 0.531586
0.346283 0.005127 0.551880
0.500793 0.018707 0.563019
0.649750 0.027618 0.570557
0.781311 0.030670 0.567383
0.897766 0.031647 0.558563
0.000000 0.130035 0.507721
0.045502 0.121582 0.530334
0.179871 0.120270 0.529419
0.329468 0.129333 0.537506
0.484039 0.141602 0.548615
0.633148 0.149475 0.555817
0.760620 0.156921 0.552490
0.877594 0.157532 0.545868
0.000000 0.257599 0.517792
0.043457 0.252655 0.528503
0.177795 0.251709 0.527618
0.327393 0.260254 0.535492
0.481873 0.272217 0.546600
0.628571 0.282349 0.553131
0.754974 0.290558 0.552185
0.872131 0.291229 0.548309
0.000000 0.408325 0.551575
0.060394 0.400513 0.544312
0.195679 0.399323 0.543365
0.345551 0.407990 0.551300
0.500061 0.419800 0.562439
0.642487 0.433563 0.569916
0.769440 0.441010 0.573059
0.886566 0.441406 0.571533
0.000000 0.562256 0.573639
0.084106 0.554413 0.566254
0.220581 0.553192 0.565308
0.370819 0.561951 0.573364
0.525330 0.573853 0.584625
0.667114 0.587921 0.598267
0.796509 0.592651 0.602631
0.916138 0.590363 0.600372
0.000000 0.709412 0.588226
0.099762 0.701508 0.580536
0.236816 0.700470 0.579590
0.387268 0.709106 0.587891
0.541687 0.721161 0.599243
0.690063 0.729187 0.606598
0.818695 0.727295 0.611389
0.934937 0.723907 0.612000
0.000000 0.840149 0.584930
0.096252 0.832062 0.577515
0.233246 0.831085 0.576508
0.383606 0.839813 0.584595
0.538055 0.852112 0.595947
0.686462 0.860046 0.603485
0.822113 0.858337 0.601685
0.944885 0.848145 0.596222
0.000000 0.958618 0.568542
0.078552 0.950439 0.561096
0.214783 0.949219 0.560242
0.364929 0.958282 0.568146
0.519409 0.970673 0.579437
0.668091 0.978729 0.586945
0.804169 0.976959 0.585144
0.930298 0.967926 0.576935
0.000000 0.008698 0.681519
0.063721 0.000061 0.669861
0.197906 0.000061 0.666595
0.349243 0.008362 0.681213
0.503845 0.022064 0.692932
0.652740 0.030609 0.700562
0.789093 0.028778 0.698822
0.913544 0.020996 0.689423
0.000000 0.133484 0.638214
0.048340 0.124420 0.658539
0.182922 0.123383 0.657349
0.332581 0.132172 0.665863
0.487061 0.144379 0.677551
0.636200 0.152283 0.685333
0.772949 0.150635 0.683533
0.894714 0.146210 0.673309
0.000000 0.261658 0.644806
0.046295 0.255432 0.656403
0.180786 0.254425 0.655457
0.330353 0.263214 0.663940
0.484955 0.275055 0.675659
0.634033 0.282837 0.683197
0.770782 0.280945 0.681580
0.888214 0.281311 0.671173
0.000000 0.410950 0.680939
0.063263 0.403290 0.673004
0.198669 0.402222 0.672028
0.348602 0.410706 0.680603
0.503143 0.422546 0.692352
0.652039 0.430176 0.699951
0.786011 0.430847 0.697571
0.902100 0.432098 0.689423
0.000000 0.565033 0.704102
0.087036 0.557159 0.696320
0.223602 0.556213 0.695129
0.373901 0.564667 0.703766
0.528351 0.576569 0.715576
0.676941 0.584473 0.723450
0.806366 0.588715 0.721588
0.923004 0.589142 0.718018
0.000000 0.712372 0.719299
0.102692 0.704285 0.711304
0.239838 0.703247 0.710297
0.390320 0.712097 0.718994
0.544708 0.724152 0.730804
0.693054 0.731934 0.738495
0.821899 0.736755 0.743256
0.941193 0.734192 0.740967
0.000000 0.843201 0.715790
0.099213 0.834900 0.708130
0.236267 0.833893 0.707123
0.386658 0.842865 0.715546
0.541107 0.855164 0.727386
0.689453 0.863098 0.735260
0.825043 0.861389 0.733398
0.944092 0.852173 0.731354
0.000000 0.961609 0.698700
0.081451 0.953308 0.690979
0.217773 0.952271 0.689758
0.368011 0.961121 0.698334
0.522461 0.973755 0.710083
0.671143 0.981781 0.717987
0.807068 0.980042 0.716095
0.933167 0.970734 0.707489
0.000000 0.008026 0.812744
0.063263 0.000061 0.796844
0.197174 0.000061 0.794403
0.348663 0.007660 0.812469
0.503204 0.021332 0.824524
0.652008 0.029968 0.832550
0.788422 0.028076 0.830627
0.914764 0.018097 0.821838
0.000000 0.133759 0.762146
0.047699 0.123779 0.789032
0.182190 0.122742 0.787781
0.331818 0.131531 0.796631
0.486481 0.143799 0.808685
0.635590 0.151672 0.816711
0.772308 0.150024 0.814819
0.898834 0.141052 0.805939
0.000000 0.261719 0.769501
0.045685 0.254791 0.786804
0.180145 0.253845 0.785858
0.329712 0.262604 0.794647
0.484222 0.274323 0.806702
0.633392 0.282257 0.814484
0.770142 0.280365 0.812805
0.896759 0.271667 0.803802
0.000000 0.410431 0.812103
0.062622 0.402588 0.804108
0.198029 0.401642 0.802979
0.347931 0.410095 0.811829
0.502472 0.421936 0.823883
0.651428 0.429565 0.831909
0.787750 0.427917 0.829987
0.914093 0.419281 0.821167
0.000000 0.564423 0.835938
0.086395 0.556641 0.828003
0.222961 0.555573 0.826996
0.373199 0.564117 0.835632
0.527679 0.575989 0.847992
0.676270 0.583679 0.855835
0.812103 0.581970 0.854126
0.935760 0.575531 0.844330
0.000000 0.711731 0.851532
0.102051 0.703705 0.843628
0.239197 0.702667 0.842560
0.389648 0.711517 0.851227
0.544037 0.723572 0.863403
0.692383 0.731354 0.871460
0.827911 0.729706 0.869781
0.947418 0.726837 0.860657
0.000000 0.842316 0.848206
0.098541 0.834320 0.840057
0.235596 0.833282 0.839050
0.385986 0.841980 0.847931
0.540436 0.854279 0.860077
0.688782 0.862457 0.867889
0.824402 0.860779 0.866211
0.943695 0.858154 0.863892
0.000000 0.960815 0.830383
0.080811 0.952667 0.822357
0.217133 0.951660 0.821472
0.367310 0.960480 0.830048
0.521820 0.972900 0.842438
0.670502 0.981171 0.850220
0.806427 0.979309 0.848541
0.932526 0.970123 0.839478
0.000000 0.004120 0.944366
0.060303 0.000061 0.909485
0.192505 0.000061 0.910919
0.345032 0.003601 0.943939
0.499756 0.017578 0.956268
0.648712 0.026520 0.964172
0.785126 0.024353 0.962433
0.911469 0.014557 0.953308
0.000000 0.131866 0.875793
0.044464 0.120300 0.920074
0.178894 0.119263 0.919037
0.328369 0.128326 0.927856
0.482910 0.140381 0.940247
0.632202 0.148529 0.948120
0.768860 0.146576 0.946442
0.895538 0.137634 0.937286
0.000000 0.259155 0.887878
0.042480 0.251801 0.918121
0.176727 0.250732 0.916870
0.326172 0.259277 0.925781
0.480804 0.271210 0.938019
0.630005 0.278900 0.946106
0.766815 0.277252 0.944427
0.893494 0.268311 0.935303
0.000000 0.407227 0.943512
0.059357 0.399261 0.935516
0.194611 0.398285 0.934448
0.344452 0.407013 0.943176
0.498932 0.418823 0.955627
0.647949 0.426483 0.963501
0.784393 0.424835 0.961823
0.910797 0.415955 0.952667
0.000000 0.561340 0.967773
0.083130 0.553223 0.959564
0.219513 0.552307 0.958557
0.369720 0.560944 0.967499
0.524200 0.572876 0.979675
0.672821 0.580536 0.987823
0.808777 0.578857 0.985870
0.934845 0.569977 0.976990
0.000000 0.708496 0.983521
0.098724 0.700592 0.975311
0.235718 0.699585 0.974274
0.386139 0.708099 0.983215
0.540588 0.720123 0.995422
0.688965 0.727966 1.000000
0.824554 0.726288 1.000000
0.950409 0.717468 0.992676
0.000000 0.839142 0.979950
0.095245 0.831055 0.971924
0.232178 0.829865 0.970886
0.382507 0.838776 0.979614
0.536957 0.851135 0.992035
0.685394 0.859009 0.999969
0.821045 0.857300 0.998291
0.946960 0.848114 0.989136
0.000000 0.957581 0.962158
0.077515 0.949219 0.953918
0.213684 0.948181 0.952911
0.363831 0.957275 0.961853
0.518341 0.969666 0.974060
0.667053 0.977692 0.982208
0.803101 0.975952 0.980255
0.929230 0.966675 0.971313
