luts/Grading 2 .CUBE
#Created by: Adobe Photoshop Export Color Lookup Plugin
#Copyright: (C) Copyright 2017 rafyA
TITLE "Grading 2.jpg"
#LUT size
LUT_3D_SIZE 32
#data domain
DOMAIN_MIN 0.0 0.0 0.0
DOMAIN_MAX 1.0 1.0 1.0
#LUT data points
0.000000 0.000000 0.000000
0.000031 0.013275 0.007904
0.000031 0.026245 0.015228
0.000031 0.039612 0.020538
0.007935 0.049255 0.021881
0.031372 0.051056 0.023621
0.056824 0.052643 0.024963
0.084869 0.054016 0.026154
0.116058 0.054993 0.026978
0.150482 0.055359 0.027313
0.188507 0.055145 0.027100
0.229736 0.054230 0.026337
0.273621 0.052734 0.025055
0.319641 0.050690 0.023071
0.367340 0.048218 0.020996
0.413391 0.046692 0.019684
0.456238 0.046600 0.019592
0.499023 0.046387 0.019348
0.541504 0.046082 0.019043
0.583130 0.045624 0.018646
0.624115 0.045013 0.018097
0.663666 0.044312 0.017517
0.701660 0.043457 0.016785
0.738251 0.042603 0.016083
0.773285 0.041870 0.015442
0.806763 0.041290 0.015015
0.838623 0.040955 0.014771
0.868988 0.040802 0.014618
0.898682 0.040802 0.014648
0.927429 0.040894 0.014801
0.955719 0.041016 0.014954
0.983826 0.041229 0.015137
0.000031 0.025818 0.014038
0.000031 0.038574 0.019836
0.000031 0.051819 0.024292
0.000031 0.065796 0.025299
0.009186 0.075256 0.023743
0.031952 0.077362 0.025299
0.056885 0.079315 0.026672
0.083954 0.081085 0.027893
0.113861 0.082642 0.028748
0.147064 0.083771 0.029236
0.183502 0.084290 0.029144
0.222870 0.084198 0.028534
0.265106 0.083527 0.027466
0.309387 0.082306 0.025909
0.355621 0.080658 0.024017
0.402985 0.078644 0.021667
0.451050 0.076477 0.019379
0.496002 0.075226 0.018158
0.538452 0.074921 0.017853
0.580414 0.074463 0.017426
0.621185 0.073853 0.016876
0.660797 0.073059 0.016205
0.699158 0.072205 0.015472
0.735840 0.071320 0.014709
0.771057 0.070526 0.014038
0.804504 0.069946 0.013336
0.836487 0.069489 0.012970
0.867218 0.069305 0.012848
0.896759 0.069275 0.012848
0.924835 0.069672 0.013275
0.949493 0.071228 0.014984
0.974304 0.072876 0.016479
0.000031 0.051392 0.024994
0.000031 0.064331 0.028717
0.000031 0.077881 0.030243
0.000031 0.092316 0.028015
0.010773 0.100922 0.025513
0.033539 0.103149 0.027069
0.057831 0.105316 0.028442
0.084412 0.107452 0.029663
0.113556 0.109375 0.030579
0.145691 0.110992 0.031097
0.180817 0.112122 0.031128
0.218933 0.112671 0.030640
0.259674 0.112671 0.029663
0.302795 0.112152 0.028259
0.347443 0.111115 0.026520
0.393585 0.109741 0.024506
0.440430 0.108093 0.022125
0.487305 0.106232 0.019867
0.533722 0.104370 0.017761
0.577576 0.102997 0.016327
0.618469 0.102386 0.015808
0.658173 0.101593 0.015076
0.696564 0.100647 0.014282
0.733398 0.099731 0.013275
0.768799 0.098877 0.012543
0.802612 0.098206 0.011963
0.834717 0.097778 0.011627
0.863434 0.098358 0.012329
0.890472 0.099365 0.013458
0.916260 0.100525 0.014984
0.941467 0.101959 0.016388
0.966522 0.103424 0.017975
0.000031 0.077301 0.033752
0.000031 0.090546 0.035461
0.000031 0.104401 0.034729
0.000031 0.119171 0.029724
0.012970 0.126587 0.027283
0.035400 0.128845 0.028809
0.059723 0.131165 0.030212
0.085846 0.133423 0.031372
0.114258 0.135681 0.032349
0.145752 0.137665 0.033142
0.179993 0.139252 0.033264
0.216888 0.140289 0.032654
0.256714 0.140839 0.031769
0.298615 0.140839 0.030487
0.342255 0.140381 0.028839
0.387177 0.139496 0.026947
0.432953 0.138275 0.024811
0.479156 0.136841 0.022461
0.524841 0.135284 0.020325
0.569611 0.133728 0.018372
0.612823 0.132202 0.016632
0.654022 0.130859 0.015198
0.693085 0.129700 0.014069
0.729828 0.128815 0.013123
0.764465 0.128235 0.012756
0.796783 0.128052 0.012787
0.827240 0.128235 0.013275
0.855988 0.128815 0.014282
0.883331 0.129578 0.015320
0.909576 0.130676 0.016602
0.935303 0.131836 0.018005
0.960327 0.133179 0.019501
0.000031 0.104095 0.040771
0.000031 0.117615 0.040680
0.000031 0.131683 0.037872
0.000031 0.146851 0.030762
0.015289 0.152649 0.029144
0.037964 0.154877 0.030670
0.062012 0.157257 0.032074
0.088043 0.159668 0.033478
0.116333 0.162048 0.034424
0.147125 0.164276 0.035004
0.180634 0.166138 0.035126
0.216858 0.167633 0.034821
0.255615 0.168518 0.033997
0.296661 0.168976 0.032562
0.339447 0.168976 0.031006
0.383453 0.168518 0.029205
0.428619 0.167725 0.027191
0.473999 0.166626 0.025085
0.518860 0.165344 0.022797
0.563080 0.164001 0.020813
0.606110 0.162720 0.019073
0.647339 0.161377 0.017548
0.686279 0.160278 0.016388
0.723328 0.159332 0.015564
0.757965 0.158661 0.015137
0.790955 0.158325 0.015045
0.821594 0.158325 0.015381
0.850861 0.158722 0.016083
0.878571 0.159363 0.017029
0.905060 0.160248 0.018280
0.930939 0.161285 0.019623
0.956207 0.162506 0.021118
0.000031 0.131897 0.046906
0.000031 0.145599 0.045105
0.000031 0.160065 0.040253
0.000031 0.175446 0.031281
0.018158 0.179321 0.031067
0.041077 0.181549 0.032593
0.065125 0.183868 0.034210
0.091064 0.186340 0.035400
0.119202 0.188812 0.036346
0.149658 0.191193 0.036926
0.182648 0.193298 0.037079
0.218567 0.194977 0.036774
0.256775 0.196228 0.036011
0.296875 0.197021 0.034851
0.338898 0.197296 0.033386
0.382263 0.197174 0.031372
0.426575 0.196747 0.029419
0.471344 0.195953 0.027405
0.515808 0.194946 0.025330
0.559601 0.193848 0.023163
0.602295 0.192627 0.021393
0.643341 0.191437 0.019867
0.682129 0.190277 0.018616
0.719299 0.189392 0.017761
0.754150 0.188629 0.017242
0.787323 0.188202 0.017090
0.818481 0.188110 0.017365
0.847778 0.188354 0.018005
0.875732 0.188873 0.018921
0.902710 0.189636 0.020081
0.928650 0.190613 0.021454
0.954346 0.191711 0.022919
0.000031 0.161102 0.052002
0.000031 0.174988 0.048584
0.000031 0.189606 0.042053
0.000153 0.205139 0.031494
0.021484 0.207031 0.033356
0.044647 0.209106 0.034882
0.068817 0.211273 0.036194
0.094818 0.213715 0.037415
0.122986 0.216217 0.038330
0.153290 0.218689 0.038879
0.186066 0.220856 0.039001
0.221619 0.222748 0.038696
0.259216 0.224243 0.037994
0.299164 0.225250 0.036896
0.340485 0.225830 0.035431
0.383270 0.225983 0.033691
0.427155 0.225739 0.031555
0.471222 0.225189 0.029541
0.515289 0.224487 0.027527
0.558746 0.223480 0.025604
0.601196 0.222412 0.023804
0.641937 0.221344 0.022095
0.680908 0.220276 0.020844
0.717804 0.219269 0.019867
0.752960 0.218506 0.019318
0.786316 0.218018 0.019135
0.817352 0.217834 0.019348
0.847076 0.217957 0.019928
0.875275 0.218414 0.020844
0.902435 0.219055 0.022003
0.928558 0.220001 0.023590
0.954346 0.220947 0.025024
0.000031 0.191620 0.056610
0.000031 0.205780 0.051422
0.000031 0.220612 0.043549
0.003235 0.234131 0.033875
0.025208 0.235870 0.035492
0.048615 0.237732 0.036987
0.073059 0.239868 0.038361
0.099304 0.242188 0.039490
0.127563 0.244629 0.040375
0.158020 0.247101 0.040955
0.190826 0.249359 0.041046
0.226074 0.251251 0.040710
0.263397 0.252838 0.039978
0.303040 0.254028 0.038879
0.344025 0.254730 0.037445
0.386536 0.255157 0.035767
0.429871 0.255066 0.033875
0.473755 0.254730 0.031677
0.517517 0.254150 0.029663
0.560608 0.253326 0.027740
0.602631 0.252350 0.025970
0.643402 0.251373 0.024475
0.682098 0.250336 0.022980
0.719299 0.249359 0.022064
0.754333 0.248566 0.021454
0.787628 0.248016 0.021240
0.819153 0.247833 0.021454
0.848846 0.247925 0.022064
0.877075 0.248260 0.022949
0.904388 0.248871 0.024323
0.930817 0.249634 0.025665
0.956543 0.250580 0.027130
0.000031 0.224030 0.060516
0.000031 0.238342 0.054077
0.000031 0.253448 0.044434
0.006744 0.264557 0.036163
0.029236 0.266083 0.037781
0.053131 0.267853 0.039307
0.078186 0.269745 0.040619
0.104736 0.271912 0.041748
0.132965 0.274200 0.042755
0.163574 0.276581 0.043304
0.196686 0.278809 0.043396
0.231903 0.280792 0.042999
0.269440 0.282410 0.042053
0.308685 0.283661 0.040894
0.349762 0.284515 0.039459
0.391907 0.284943 0.037750
0.435059 0.285065 0.035919
0.478516 0.284851 0.033936
0.521912 0.284363 0.031738
0.564972 0.283661 0.029816
0.606781 0.282806 0.028076
0.647278 0.281830 0.026550
0.686005 0.280853 0.025299
0.723145 0.279877 0.024414
0.758209 0.279083 0.023804
0.791595 0.278534 0.023621
0.823181 0.278320 0.023865
0.852875 0.278351 0.024475
0.881287 0.278687 0.025391
0.908630 0.279205 0.026550
0.935211 0.279907 0.027924
0.961090 0.280823 0.029388
0.000031 0.258148 0.064209
0.000031 0.272675 0.056091
0.000031 0.287994 0.044983
0.010651 0.296661 0.038574
0.033905 0.297913 0.040222
0.058075 0.299438 0.041687
0.083649 0.301178 0.043274
0.110565 0.303070 0.044342
0.139404 0.305237 0.045135
0.170319 0.307434 0.045532
0.203644 0.309570 0.045563
0.239044 0.311432 0.045166
0.276642 0.313049 0.044373
0.315979 0.314301 0.043213
0.356995 0.315186 0.041534
0.398895 0.315704 0.039795
0.441833 0.315826 0.037933
0.485138 0.315674 0.035950
0.528473 0.315308 0.034027
0.571289 0.314667 0.031860
0.613251 0.313904 0.030182
0.653564 0.312988 0.028687
0.692383 0.312012 0.027496
0.729309 0.311096 0.026581
0.764526 0.310303 0.026031
0.797791 0.309723 0.025879
0.829346 0.309479 0.026154
0.859283 0.309509 0.026794
0.887726 0.309753 0.027740
0.915192 0.310242 0.028961
0.941620 0.310944 0.030365
0.967865 0.311768 0.031860
0.000031 0.293884 0.067230
0.000031 0.308624 0.057770
0.000031 0.324066 0.045288
0.014740 0.330078 0.041138
0.038605 0.331085 0.042999
0.063568 0.332306 0.044495
0.089600 0.333832 0.045746
0.116974 0.335541 0.046814
0.146332 0.337494 0.047546
0.177612 0.339478 0.047882
0.211365 0.341492 0.047852
0.246948 0.343231 0.047363
0.284729 0.344666 0.046478
0.324158 0.345886 0.045288
0.365326 0.346802 0.043823
0.407501 0.347321 0.041870
0.450287 0.347504 0.039978
0.493744 0.347412 0.037964
0.536957 0.347046 0.036041
0.579437 0.346466 0.034180
0.621307 0.345703 0.032257
0.661621 0.344849 0.030792
0.700378 0.343872 0.029602
0.737274 0.343018 0.028778
0.772461 0.342194 0.028259
0.805695 0.341614 0.028168
0.837250 0.341400 0.028534
0.867188 0.341400 0.029205
0.895660 0.341644 0.030243
0.923279 0.342133 0.031494
0.949829 0.342712 0.033142
0.976074 0.343475 0.034668
0.000031 0.330872 0.069946
0.000031 0.345825 0.059113
0.000031 0.361450 0.045288
0.019073 0.364655 0.043976
0.043457 0.365417 0.045624
0.068878 0.366364 0.047089
0.095520 0.367676 0.048370
0.123688 0.369110 0.049347
0.153534 0.370819 0.050079
0.185364 0.372650 0.050354
0.219360 0.374390 0.050201
0.255432 0.376038 0.049652
0.293427 0.377380 0.048737
0.333313 0.378479 0.047455
0.374298 0.379272 0.045898
0.416565 0.379791 0.044189
0.459595 0.380005 0.042053
0.502960 0.379913 0.040100
0.546112 0.379547 0.038116
0.588898 0.379028 0.036316
0.630432 0.378265 0.034607
0.670868 0.377411 0.033173
0.709473 0.376465 0.031830
0.746613 0.375549 0.031006
0.781494 0.374817 0.030609
0.815002 0.374268 0.030609
0.846436 0.373962 0.030975
0.876190 0.373993 0.031799
0.904663 0.374207 0.033081
0.932281 0.374634 0.034424
0.959167 0.375183 0.035889
0.985352 0.375916 0.037476
0.000031 0.368927 0.072571
0.000031 0.383942 0.060272
0.000031 0.399811 0.045197
0.023468 0.400208 0.046722
0.048553 0.400665 0.048340
0.074585 0.401367 0.049805
0.101746 0.402344 0.051056
0.130402 0.403534 0.052002
0.160767 0.404999 0.052826
0.193085 0.406616 0.053070
0.227570 0.408173 0.052795
0.264191 0.409637 0.051971
0.302582 0.410858 0.050964
0.342468 0.411835 0.049652
0.383820 0.412598 0.048096
0.426117 0.412994 0.046265
0.469177 0.413116 0.044373
0.512634 0.413086 0.042175
0.555847 0.412720 0.040253
0.598633 0.412140 0.038422
0.640503 0.411469 0.036804
0.680725 0.410614 0.035400
0.719299 0.409668 0.034515
0.756226 0.408783 0.033661
0.791473 0.408020 0.033203
0.824615 0.407501 0.033295
0.856110 0.407227 0.033813
0.885803 0.407196 0.034637
0.914520 0.407379 0.035797
0.942169 0.407776 0.037170
0.968964 0.408325 0.038696
0.995575 0.408936 0.040283
0.000031 0.407440 0.074615
0.000031 0.422699 0.061188
0.003174 0.436371 0.047668
0.027740 0.436310 0.049469
0.053375 0.436493 0.051147
0.079956 0.436981 0.052795
0.107880 0.437744 0.054047
0.136810 0.438660 0.054901
0.167938 0.439911 0.055481
0.200775 0.441284 0.055573
0.235779 0.442627 0.055298
0.272797 0.443878 0.054626
0.311554 0.445007 0.053558
0.351715 0.445892 0.051971
0.393402 0.446503 0.050354
0.436035 0.446869 0.048523
0.479279 0.446960 0.046570
0.522705 0.446808 0.044586
0.565857 0.446411 0.042908
0.607880 0.445984 0.042236
0.648773 0.445435 0.041656
0.688538 0.444702 0.040955
0.726959 0.443848 0.040161
0.763824 0.442993 0.039337
0.799133 0.442200 0.038605
0.832764 0.441589 0.038055
0.864838 0.441223 0.037720
0.895691 0.440979 0.037506
0.924408 0.441162 0.038574
0.952179 0.441467 0.040039
0.979279 0.441895 0.041595
1.000000 0.442444 0.043457
0.000031 0.446442 0.076447
0.000031 0.461914 0.061951
0.006805 0.473206 0.050446
0.031982 0.472931 0.052277
0.058136 0.472809 0.054169
0.085419 0.473053 0.055573
0.113617 0.473541 0.056793
0.143341 0.474304 0.057617
0.174744 0.475311 0.058105
0.208313 0.476410 0.058167
0.243744 0.477539 0.057800
0.281250 0.478638 0.057037
0.320282 0.479584 0.055939
0.361023 0.480347 0.054504
0.402740 0.480896 0.052826
0.445526 0.481171 0.050812
0.488708 0.481171 0.049286
0.531616 0.480957 0.049072
0.574188 0.480652 0.048737
0.616180 0.480225 0.048279
0.657043 0.479675 0.047791
0.696716 0.479004 0.047150
0.735077 0.478241 0.046356
0.771729 0.477417 0.045593
0.806915 0.476685 0.044922
0.840393 0.476135 0.044403
0.872314 0.475800 0.044128
0.903015 0.475616 0.043976
0.932587 0.475586 0.043976
0.961426 0.475647 0.044067
0.989380 0.475891 0.044769
1.000000 0.476379 0.046448
0.000031 0.485443 0.078552
0.000031 0.501099 0.062836
0.010376 0.510132 0.053528
0.036072 0.509521 0.055328
0.062988 0.509308 0.057007
0.090546 0.509308 0.058411
0.119415 0.509583 0.059570
0.149658 0.510162 0.060394
0.181549 0.510864 0.060791
0.215546 0.511749 0.060791
0.251434 0.512695 0.060333
0.289246 0.513641 0.059509
0.328674 0.514465 0.058350
0.369690 0.515106 0.056885
0.411804 0.515442 0.055634
0.454468 0.515472 0.055603
0.497345 0.515350 0.055450
0.540070 0.515167 0.055237
0.582611 0.514862 0.054901
0.624573 0.514465 0.054504
0.665375 0.513947 0.053986
0.704895 0.513306 0.053345
0.743134 0.512573 0.052521
0.779755 0.511841 0.051727
0.814789 0.511200 0.051117
0.848053 0.510712 0.050659
0.879852 0.510437 0.050415
0.910492 0.510345 0.050354
0.939941 0.510345 0.050385
0.968689 0.510437 0.050507
0.997009 0.510590 0.050690
1.000000 0.511139 0.053284
0.000031 0.524139 0.081177
0.000031 0.539917 0.064606
0.015137 0.545837 0.058044
0.040192 0.546051 0.058289
0.067383 0.545685 0.059784
0.095398 0.545471 0.061218
0.124695 0.545563 0.062592
0.155365 0.545929 0.063385
0.187927 0.546478 0.063721
0.222382 0.547180 0.063660
0.258667 0.547974 0.063141
0.296844 0.548737 0.062042
0.336609 0.549225 0.061371
0.377930 0.549438 0.061493
0.420074 0.549530 0.061554
0.462830 0.549530 0.061493
0.505829 0.549408 0.061371
0.548706 0.549225 0.061127
0.591003 0.548950 0.060822
0.632904 0.548615 0.060455
0.673645 0.548126 0.059967
0.713104 0.547485 0.059357
0.751221 0.546814 0.058685
0.787689 0.546143 0.058044
0.822601 0.545563 0.057526
0.855713 0.545166 0.057159
0.887360 0.544952 0.056976
0.917664 0.544861 0.056946
0.947174 0.544922 0.057007
0.975922 0.545044 0.057129
1.000000 0.545197 0.057343
1.000000 0.546478 0.065399
0.000031 0.562408 0.083740
0.000031 0.578308 0.066315
0.021240 0.580139 0.064514
0.046509 0.580322 0.064697
0.072937 0.580566 0.064972
0.100769 0.580841 0.065308
0.129730 0.581146 0.065613
0.160950 0.581482 0.066071
0.193695 0.581848 0.066406
0.228577 0.582184 0.066589
0.265686 0.582550 0.066956
0.304382 0.582855 0.067200
0.344452 0.583099 0.067383
0.385895 0.583252 0.067505
0.428131 0.583344 0.067566
0.470917 0.583313 0.067505
0.513947 0.583191 0.067322
0.556854 0.583038 0.067139
0.599091 0.582733 0.066803
0.640991 0.582397 0.066467
0.681671 0.581970 0.066010
0.721008 0.581390 0.065430
0.759003 0.580750 0.064819
0.795349 0.580170 0.064240
0.829926 0.579651 0.063751
0.863098 0.579315 0.063477
0.894592 0.579132 0.063324
0.924744 0.579102 0.063324
0.954254 0.579193 0.063446
0.982910 0.579346 0.063599
1.000000 0.579498 0.063812
1.000000 0.581238 0.078064
0.000031 0.599976 0.085846
0.002930 0.613831 0.070221
0.027100 0.614014 0.070404
0.052582 0.614197 0.070648
0.079102 0.614349 0.070862
0.106842 0.614563 0.071075
0.136230 0.614838 0.071320
0.167267 0.615143 0.071655
0.200439 0.615448 0.071930
0.235596 0.615723 0.072449
0.272827 0.615997 0.072693
0.311646 0.616272 0.072906
0.351868 0.616486 0.073090
0.393341 0.616608 0.073151
0.435669 0.616638 0.073151
0.478485 0.616638 0.073090
0.521515 0.616516 0.072968
0.564453 0.616364 0.072754
0.606720 0.616089 0.072510
0.648529 0.615814 0.071899
0.689117 0.615387 0.071503
0.728455 0.614868 0.070984
0.766144 0.614288 0.070374
0.802521 0.613708 0.069824
0.836914 0.613251 0.069397
0.869812 0.612976 0.069183
0.901154 0.612854 0.069061
0.931458 0.612885 0.069122
0.960663 0.612976 0.069275
0.989258 0.613159 0.069458
1.000000 0.613342 0.069672
1.000000 0.615326 0.090851
0.000031 0.636566 0.087585
0.007843 0.647034 0.075836
0.032349 0.647217 0.076050
0.057953 0.647369 0.076233
0.084595 0.647522 0.076416
0.112701 0.647736 0.076630
0.142181 0.647919 0.076813
0.173370 0.648193 0.077087
0.206696 0.648407 0.077301
0.242004 0.648651 0.077545
0.279358 0.648926 0.077759
0.318329 0.649170 0.077972
0.358612 0.649292 0.078125
0.400208 0.649414 0.078156
0.442413 0.649445 0.078156
0.485168 0.649414 0.078125
0.528229 0.649292 0.077942
0.571136 0.649170 0.077728
0.613647 0.648956 0.077484
0.655426 0.648621 0.077179
0.695953 0.648224 0.076752
0.735199 0.647766 0.076294
0.772736 0.647186 0.075684
0.808868 0.646667 0.075226
0.843353 0.646271 0.074860
0.876068 0.646057 0.074646
0.907379 0.645996 0.074585
0.937378 0.646057 0.074677
0.966766 0.646179 0.074860
0.995361 0.646332 0.075043
1.000000 0.646545 0.075256
1.000000 0.648499 0.103668
0.000031 0.671936 0.089020
0.012451 0.679443 0.080475
0.037048 0.679535 0.080658
0.062683 0.679688 0.080811
0.089600 0.679871 0.081024
0.117584 0.680054 0.081238
0.147186 0.680206 0.081421
0.178497 0.680450 0.081635
0.211884 0.680603 0.081787
0.247314 0.680817 0.082001
0.284790 0.681061 0.082397
0.323822 0.681244 0.082611
0.364349 0.681427 0.082764
0.405823 0.681519 0.082764
0.448242 0.681549 0.082764
0.491150 0.681488 0.082672
0.534241 0.681396 0.082550
0.577118 0.681213 0.082184
0.619446 0.680969 0.081818
0.661102 0.680695 0.081512
0.701569 0.680359 0.081146
0.740784 0.679871 0.080688
0.778534 0.679382 0.080139
0.814545 0.678894 0.079712
0.848755 0.678528 0.079376
0.881348 0.678345 0.079193
0.912598 0.678314 0.079163
0.942749 0.678375 0.079285
0.971893 0.678528 0.079437
1.000000 0.678711 0.079651
1.000000 0.678894 0.079865
1.000000 0.680542 0.115295
0.000031 0.705750 0.090118
0.016113 0.710846 0.084473
0.040924 0.710968 0.084686
0.066711 0.711121 0.084869
0.093567 0.711243 0.084991
0.121582 0.711365 0.085175
0.151276 0.711548 0.085388
0.182648 0.711731 0.085541
0.216156 0.711884 0.085693
0.251678 0.712128 0.085907
0.289215 0.712311 0.086090
0.328278 0.712463 0.086212
0.368896 0.712585 0.086273
0.410339 0.712646 0.086304
0.452820 0.712708 0.086334
0.495667 0.712646 0.086212
0.538757 0.712524 0.086090
0.581757 0.712402 0.085907
0.624176 0.712189 0.085632
0.665680 0.711945 0.085358
0.706146 0.711609 0.084991
0.745300 0.711151 0.084534
0.783020 0.710632 0.084076
0.819000 0.710175 0.083618
0.853088 0.709839 0.083282
0.885681 0.709686 0.083160
0.916931 0.709686 0.083160
0.947021 0.709778 0.083282
0.976105 0.709930 0.083435
1.000000 0.710114 0.083679
1.000000 0.710297 0.083923
1.000000 0.711395 0.125641
0.000031 0.738037 0.090851
0.018768 0.741211 0.087341
0.043671 0.741364 0.087494
0.069489 0.741486 0.087677
0.096619 0.741638 0.087860
0.124725 0.741791 0.088013
0.154419 0.741943 0.088165
0.185822 0.742096 0.088348
0.219360 0.742249 0.088501
0.254913 0.742462 0.088715
0.292480 0.742645 0.088837
0.331604 0.742828 0.089020
0.372223 0.742950 0.089081
0.413727 0.743042 0.089111
0.456207 0.743042 0.089081
0.499146 0.743011 0.089020
0.542236 0.742920 0.088898
0.585144 0.742737 0.088715
0.627533 0.742493 0.088440
0.669128 0.742249 0.088196
0.709534 0.741913 0.087799
0.748688 0.741455 0.087341
0.786377 0.740967 0.086853
0.822357 0.740540 0.086426
0.856476 0.740204 0.086121
0.889008 0.740051 0.085999
0.920197 0.740051 0.086029
0.950348 0.740143 0.086121
0.979431 0.740326 0.086334
1.000000 0.740509 0.086548
1.000000 0.740692 0.086731
1.000000 0.741028 0.133942
0.000031 0.768890 0.091248
0.020996 0.770721 0.089386
0.045898 0.770844 0.089569
0.071808 0.770996 0.089722
0.098694 0.771118 0.089905
0.126984 0.771240 0.090057
0.156738 0.771423 0.090240
0.188110 0.771576 0.090424
0.221710 0.771759 0.090576
0.257263 0.771973 0.090759
0.294800 0.772156 0.090942
0.333923 0.772308 0.091095
0.374329 0.772430 0.091156
0.416046 0.772522 0.091217
0.458466 0.772522 0.091156
0.501404 0.772491 0.091095
0.544373 0.772369 0.090942
0.587219 0.772247 0.090759
0.629669 0.772003 0.090515
0.671448 0.771790 0.090240
0.711914 0.771423 0.089844
0.751068 0.770996 0.089417
0.788544 0.770508 0.088898
0.824493 0.770020 0.088440
0.858887 0.769714 0.088165
0.891418 0.769562 0.088013
0.922607 0.769562 0.088043
0.952515 0.769653 0.088165
0.981598 0.769806 0.088318
1.000000 0.769958 0.088531
1.000000 0.770172 0.088776
1.000000 0.769623 0.140045
0.000031 0.798462 0.091431
0.022308 0.799408 0.090668
0.047272 0.799530 0.090851
0.073120 0.799652 0.091034
0.100250 0.799805 0.091187
0.128296 0.799957 0.091339
0.158020 0.800171 0.091583
0.189362 0.800323 0.091736
0.222931 0.800476 0.092010
0.258453 0.800720 0.092377
0.295959 0.800934 0.092560
0.335083 0.801117 0.092712
0.375458 0.801239 0.092773
0.417175 0.801331 0.092834
0.459625 0.801361 0.092804
0.502563 0.801300 0.092743
0.545654 0.801178 0.092621
0.588623 0.801056 0.092438
0.630829 0.800812 0.092072
0.672607 0.800537 0.091644
0.713135 0.800201 0.091248
0.752319 0.799744 0.090790
0.789795 0.799255 0.090302
0.825806 0.798767 0.089813
0.860260 0.798462 0.089539
0.892792 0.798279 0.089355
0.924042 0.798279 0.089386
0.954224 0.798340 0.089508
0.983307 0.798462 0.089600
1.000000 0.798645 0.089844
1.000000 0.798859 0.090088
1.000000 0.797363 0.144409
0.000031 0.826904 0.091431
0.023285 0.827362 0.091309
0.048248 0.827484 0.091492
0.074097 0.827637 0.091675
0.100983 0.827789 0.091949
0.129028 0.827972 0.092316
0.158691 0.828156 0.092529
0.189972 0.828369 0.092712
0.223450 0.828583 0.092926
0.258911 0.828796 0.093140
0.296417 0.829041 0.093353
0.335449 0.829254 0.093536
0.375946 0.829437 0.093658
0.417511 0.829498 0.093719
0.459961 0.829559 0.093719
0.502899 0.829529 0.093628
0.545959 0.829407 0.093475
0.588898 0.829254 0.093292
0.631165 0.829010 0.093018
0.672943 0.828705 0.092682
0.713501 0.828369 0.092316
0.752716 0.827881 0.091583
0.790527 0.827393 0.091095
0.826599 0.826874 0.090576
0.860809 0.826508 0.090240
0.893494 0.826324 0.090057
0.924744 0.826263 0.090027
0.954956 0.826324 0.090149
0.984131 0.826508 0.090332
1.000000 0.826691 0.090546
1.000000 0.826813 0.090698
1.000000 0.824463 0.146240
0.000031 0.854401 0.091248
0.023560 0.854645 0.091370
0.048462 0.854828 0.091553
0.074341 0.854980 0.091766
0.101166 0.855194 0.092102
0.129089 0.855377 0.092407
0.158722 0.855591 0.092651
0.189941 0.855835 0.092896
0.223328 0.856079 0.093140
0.258728 0.856384 0.093414
0.296143 0.856628 0.093658
0.335114 0.856842 0.093842
0.375427 0.856995 0.093994
0.417053 0.857117 0.094025
0.459473 0.857147 0.094055
0.502380 0.857117 0.093964
0.545502 0.856995 0.093842
0.588501 0.856873 0.093658
0.630737 0.856628 0.093353
0.672607 0.856354 0.093079
0.713165 0.855957 0.092651
0.752441 0.855469 0.092010
0.790344 0.854889 0.091339
0.826477 0.854370 0.090851
0.860809 0.853973 0.090485
0.893524 0.853729 0.090240
0.924896 0.853668 0.090179
0.955170 0.853699 0.090271
0.984314 0.853790 0.090393
1.000000 0.853973 0.090576
1.000000 0.854187 0.090820
1.000000 0.850983 0.145386
0.000031 0.881195 0.091003
0.023407 0.881470 0.090973
0.048340 0.881683 0.091217
0.074158 0.881836 0.091400
0.100891 0.882050 0.091644
0.128815 0.882263 0.091949
0.158325 0.882507 0.092377
0.189453 0.882813 0.092651
0.222748 0.883118 0.092957
0.257996 0.883392 0.093262
0.295319 0.883698 0.093506
0.334229 0.883972 0.093750
0.374542 0.884155 0.093933
0.416107 0.884277 0.093994
0.458466 0.884338 0.094025
0.501221 0.884308 0.093933
