luts/Grading 1.CUBE
#Created by: Adobe Photoshop Export Color Lookup Plugin
#Copyright: (C) Copyright 2017 rafyA
TITLE "Grading 1.jpg"
#LUT size
LUT_3D_SIZE 32
#data domain
DOMAIN_MIN 0.0 0.0 0.0
DOMAIN_MAX 1.0 1.0 1.0
#LUT data points
0.000000 0.000000 0.147095
0.000000 0.001648 0.147827
0.000000 0.003143 0.148499
0.008514 0.004944 0.149475
0.033417 0.006531 0.150238
0.060791 0.008118 0.151062
0.090424 0.009857 0.151886
0.122650 0.011871 0.152802
0.157806 0.013855 0.153748
0.195526 0.015869 0.155029
0.235565 0.017944 0.156128
0.277222 0.020386 0.157288
0.320221 0.022614 0.158386
0.357758 0.027466 0.161102
0.394745 0.032410 0.163696
0.431732 0.037598 0.166321
0.468536 0.042542 0.169128
0.505035 0.047211 0.171509
0.541046 0.051208 0.173981
0.576385 0.054901 0.175873
0.611023 0.057739 0.177429
0.644775 0.059875 0.178802
0.677765 0.061554 0.179657
0.709991 0.062469 0.180176
0.741516 0.062836 0.180359
0.772400 0.062744 0.180328
0.802704 0.062225 0.180054
0.832581 0.061432 0.179565
0.862061 0.060089 0.179016
0.891235 0.058838 0.178040
0.920166 0.057434 0.177277
0.949127 0.056000 0.176422
0.000000 0.029419 0.147125
0.000000 0.029419 0.147125
0.000000 0.029572 0.147827
0.008575 0.030853 0.149078
0.032349 0.032959 0.150208
0.058777 0.034943 0.151001
0.087433 0.037048 0.151825
0.118408 0.039276 0.152679
0.151947 0.041992 0.153595
0.187958 0.044556 0.154633
0.226105 0.047577 0.155884
0.265991 0.050323 0.156982
0.307343 0.053131 0.158081
0.349579 0.056152 0.159210
0.389984 0.059784 0.161224
0.426941 0.064728 0.163818
0.463776 0.069611 0.166382
0.500244 0.073914 0.169006
0.536255 0.078125 0.171204
0.571655 0.081787 0.173340
0.606293 0.084503 0.174896
0.640076 0.086548 0.176086
0.673035 0.088196 0.176880
0.705292 0.089050 0.177368
0.736877 0.089508 0.177551
0.767761 0.089417 0.177521
0.798126 0.088989 0.177277
0.828033 0.088165 0.176819
0.857513 0.086731 0.176239
0.886719 0.085510 0.175537
0.912842 0.085144 0.175415
0.935577 0.086121 0.176086
0.000000 0.057404 0.147125
0.000000 0.057343 0.147125
0.000000 0.057404 0.147125
0.010925 0.057465 0.147430
0.034424 0.058167 0.148560
0.059906 0.059814 0.149963
0.087280 0.062286 0.151062
0.116760 0.065033 0.152222
0.148407 0.068451 0.153503
0.183136 0.071533 0.154449
0.219971 0.075043 0.155731
0.258453 0.078339 0.156769
0.298370 0.081940 0.157837
0.339294 0.085114 0.158936
0.380737 0.088470 0.160034
0.422455 0.091553 0.161469
0.459259 0.096375 0.164001
0.495758 0.100555 0.166382
0.531799 0.104675 0.168823
0.567169 0.108246 0.170715
0.601837 0.111084 0.172241
0.635620 0.113037 0.173706
0.668579 0.114685 0.174500
0.700867 0.115540 0.175018
0.732452 0.115875 0.175171
0.763367 0.115875 0.175140
0.793762 0.115356 0.174866
0.823669 0.114471 0.174408
0.853210 0.113373 0.173859
0.877502 0.113953 0.174408
0.901062 0.114777 0.175110
0.924347 0.115417 0.175781
0.000000 0.085358 0.147125
0.000000 0.085144 0.147125
0.000000 0.085114 0.147125
0.012054 0.085388 0.147125
0.037445 0.085876 0.147125
0.062683 0.086334 0.148285
0.089630 0.088135 0.149628
0.118591 0.090454 0.150696
0.149414 0.093414 0.151978
0.182526 0.097137 0.153259
0.217957 0.100739 0.154388
0.254181 0.105042 0.156281
0.292206 0.109283 0.157654
0.331970 0.112915 0.158722
0.372437 0.116791 0.159851
0.413300 0.120117 0.161194
0.454041 0.123535 0.162262
0.491669 0.127472 0.164246
0.527710 0.131470 0.166443
0.563110 0.134979 0.168579
0.597748 0.137634 0.170105
0.631592 0.139679 0.171295
0.664581 0.141449 0.172089
0.696899 0.142181 0.172852
0.728485 0.142578 0.173035
0.759430 0.142548 0.172974
0.789825 0.142059 0.172607
0.818237 0.141724 0.172668
0.843323 0.142334 0.173431
0.867767 0.142914 0.174133
0.891632 0.143402 0.174835
0.915283 0.143738 0.175476
0.000000 0.113953 0.147125
0.000000 0.113556 0.147125
0.000000 0.113373 0.147125
0.012878 0.113464 0.147125
0.038452 0.113953 0.147125
0.065613 0.115021 0.147125
0.093170 0.115875 0.147827
0.121674 0.117493 0.149231
0.151978 0.120026 0.150543
0.184814 0.123413 0.151550
0.218536 0.127075 0.153076
0.254913 0.131104 0.154144
0.291626 0.135406 0.155975
0.330017 0.139435 0.157318
0.368866 0.143707 0.158722
0.408051 0.147949 0.160217
0.447052 0.151886 0.162079
0.486633 0.155304 0.163147
0.524323 0.158447 0.164642
0.559753 0.161987 0.166656
0.594391 0.164642 0.168304
0.628235 0.166931 0.169495
0.661285 0.168427 0.170319
0.693573 0.169159 0.170807
0.725189 0.169617 0.170990
0.756165 0.169434 0.170929
0.784119 0.169861 0.171509
0.810486 0.170410 0.172241
0.835876 0.170746 0.173248
0.860626 0.171143 0.173950
0.884857 0.171417 0.174652
0.908905 0.171722 0.175323
0.000000 0.143890 0.147125
0.000000 0.143219 0.147125
0.000000 0.142853 0.147125
0.014130 0.142792 0.147125
0.039948 0.143066 0.147125
0.067322 0.143890 0.147125
0.096161 0.145111 0.147125
0.125854 0.146515 0.147552
0.156342 0.148682 0.148560
0.188019 0.151306 0.150177
0.221649 0.154846 0.151489
0.256958 0.158508 0.152740
0.293335 0.162720 0.154083
0.331207 0.166809 0.155518
0.368713 0.170990 0.157196
0.407440 0.175232 0.158600
0.446075 0.178955 0.160034
0.484222 0.182861 0.161804
0.521545 0.186462 0.163391
0.558563 0.189148 0.164551
0.591980 0.192657 0.167053
0.625793 0.194611 0.168213
0.658813 0.196045 0.168976
0.691132 0.196777 0.169495
0.722443 0.197266 0.169800
0.751160 0.197937 0.170624
0.778809 0.198517 0.171387
0.805420 0.198975 0.172119
0.831177 0.199310 0.173096
0.856293 0.199554 0.173828
0.880798 0.199921 0.174530
0.905151 0.200165 0.175201
0.000000 0.175262 0.147125
0.000000 0.174347 0.147125
0.000000 0.173706 0.147125
0.015686 0.173401 0.147125
0.041992 0.173553 0.147125
0.069763 0.174194 0.147125
0.098724 0.175323 0.147125
0.129211 0.177002 0.147125
0.161469 0.179504 0.147125
0.193359 0.181549 0.148254
0.226410 0.184265 0.149933
0.261597 0.187866 0.150940
0.297028 0.191437 0.152527
0.333862 0.195465 0.153931
0.372070 0.199646 0.155273
0.409454 0.203430 0.156982
0.447784 0.207397 0.158295
0.485718 0.210907 0.159698
0.522858 0.214294 0.161407
0.558929 0.217316 0.162933
0.594727 0.219696 0.163910
0.627380 0.222015 0.165741
0.659027 0.223969 0.167511
0.691193 0.225128 0.168091
0.719788 0.226532 0.169708
0.748657 0.227142 0.170563
0.776489 0.227478 0.171326
0.803345 0.227753 0.172089
0.829376 0.227997 0.173035
0.854797 0.227997 0.173798
0.879639 0.228119 0.174500
0.904266 0.228333 0.175171
0.000000 0.208527 0.147125
0.000000 0.207245 0.147125
0.000000 0.206207 0.147125
0.017578 0.205658 0.147125
0.044464 0.205505 0.147125
0.072693 0.205994 0.147125
0.102051 0.206970 0.147125
0.132782 0.208557 0.147125
0.165070 0.210754 0.147125
0.199097 0.213745 0.147125
0.232758 0.216034 0.148041
0.267365 0.219147 0.149536
0.302765 0.222382 0.150970
0.339508 0.226105 0.152222
0.376587 0.229675 0.153595
0.414948 0.233551 0.154755
0.452118 0.237335 0.156616
0.489929 0.240662 0.157867
0.527008 0.243866 0.159241
0.563019 0.246552 0.160767
0.597534 0.249023 0.162476
0.630249 0.251282 0.164215
0.662079 0.252899 0.165680
0.694397 0.253723 0.166168
0.723236 0.254913 0.167999
0.752411 0.255249 0.168732
0.778931 0.256470 0.170410
0.804321 0.257294 0.172089
0.830597 0.257355 0.173065
0.856323 0.257416 0.173828
0.881378 0.257385 0.174561
0.906250 0.257355 0.175262
0.000000 0.244232 0.147125
0.000000 0.242249 0.147125
0.000000 0.240845 0.147125
0.019836 0.239868 0.147125
0.047455 0.239471 0.147125
0.076294 0.239624 0.147125
0.106140 0.240417 0.147125
0.137238 0.241852 0.147125
0.169830 0.244232 0.147125
0.203888 0.246857 0.147125
0.239471 0.250153 0.147125
0.275574 0.253021 0.147491
0.311157 0.255737 0.148804
0.347198 0.258850 0.150482
0.384338 0.262085 0.151733
0.421631 0.265594 0.153168
0.458801 0.269073 0.154907
0.496582 0.272186 0.156097
0.533722 0.274872 0.157349
0.569336 0.277740 0.158936
0.601898 0.280212 0.161896
0.636108 0.281982 0.162750
0.668121 0.283264 0.164154
0.699219 0.284241 0.165192
0.729523 0.284698 0.166107
0.757416 0.285522 0.167938
0.785858 0.285461 0.168640
0.811615 0.286133 0.170258
0.838318 0.285828 0.170929
0.862488 0.286438 0.172913
0.888031 0.286194 0.173584
0.911316 0.286957 0.175385
0.000000 0.281860 0.147125
0.000000 0.279449 0.147125
0.000000 0.277649 0.147125
0.022186 0.276306 0.147125
0.050812 0.275574 0.147125
0.080292 0.275452 0.147125
0.110779 0.275909 0.147125
0.142334 0.277100 0.147125
0.175293 0.279022 0.147125
0.209595 0.281830 0.147125
0.245300 0.284821 0.147125
0.282196 0.288239 0.147125
0.320099 0.291473 0.147125
0.356384 0.294128 0.148438
0.393707 0.296875 0.149841
0.430176 0.299622 0.151642
0.468445 0.302795 0.152496
0.505219 0.305420 0.154083
0.540039 0.308472 0.157013
0.574951 0.310944 0.159180
0.608917 0.313263 0.161255
0.641968 0.314758 0.162811
0.674103 0.316010 0.164154
0.705292 0.316589 0.165131
0.735718 0.316833 0.165924
0.765350 0.316895 0.166779
0.795227 0.316315 0.166840
0.821350 0.316437 0.168488
0.846527 0.316772 0.170105
0.872925 0.316223 0.170776
0.898895 0.315887 0.171417
0.922546 0.316162 0.173401
0.000000 0.321167 0.147125
0.000000 0.318298 0.147125
0.000000 0.316101 0.147125
0.024780 0.314362 0.147125
0.054077 0.313263 0.147125
0.084381 0.312653 0.147125
0.115631 0.312988 0.147125
0.147736 0.313965 0.147125
0.181213 0.315735 0.147125
0.215851 0.318085 0.147125
0.251740 0.321167 0.147125
0.288757 0.324310 0.147125
0.326782 0.327698 0.147125
0.365692 0.330994 0.147125
0.403229 0.333679 0.148071
0.440857 0.336090 0.149506
0.477905 0.338745 0.151245
0.513336 0.341187 0.154175
0.548004 0.343567 0.157318
0.583038 0.346100 0.159302
0.615845 0.347839 0.162018
0.648987 0.349030 0.163544
0.681183 0.350037 0.164734
0.712555 0.350616 0.165680
0.743042 0.350677 0.166504
0.772827 0.350098 0.167236
0.803619 0.349121 0.166565
0.832153 0.348480 0.167023
0.858307 0.348145 0.168274
0.885132 0.347382 0.168884
0.909576 0.347321 0.170593
0.935547 0.346710 0.171204
0.000000 0.361755 0.147125
0.000000 0.358704 0.147125
0.000000 0.355865 0.147125
0.027161 0.353699 0.147125
0.057434 0.352203 0.147125
0.088440 0.351379 0.147125
0.120300 0.351318 0.147125
0.153168 0.352081 0.147125
0.187042 0.353577 0.147125
0.222168 0.355804 0.147125
0.258362 0.358765 0.147125
0.295624 0.361786 0.147125
0.333801 0.365204 0.147125
0.372772 0.368378 0.147125
0.412292 0.371674 0.147125
0.450073 0.374176 0.149384
0.486359 0.376495 0.152222
0.521973 0.378510 0.155273
0.556854 0.380493 0.157990
0.590790 0.382446 0.160767
0.625061 0.384003 0.162537
0.658356 0.384918 0.163971
0.689270 0.385498 0.165833
0.720642 0.385651 0.166962
0.751312 0.385345 0.167633
0.781097 0.384857 0.168121
0.811981 0.383881 0.167542
0.840637 0.382935 0.167755
0.868713 0.381714 0.167877
0.896332 0.380432 0.168030
0.923126 0.379517 0.168610
0.947571 0.379089 0.170288
0.000000 0.403534 0.147125
0.000000 0.399994 0.147125
0.000427 0.396851 0.147125
0.029572 0.394409 0.147125
0.060608 0.392365 0.147125
0.092377 0.391205 0.147125
0.124908 0.390808 0.147125
0.158295 0.391235 0.147125
0.192780 0.392578 0.147125
0.228333 0.394836 0.147125
0.264954 0.397369 0.147125
0.302460 0.400482 0.147125
0.340820 0.403564 0.147125
0.379578 0.406738 0.148193
0.418243 0.409668 0.150177
0.456970 0.412811 0.151886
0.495483 0.415558 0.153503
0.531311 0.417175 0.156494
0.566345 0.418976 0.159119
0.600464 0.420227 0.161865
0.633575 0.421112 0.164185
0.667023 0.421906 0.165497
0.699493 0.422211 0.166656
0.731018 0.422058 0.167542
0.760193 0.421570 0.168976
0.790070 0.420746 0.169373
0.819366 0.419708 0.169678
0.849762 0.418091 0.168854
0.877991 0.416748 0.168915
0.905823 0.415436 0.168945
0.933319 0.413879 0.168976
0.962097 0.412201 0.168274
0.000000 0.442291 0.150238
0.000000 0.440186 0.148804
0.002075 0.438110 0.147552
0.031677 0.435486 0.147125
0.063446 0.433319 0.147125
0.095917 0.431854 0.147125
0.129150 0.431213 0.147125
0.163269 0.431427 0.147125
0.198212 0.432526 0.147125
0.234131 0.434357 0.147125
0.271118 0.436920 0.147125
0.308929 0.439362 0.148285
0.347198 0.441956 0.150055
0.385803 0.445038 0.151764
0.424530 0.447906 0.153473
0.463257 0.451141 0.155426
0.501770 0.453918 0.157043
0.539917 0.456635 0.158569
0.575073 0.457764 0.161346
0.610565 0.459015 0.163086
0.643799 0.459564 0.165283
0.675964 0.459839 0.167480
0.708557 0.459747 0.168457
0.740204 0.459381 0.169189
0.771088 0.458710 0.169647
0.799438 0.457520 0.170837
0.828796 0.456268 0.171051
0.857544 0.454590 0.171204
0.887634 0.452972 0.170166
0.915588 0.451233 0.170135
0.943268 0.449615 0.170105
0.965759 0.449371 0.173706
0.000000 0.481079 0.153625
0.000000 0.478699 0.152374
0.007385 0.476654 0.151184
0.036865 0.474854 0.150116
0.067963 0.473022 0.149170
0.100342 0.471954 0.148285
0.133698 0.471344 0.147919
0.168152 0.471344 0.147919
0.203735 0.472076 0.148346
0.240143 0.473419 0.149414
0.277527 0.475586 0.150543
0.315338 0.477936 0.151917
0.353760 0.480774 0.153473
0.392242 0.483612 0.155396
0.431061 0.486755 0.157104
0.469696 0.489655 0.158783
0.508240 0.492645 0.160431
0.546387 0.495148 0.162170
0.583984 0.497345 0.163452
0.619629 0.498566 0.165100
0.652985 0.498810 0.167511
0.686646 0.499054 0.168610
0.717896 0.498047 0.170258
0.749573 0.497406 0.170868
0.778931 0.496155 0.172180
0.809021 0.494965 0.172607
0.838409 0.493317 0.172821
0.867310 0.491608 0.172882
0.895660 0.489777 0.172821
0.925598 0.487793 0.171448
0.953339 0.485596 0.171326
0.970215 0.486908 0.179657
0.000000 0.519592 0.157288
0.000000 0.517426 0.155975
0.012878 0.515198 0.154541
0.042664 0.513367 0.153473
0.074036 0.511810 0.152557
0.106415 0.510468 0.151886
0.139893 0.509857 0.151520
0.174408 0.509888 0.151550
0.210114 0.510590 0.151947
0.246613 0.512177 0.152771
0.283905 0.514069 0.153870
0.321808 0.516388 0.155518
0.360138 0.519287 0.157074
0.398743 0.522095 0.158722
0.437469 0.525269 0.160461
0.476135 0.528168 0.162415
0.514618 0.531189 0.164063
0.552734 0.533691 0.165527
0.590363 0.536011 0.167053
0.627289 0.537811 0.168030
0.663391 0.538849 0.168671
0.695801 0.538239 0.170471
0.728577 0.537659 0.171234
0.758942 0.536163 0.172852
0.789917 0.534760 0.173218
0.818542 0.532990 0.174286
0.848053 0.531158 0.174347
0.876953 0.528839 0.174255
0.905426 0.526855 0.174164
0.933563 0.524902 0.174011
0.961426 0.522522 0.173889
0.974609 0.524719 0.186462
0.000000 0.557953 0.160461
0.000000 0.555786 0.159210
0.018188 0.553711 0.157959
0.048340 0.551697 0.156921
0.079803 0.550140 0.155975
0.112335 0.548981 0.155334
0.145874 0.548401 0.154907
0.180450 0.548401 0.154907
0.216064 0.549103 0.155396
0.252655 0.550507 0.156189
0.289978 0.552429 0.157379
0.327911 0.554993 0.158722
0.366272 0.557648 0.160248
0.404877 0.560699 0.162201
0.443604 0.563629 0.163910
0.482300 0.566772 0.165619
0.520721 0.569519 0.167511
0.558838 0.572296 0.168976
0.596375 0.574463 0.170258
0.633331 0.576111 0.171265
0.669403 0.577271 0.171906
0.704620 0.577911 0.172150
0.737488 0.576874 0.173096
0.767914 0.575012 0.174377
0.799042 0.573639 0.174683
0.827667 0.570984 0.175659
0.857269 0.569122 0.175629
0.886353 0.566864 0.175537
0.914917 0.564484 0.175354
0.943207 0.562073 0.175140
0.971130 0.559784 0.174896
0.976929 0.562347 0.194855
0.000000 0.595856 0.163605
0.000000 0.593689 0.162354
0.023132 0.591614 0.161133
0.053497 0.589569 0.159790
0.085083 0.588013 0.158905
0.117737 0.586914 0.158264
0.151398 0.586304 0.157898
0.185822 0.586304 0.157898
0.221497 0.587036 0.158325
0.258026 0.588379 0.159119
0.295471 0.590546 0.160248
0.333374 0.592865 0.161896
0.371765 0.595520 0.163452
0.410431 0.598633 0.165100
0.449127 0.601563 0.167084
0.487823 0.604706 0.168793
0.526306 0.607483 0.170441
0.564362 0.610260 0.171936
0.601929 0.612335 0.173431
0.638794 0.614258 0.174408
0.674896 0.615479 0.175110
0.710052 0.615845 0.175354
0.744446 0.615631 0.175262
0.776398 0.614319 0.175659
0.807617 0.612213 0.175873
0.836334 0.609558 0.176788
0.866058 0.607147 0.176727
0.895203 0.604767 0.176544
0.923920 0.602173 0.176239
0.952301 0.599335 0.175964
0.980347 0.596680 0.175629
0.981079 0.599670 0.202820
0.000000 0.633362 0.166107
0.000000 0.630951 0.164825
0.027344 0.628906 0.163635
0.057922 0.627045 0.162537
0.089539 0.625275 0.161652
0.122284 0.624146 0.160950
0.155853 0.623566 0.160370
0.190582 0.623596 0.160400
0.226196 0.624298 0.161072
0.262909 0.625671 0.161896
0.300171 0.627808 0.163025
0.338196 0.630157 0.164368
0.376617 0.633087 0.165894
0.415161 0.635864 0.167847
0.453979 0.639099 0.169586
0.492493 0.641998 0.171295
0.531036 0.645020 0.173187
0.569031 0.647583 0.174683
0.606628 0.649750 0.175964
0.643524 0.651611 0.176971
0.679565 0.652710 0.177612
0.714691 0.653229 0.177856
0.749023 0.652954 0.177734
0.782532 0.652344 0.177338
0.815338 0.651093 0.176636
0.844208 0.647858 0.177460
0.873993 0.645416 0.177338
0.903290 0.642517 0.177063
0.932098 0.639587 0.176727
0.958710 0.636017 0.177399
0.984344 0.633820 0.180084
0.983307 0.636353 0.211609
0.000000 0.669861 0.168304
0.002106 0.667480 0.167053
0.030670 0.665405 0.165588
0.061340 0.663513 0.164490
0.093079 0.661743 0.163605
0.125854 0.660614 0.162933
0.159485 0.660004 0.162567
0.194214 0.660004 0.162567
0.229950 0.660736 0.163025
0.266510 0.662109 0.163788
0.304016 0.664307 0.164948
0.341858 0.666626 0.166321
0.380341 0.669556 0.168121
0.418854 0.672424 0.169800
0.457611 0.675598 0.171509
0.496338 0.678558 0.173492
0.534698 0.681549 0.175140
0.572845 0.684143 0.176666
0.610260 0.686279 0.177948
0.647186 0.688202 0.179199
0.683197 0.689270 0.179840
0.718323 0.689758 0.180084
0.752655 0.689514 0.180023
0.786133 0.688934 0.179565
0.818939 0.687744 0.178802
0.851013 0.685760 0.177612
0.880920 0.682922 0.177368
0.908600 0.679077 0.178040
0.937500 0.676056 0.177643
0.965973 0.672882 0.177246
0.988373 0.670532 0.184052
0.987213 0.672241 0.218933
0.000000 0.705261 0.169556
0.003998 0.702850 0.168274
0.032898 0.700775 0.167084
0.063507 0.698944 0.165741
0.095367 0.697113 0.164825
0.128143 0.695984 0.164215
0.161896 0.695404 0.163849
0.196625 0.695404 0.163849
0.232239 0.696136 0.164276
0.268890 0.697479 0.165039
0.306335 0.699707 0.166199
0.344330 0.702026 0.167847
0.382599 0.704865 0.169373
0.421234 0.707825 0.171051
0.459991 0.711029 0.173035
0.498718 0.714020 0.174774
0.537170 0.716949 0.176392
0.575256 0.719604 0.177917
0.612579 0.721771 0.179443
0.649475 0.723694 0.180420
0.685547 0.724823 0.181091
0.720642 0.725250 0.181366
0.754974 0.725159 0.181244
0.788422 0.724396 0.180847
0.821228 0.723083 0.180115
0.853333 0.721283 0.179169
0.884949 0.719238 0.177673
0.914429 0.715851 0.177338
0.943451 0.712646 0.176880
0.972076 0.709015 0.176361
0.992310 0.706543 0.186981
0.990997 0.706970 0.225159
0.000000 0.739349 0.170074
0.004730 0.737122 0.168793
0.033722 0.734985 0.167572
0.064453 0.732910 0.166229
0.096252 0.731384 0.165375
0.129028 0.730225 0.164673
0.162750 0.729614 0.164337
0.197510 0.729675 0.164337
0.233215 0.730377 0.164764
0.269806 0.731750 0.165588
0.307220 0.733704 0.166962
0.345154 0.736298 0.168304
0.383545 0.739014 0.169922
0.422333 0.742096 0.171539
0.461060 0.745117 0.173553
0.499664 0.748291 0.175262
0.538116 0.751160 0.176941
0.576141 0.753906 0.178406
0.613647 0.756134 0.179962
0.650513 0.757843 0.180969
0.686493 0.759155 0.181610
0.721588 0.759613 0.181885
0.755859 0.759460 0.181763
0.789337 0.758484 0.181305
0.822113 0.757263 0.180634
0.854279 0.755646 0.179657
0.885895 0.753510 0.178223
0.917114 0.751038 0.176849
0.948029 0.748413 0.175354
0.974915 0.743744 0.175842
0.994293 0.740479 0.188812
0.992859 0.739807 0.230957
0.000000 0.772491 0.169891
0.004425 0.770111 0.168610
0.033325 0.768005 0.167389
0.064240 0.766144 0.166077
0.096008 0.764313 0.165161
0.128754 0.763184 0.164490
0.162445 0.762543 0.164154
0.197113 0.762543 0.164154
0.232788 0.763306 0.164551
0.269562 0.764771 0.165375
0.306976 0.766876 0.166656
0.344910 0.769257 0.168121
0.383270 0.772217 0.169678
0.421844 0.775085 0.171387
0.460510 0.778351 0.173370
0.499359 0.781311 0.175110
0.537689 0.784363 0.176727
0.575745 0.786957 0.178223
0.613220 0.789398 0.179749
0.649994 0.791107 0.180786
0.686218 0.792236 0.181427
0.721283 0.792664 0.181671
0.755524 0.792511 0.181580
0.789032 0.791779 0.181152
0.821777 0.790619 0.180420
0.853882 0.788513 0.179443
0.885498 0.786621 0.178009
0.916748 0.784332 0.176666
0.947662 0.781342 0.175140
0.978363 0.778503 0.173492
0.998108 0.774658 0.187195
0.996460 0.772339 0.233765
0.000000 0.804535 0.169037
0.003143 0.802307 0.167755
0.031952 0.799988 0.166321
0.062622 0.798096 0.165253
0.094391 0.796539 0.164337
0.127136 0.795380 0.163666
0.160828 0.794556 0.163300
0.195709 0.794617 0.163330
0.231384 0.795532 0.163757
0.268005 0.796906 0.164551
0.305389 0.798859 0.165680
0.343292 0.801483 0.167297
0.381683 0.804199 0.168854
0.420288 0.807312 0.170532
0.458984 0.810394 0.172241
0.497620 0.813599 0.174225
0.536041 0.816437 0.175903
0.574249 0.819244 0.177368
0.611725 0.821442 0.178925
0.648621 0.823212 0.179932
0.684601 0.824310 0.180603
0.719757 0.825012 0.180847
0.753998 0.824799 0.180725
0.787476 0.823822 0.180298
0.820221 0.822540 0.179565
0.852417 0.820892 0.178375
0.884033 0.818695 0.177216
0.915253 0.816254 0.175842
0.946167 0.813782 0.174286
0.976868 0.810730 0.172607
1.000000 0.807251 0.183960
0.998260 0.803162 0.235474
0.000000 0.835724 0.167664
0.001160 0.833527 0.166138
0.029510 0.831329 0.164917
0.060181 0.829224 0.163849
0.091949 0.827637 0.162933
0.124542 0.826508 0.162292
0.158325 0.825897 0.161926
0.193054 0.825897 0.161926
0.228607 0.826630 0.162354
0.265320 0.828033 0.163147
0.302765 0.830048 0.164307
0.340576 0.832672 0.165680
0.379089 0.835388 0.167480
0.417725 0.838531 0.169159
0.456329 0.841553 0.170837
0.495087 0.844818 0.172852
0.533569 0.847656 0.174500
0.571503 0.850525 0.175995
0.609070 0.852753 0.177277
0.646027 0.854584 0.178253
0.681915 0.855865 0.179199
0.717102 0.856232 0.179413
0.751495 0.856079 0.179321
0.784851 0.855347 0.178864
0.817688 0.853882 0.177948
0.849823 0.852142 0.176941
0.881470 0.850098 0.175781
0.912750 0.847565 0.174408
0.943665 0.844940 0.172913
0.974365 0.841888 0.171051
1.000000 0.838379 0.179230
1.000000 0.833221 0.235016
0.000000 0.866119 0.165497
0.000000 0.863892 0.164246
0.026428 0.861816 0.163055
0.056946 0.859650 0.161957
0.088440 0.858093 0.161072
0.121124 0.856903 0.160156
0.154816 0.856262 0.159760
0.189514 0.856293 0.159790
0.225189 0.857025 0.160217
0.261810 0.858459 0.161285
0.299042 0.860626 0.162415
0.337036 0.863098 0.163757
0.375397 0.865845 0.165344
0.414063 0.868988 0.167236
0.452850 0.872040 0.168976
0.491547 0.875305 0.170715
0.529785 0.878265 0.172333
0.567902 0.880981 0.174072
0.605469 0.883240 0.175354
0.642395 0.885223 0.176361
0.678497 0.886353 0.177032
0.713684 0.886810 0.177277
0.747833 0.886597 0.177185
0.781372 0.885864 0.176727
0.814240 0.884644 0.176025
0.846436 0.882690 0.175079
0.878052 0.880554 0.173889
0.909302 0.878204 0.172241
0.940247 0.875336 0.170746
0.970947 0.872498 0.169189
1.000000 0.869019 0.170776
1.000000 0.861847 0.233185
0.000000 0.895935 0.163177
0.000000 0.893707 0.161926
0.022400 0.891571 0.160492
0.052826 0.889435 0.159393
0.084259 0.887878 0.158478
0.116974 0.886688 0.157837
0.150482 0.886047 0.157501
0.185211 0.886078 0.157501
0.220734 0.886841 0.157898
0.257446 0.888275 0.158722
0.294647 0.890472 0.159851
0.332672 0.892853 0.161469
0.370880 0.895630 0.163025
0.409637 0.898834 0.164673
0.448273 0.901917 0.166443
0.487000 0.905121 0.168365
0.525574 0.908112 0.170013
0.563568 0.910889 0.171509
0.601166 0.913086 0.173004
0.637970 0.915100 0.174042
0.674133 0.916199 0.174683
0.709229 0.916687 0.174927
0.743683 0.916504 0.174835
0.777100 0.915741 0.174377
0.810028 0.914520 0.173706
0.842133 0.912567 0.172668
0.873871 0.910522 0.171326
0.905151 0.907837 0.169952
0.936066 0.905151 0.168457
0.966766 0.902344 0.166779
0.997375 0.899231 0.164917
1.000000 0.889832 0.228455
0.000000 0.925293 0.160278
0.000000 0.923035 0.159027
0.017853 0.920868 0.157806
0.048035 0.918732 0.156769
0.079529 0.917114 0.155853
0.111969 0.915985 0.155182
0.145569 0.915314 0.154633
0.180206 0.915314 0.154633
0.215851 0.916077 0.155273
0.252258 0.917511 0.156067
0.289703 0.919525 0.157196
0.327667 0.922180 0.158600
0.365906 0.924957 0.160126
0.404541 0.928131 0.162048
0.443359 0.931183 0.163757
0.481873 0.934448 0.165466
