luts/Grading 2 .CUBE
#Created by: Adobe Photoshop Export Color Lookup Plugin
#Copyright: (C) Copyright 2017 rafyA
TITLE "Grading 2.jpg"
#LUT size
LUT_3D_SIZE 8
#data domain
#LUT data points
DOMAIN_MIN 0.000000 0.000000 0.000000
DOMAIN_MAX 0.903226 0.903226 0.903226
0.000000 0.000000 0.000000
0.007935 0.049255 0.021881
0.116058 0.054993 0.026978
0.273621 0.052734 0.025055
0.456238 0.046600 0.019592
0.624115 0.045013 0.018097
0.773285 0.041870 0.015442
0.898682 0.040802 0.014648
0.000031 0.104095 0.040771
0.015289 0.152649 0.029144
0.116333 0.162048 0.034424
0.255615 0.168518 0.033997
0.428619 0.167725 0.027191
0.606110 0.162720 0.019073
0.757965 0.158661 0.015137
0.878571 0.159363 0.017029
0.000031 0.224030 0.060516
0.029236 0.266083 0.037781
0.132965 0.274200 0.042755
0.269440 0.282410 0.042053
0.435059 0.285065 0.035919
0.606781 0.282806 0.028076
0.758209 0.279083 0.023804
0.881287 0.278687 0.025391
0.000031 0.368927 0.072571
0.048553 0.400665 0.048340
0.160767 0.404999 0.052826
0.302582 0.410858 0.050964
0.469177 0.413116 0.044373
0.640503 0.411469 0.036804
0.791473 0.408020 0.033203
0.914520 0.407379 0.035797
0.000031 0.524139 0.081177
0.067383 0.545685 0.059784
0.187927 0.546478 0.063721
0.336609 0.549225 0.061371
0.505829 0.549408 0.061371
0.673645 0.548126 0.059967
0.822601 0.545563 0.057526
0.947174 0.544922 0.057007
0.000031 0.671936 0.089020
0.089600 0.679871 0.081024
0.211884 0.680603 0.081787
0.364349 0.681427 0.082764
0.534241 0.681396 0.082550
0.701569 0.680359 0.081146
0.848755 0.678528 0.079376
0.971893 0.678528 0.079437
0.000031 0.798462 0.091431
0.100250 0.799805 0.091187
0.222931 0.800476 0.092010
0.375458 0.801239 0.092773
0.545654 0.801178 0.092621
0.713135 0.800201 0.091248
0.860260 0.798462 0.089539
0.983307 0.798462 0.089600
0.000031 0.907227 0.090576
0.100281 0.908508 0.090912
0.221710 0.909729 0.092377
0.373108 0.910919 0.093475
0.542664 0.911011 0.093445
0.710693 0.909821 0.091949
0.859192 0.907532 0.089600
0.983429 0.907135 0.089294
0.000031 0.017487 0.021667
0.009674 0.051056 0.109192
0.115417 0.056824 0.120239
0.268250 0.055084 0.127716
0.454742 0.046051 0.126465
0.622498 0.044434 0.124908
0.772217 0.041107 0.121704
0.897797 0.039886 0.120728
0.000031 0.114594 0.089417
0.016998 0.154358 0.116760
0.131836 0.157135 0.119415
0.277618 0.160095 0.122192
0.444641 0.160767 0.122803
0.613098 0.159027 0.120789
0.764465 0.155121 0.117126
0.892181 0.153107 0.115326
0.000031 0.230530 0.128540
0.021210 0.273773 0.120605
0.135742 0.276794 0.123779
0.280884 0.279938 0.126740
0.447632 0.280792 0.127350
0.616241 0.278992 0.125519
0.768188 0.274902 0.121338
0.896698 0.272644 0.119263
0.000031 0.371918 0.158508
0.039795 0.406830 0.139954
0.156464 0.409363 0.142670
0.303436 0.411896 0.145111
0.471008 0.412476 0.145508
0.639587 0.410828 0.143768
0.790649 0.407257 0.140045
0.917725 0.405579 0.138519
0.000031 0.524811 0.180115
0.065826 0.545471 0.166779
0.185394 0.547089 0.168457
0.335266 0.548737 0.169922
0.504059 0.548920 0.170013
0.672241 0.547577 0.168488
0.821320 0.544861 0.165833
0.946533 0.544128 0.165161
0.000031 0.671295 0.195435
0.088959 0.679077 0.189911
0.210907 0.679962 0.190826
0.362793 0.680878 0.191650
0.532623 0.680878 0.191498
0.700226 0.679810 0.190277
0.847748 0.677826 0.188263
0.971222 0.677734 0.188263
0.000031 0.797333 0.200562
0.099365 0.799011 0.200287
0.221924 0.799866 0.201233
0.374115 0.800751 0.202026
0.543945 0.800720 0.201874
0.711761 0.799652 0.200623
0.859253 0.797729 0.198700
0.982635 0.797668 0.198730
0.000031 0.906128 0.199829
0.099426 0.907684 0.199982
0.220490 0.909027 0.201416
0.371460 0.910400 0.202667
0.541168 0.910553 0.202698
0.709229 0.909302 0.201294
0.858215 0.906891 0.198822
0.982727 0.906342 0.198364
0.000031 0.032532 0.067108
0.014130 0.053162 0.205322
0.119690 0.058777 0.218597
0.269806 0.057190 0.232819
0.453796 0.048096 0.238129
0.623474 0.045685 0.236633
0.773193 0.042297 0.233337
0.899078 0.040985 0.232239
0.000031 0.126068 0.149536
0.018036 0.155396 0.228210
0.132813 0.158295 0.230988
0.278503 0.161255 0.233765
0.445496 0.161987 0.234314
0.613892 0.160187 0.232422
0.765381 0.156219 0.228638
0.893280 0.154175 0.226807
0.000031 0.239075 0.203156
0.022247 0.274780 0.232117
0.136719 0.277863 0.235413
0.281708 0.281097 0.238495
0.448395 0.281921 0.239105
0.617035 0.280090 0.237213
0.769135 0.276001 0.232941
0.897858 0.273651 0.230774
0.000031 0.377441 0.248871
0.041077 0.407837 0.251862
0.157471 0.410400 0.254486
0.304260 0.412994 0.257172
0.471802 0.413574 0.257568
0.640381 0.411896 0.255798
0.791565 0.408325 0.251984
0.918976 0.406586 0.250336
0.000031 0.528107 0.282715
0.067047 0.546509 0.279114
0.186310 0.548157 0.280853
0.336090 0.549805 0.282410
0.504852 0.550049 0.282471
0.673096 0.548676 0.280975
0.822540 0.545929 0.278198
0.947601 0.545074 0.277435
0.000031 0.673370 0.304718
0.089996 0.680084 0.302582
0.211823 0.681000 0.303589
0.363647 0.682007 0.304474
0.533508 0.682007 0.304321
0.701080 0.680878 0.303070
0.848785 0.678894 0.300995
0.972321 0.678680 0.300873
0.000031 0.798981 0.312561
0.100647 0.800018 0.313141
0.222870 0.800903 0.314117
0.374939 0.801819 0.314972
0.545013 0.801819 0.314819
0.712616 0.800751 0.313568
0.860260 0.798767 0.311554
0.983765 0.798645 0.311523
0.000031 0.907776 0.311859
0.100677 0.908661 0.312775
0.221680 0.910095 0.314331
0.372559 0.911469 0.315643
0.541992 0.911621 0.315674
0.710083 0.910370 0.314240
0.859161 0.907898 0.311676
0.983856 0.907288 0.311157
0.000031 0.046539 0.143250
0.021729 0.055817 0.318054
0.129608 0.061096 0.328125
0.279877 0.059082 0.345337
0.460144 0.051300 0.354156
0.628174 0.049744 0.352600
0.777588 0.046448 0.349548
0.903259 0.045258 0.348572
0.000031 0.139496 0.226563
0.021667 0.159485 0.344238
0.136902 0.162262 0.346985
0.283173 0.165131 0.349915
0.450104 0.165802 0.350372
0.618500 0.164063 0.348572
0.769836 0.160187 0.344543
0.897430 0.158234 0.342773
0.000031 0.250580 0.288788
0.025940 0.278809 0.348480
0.140778 0.281738 0.351471
0.286133 0.284851 0.354431
0.453003 0.285675 0.355072
0.621613 0.283875 0.353119
0.773621 0.279877 0.349213
0.902252 0.277649 0.346802
0.000031 0.386688 0.346436
0.044830 0.411743 0.368195
0.161560 0.414215 0.370941
0.308716 0.416748 0.373383
0.476410 0.417297 0.373749
0.644989 0.415649 0.372009
0.796021 0.412109 0.368225
0.923157 0.410492 0.366638
0.000031 0.535431 0.391144
0.070923 0.550354 0.395721
0.190552 0.551941 0.397369
0.340546 0.553467 0.398895
0.509735 0.553711 0.398926
0.677704 0.552399 0.397430
0.826904 0.549713 0.394684
0.951813 0.548950 0.394073
0.000031 0.679565 0.418945
0.093903 0.683899 0.419403
0.216034 0.684723 0.420319
0.368378 0.685638 0.421234
0.538147 0.685638 0.420959
0.705688 0.684540 0.419739
0.853119 0.682648 0.417755
0.976501 0.682526 0.417755
0.002777 0.803192 0.429291
0.104553 0.803802 0.430115
0.227081 0.804596 0.430969
0.379425 0.805420 0.431976
0.549622 0.805420 0.431732
0.717163 0.804382 0.430359
0.864594 0.802490 0.428375
0.987946 0.802429 0.428436
0.003235 0.911621 0.428741
0.104614 0.912445 0.429749
0.225891 0.913818 0.431213
0.377106 0.915100 0.432709
0.546600 0.915222 0.432678
0.714935 0.914001 0.431030
0.863556 0.911591 0.428497
0.988037 0.911102 0.428101
0.000031 0.058624 0.241364
0.029541 0.058655 0.443420
0.140869 0.063507 0.447510
0.292236 0.060944 0.465393
0.466705 0.056641 0.472534
0.634399 0.055115 0.470917
0.783752 0.052032 0.468079
0.908783 0.051056 0.467255
0.000031 0.152496 0.318848
0.026794 0.165009 0.462982
0.142639 0.167603 0.465759
0.289185 0.170288 0.468262
0.456604 0.170898 0.468689
0.625031 0.169189 0.466858
0.776062 0.165497 0.463196
0.903290 0.163696 0.461365
0.000031 0.262787 0.384796
0.031067 0.284210 0.467194
0.146515 0.287018 0.470062
0.292450 0.289948 0.472870
0.459564 0.290649 0.473450
0.628174 0.288910 0.471527
0.779846 0.285034 0.467682
0.907837 0.283020 0.465729
0.000031 0.397034 0.451569
0.049835 0.417084 0.487274
0.167145 0.419373 0.489716
0.315033 0.421722 0.491943
0.483002 0.422211 0.492279
0.651489 0.420593 0.490540
0.802124 0.417236 0.487122
0.928772 0.415771 0.485718
0.000031 0.544220 0.504608
0.076050 0.555603 0.514832
0.196411 0.557007 0.516571
0.346954 0.558411 0.517914
0.516052 0.558533 0.517883
0.684174 0.557281 0.516418
0.832794 0.554749 0.513580
0.957306 0.554199 0.513092
0.000031 0.687408 0.537720
0.099060 0.689087 0.538910
0.222015 0.689758 0.539673
0.374573 0.690491 0.540344
0.544739 0.690460 0.540100
0.712158 0.689453 0.538910
0.859192 0.687653 0.537079
0.982269 0.687744 0.537262
0.007416 0.808380 0.548920
0.109741 0.808929 0.549652
0.233063 0.809601 0.550385
0.385895 0.810303 0.550995
0.555969 0.810242 0.550781
0.723694 0.809235 0.549652
0.870697 0.807526 0.547821
0.993469 0.807617 0.548035
0.007843 0.916840 0.548401
0.109772 0.917572 0.549347
0.231567 0.918732 0.550568
0.383209 0.919891 0.551727
0.553192 0.919952 0.551636
0.721191 0.918823 0.550293
0.869446 0.916626 0.547943
0.993591 0.916229 0.547668
0.000031 0.068573 0.345490
0.035370 0.061340 0.570496
0.149475 0.065887 0.569519
0.301422 0.062988 0.587341
0.472229 0.061340 0.591370
0.640045 0.059814 0.589844
0.788879 0.056885 0.586823
0.913788 0.056061 0.586151
0.000031 0.163055 0.418518
0.031189 0.169830 0.582062
0.147461 0.172302 0.584534
0.294739 0.174805 0.586914
0.462311 0.175385 0.587280
0.630463 0.173676 0.585480
0.781281 0.170135 0.582001
0.908173 0.168488 0.580475
0.000031 0.272888 0.486450
0.035461 0.288910 0.586121
0.151367 0.291626 0.588867
0.297729 0.294373 0.591827
0.465057 0.295074 0.592316
0.633606 0.293335 0.590424
0.785065 0.289581 0.586395
0.912750 0.287659 0.584595
0.000031 0.405701 0.560852
0.054260 0.421692 0.606323
0.172241 0.423889 0.608643
0.320313 0.426086 0.610962
0.488464 0.426483 0.611298
0.656952 0.424957 0.609314
0.807404 0.421692 0.605988
0.933685 0.420380 0.604736
0.000031 0.551575 0.620758
0.080536 0.560181 0.634247
0.201355 0.561432 0.635651
0.352295 0.562714 0.636871
0.521820 0.562805 0.636810
0.689606 0.561584 0.635376
0.838074 0.559204 0.632904
0.962463 0.558777 0.632568
0.001984 0.693085 0.657532
0.103851 0.693573 0.658234
0.227051 0.694153 0.658875
0.380157 0.694733 0.659393
0.550262 0.694672 0.659149
0.717590 0.693726 0.658081
0.864349 0.692078 0.656342
0.987122 0.692291 0.656647
0.011536 0.812927 0.668427
0.114319 0.813416 0.669037
0.238068 0.813934 0.669647
0.391266 0.814514 0.670166
0.561737 0.814392 0.669922
0.729126 0.813507 0.668823
0.875793 0.811920 0.667145
0.998596 0.812164 0.667450
0.012207 0.921326 0.667816
0.114349 0.922089 0.668762
0.236725 0.923096 0.669891
0.388855 0.924103 0.670868
0.558716 0.924164 0.670746
0.726837 0.923035 0.669434
0.874847 0.920929 0.667236
0.998688 0.920685 0.667084
0.000031 0.074921 0.446808
0.038055 0.063568 0.687012
0.152924 0.068054 0.684387
0.304352 0.065186 0.704254
0.474701 0.063660 0.708588
0.642365 0.062164 0.707062
0.791412 0.059265 0.704010
0.916168 0.058441 0.703339
0.000031 0.170013 0.516052
0.033386 0.172119 0.699249
0.149872 0.174561 0.701721
0.296936 0.177063 0.704102
0.464600 0.177643 0.704468
0.633026 0.175964 0.702698
0.783813 0.172424 0.699158
0.910675 0.170746 0.697632
0.000031 0.279266 0.586334
0.037720 0.291107 0.703278
0.153778 0.293823 0.706207
0.300171 0.296600 0.709015
0.467560 0.297241 0.709503
0.636169 0.295563 0.707642
0.787567 0.291809 0.703613
0.915253 0.289917 0.701782
0.000031 0.410706 0.668365
0.056580 0.423920 0.723663
0.174408 0.426056 0.725891
0.322815 0.428284 0.728333
0.491028 0.428711 0.728638
0.659485 0.427155 0.726654
0.809692 0.423889 0.723328
0.936157 0.422577 0.722046
0.000031 0.555298 0.735535
0.082886 0.562317 0.751709
0.203796 0.563629 0.753113
0.354797 0.564880 0.754333
0.524109 0.565002 0.754272
0.692139 0.563751 0.752838
0.840485 0.561401 0.750366
0.964722 0.560944 0.750031
0.003845 0.695251 0.775116
0.106018 0.695770 0.775879
0.229462 0.696289 0.776428
0.382416 0.696899 0.777008
0.552765 0.696838 0.776703
0.720123 0.695862 0.775635
0.866852 0.694244 0.773865
0.989410 0.694458 0.774231
0.013733 0.815094 0.786041
0.116699 0.815582 0.786713
0.240295 0.816071 0.787262
0.393768 0.816650 0.787781
0.564087 0.816559 0.787506
0.731628 0.815643 0.786438
0.878326 0.814087 0.784760
1.000000 0.814270 0.785095
0.014191 0.923492 0.785492
0.116699 0.924194 0.786377
0.238953 0.925201 0.787476
0.391113 0.926208 0.788513
0.561249 0.926270 0.788361
0.729156 0.925140 0.787079
0.877136 0.923096 0.784821
1.000000 0.922821 0.784698
0.000031 0.078705 0.543182
0.038727 0.065491 0.792358
0.153076 0.070099 0.791534
0.302887 0.067413 0.814697
0.474457 0.064087 0.824585
0.642212 0.062622 0.822784
0.791473 0.059570 0.819885
0.916504 0.058655 0.819153
0.000031 0.174500 0.608307
0.033752 0.172302 0.815002
0.149994 0.174866 0.817596
0.296844 0.177460 0.820068
0.464355 0.178040 0.820435
0.632813 0.176361 0.818634
0.783813 0.172699 0.815002
0.910980 0.170959 0.813385
0.000031 0.282959 0.682739
0.038025 0.291321 0.819061
0.153870 0.294067 0.821899
0.300018 0.296936 0.825012
0.467285 0.297668 0.825500
0.635986 0.295929 0.823639
0.787567 0.292114 0.819458
0.915497 0.290070 0.817535
0.000031 0.412964 0.772827
0.056915 0.424103 0.839508
0.174530 0.426331 0.841888
0.322632 0.428619 0.844086
0.490753 0.429108 0.844604
0.659271 0.427490 0.842682
0.809753 0.424194 0.839264
0.936401 0.422760 0.837860
0.000031 0.556274 0.848083
0.083160 0.562500 0.867706
0.203827 0.563873 0.869171
0.354645 0.565247 0.870483
0.523895 0.565399 0.870483
0.692017 0.564148 0.869019
0.840576 0.561676 0.866455
0.964996 0.561127 0.865723
0.004211 0.695404 0.891174
0.106262 0.695923 0.891907
0.229492 0.696564 0.892609
0.382263 0.697266 0.893280
0.552460 0.697174 0.892975
0.719971 0.696228 0.891907
0.867004 0.694519 0.890045
0.989746 0.694611 0.890259
0.014069 0.815186 0.902130
0.116974 0.815796 0.902832
0.240356 0.816345 0.903534
0.393555 0.817017 0.904083
0.563782 0.816925 0.903870
0.731476 0.815979 0.902710
0.878448 0.814301 0.900970
1.000000 0.814423 0.901154
0.014526 0.923615 0.901550
0.117004 0.924408 0.902527
0.239044 0.925507 0.903748
0.390930 0.926605 0.904846
0.561005 0.926636 0.904724
0.728973 0.925507 0.903381
0.877197 0.923309 0.901062
1.000000 0.923035 0.900818
