luts/Grading 2 .CUBE
#Created by: Adobe Photoshop Export Color Lookup Plugin
#Copyright: (C) Copyright 2017 rafyA
TITLE "Grading 2.jpg"
#LUT size
LUT_3D_SIZE 5
#data domain
#LUT data points
DOMAIN_MIN 0.000000 0.000000 0.000000
DOMAIN_MAX 0.903226 0.903226 0.903226
0.000000 0.000000 0.000000
0.084869 0.054016 0.026154
0.367340 0.048218 0.020996
0.663666 0.044312 0.017517
0.898682 0.040802 0.014648
0.000031 0.191620 0.056610
0.099304 0.242188 0.039490
0.344025 0.254730 0.037445
0.643402 0.251373 0.024475
0.877075 0.248260 0.022949
0.000031 0.446442 0.076447
0.143341 0.474304 0.057617
0.402740 0.480896 0.052826
0.696716 0.479004 0.047150
0.932587 0.475586 0.043976
0.000031 0.705750 0.090118
0.182648 0.711731 0.085541
0.452820 0.712708 0.086334
0.745300 0.711151 0.084534
0.976105 0.709930 0.083435
0.000031 0.907227 0.090576
0.188568 0.909393 0.091827
0.456726 0.911133 0.093628
0.750031 0.909271 0.091339
0.983429 0.907135 0.089294
0.000031 0.028870 0.053162
0.088043 0.057312 0.189392
0.358673 0.052704 0.209106
0.662445 0.044312 0.207550
0.898529 0.040436 0.204071
0.000031 0.205750 0.171875
0.102478 0.245270 0.203491
0.360382 0.250244 0.208282
0.653809 0.247620 0.205536
0.894745 0.242035 0.200012
0.000031 0.450867 0.242523
0.138947 0.478119 0.238403
0.402039 0.481323 0.241425
0.695740 0.479034 0.238922
0.932434 0.475281 0.235291
0.000031 0.705963 0.280029
0.182159 0.711548 0.278778
0.451599 0.712799 0.279877
0.744385 0.711121 0.277893
0.976044 0.709564 0.276428
0.000031 0.906921 0.283478
0.188141 0.909149 0.285248
0.455536 0.911255 0.287415
0.749054 0.909271 0.284943
0.983337 0.906799 0.282501
0.000031 0.052734 0.191101
0.104980 0.061554 0.383301
0.374939 0.056000 0.411530
0.670746 0.051666 0.411041
0.906128 0.048126 0.407623
0.000031 0.226898 0.319580
0.109741 0.252380 0.407104
0.368744 0.257019 0.411774
0.662109 0.254425 0.408722
0.902344 0.249146 0.403625
0.000031 0.465332 0.425110
0.146332 0.484985 0.442719
0.410339 0.487915 0.445557
0.703979 0.485687 0.443024
0.940033 0.482239 0.439392
0.000031 0.716766 0.482178
0.189667 0.718292 0.483521
0.459991 0.719330 0.484619
0.752625 0.717712 0.482513
0.983551 0.716461 0.481293
0.005585 0.914154 0.488403
0.195618 0.915863 0.490356
0.463867 0.917664 0.492065
0.757324 0.915802 0.489929
0.990875 0.913605 0.487701
0.000031 0.070526 0.371490
0.119324 0.065918 0.596710
0.387695 0.062225 0.620850
0.680420 0.059998 0.618500
0.914764 0.056946 0.615723
0.000031 0.245300 0.493256
0.118042 0.260559 0.615112
0.378296 0.264771 0.619171
0.671967 0.262238 0.616394
0.911041 0.257446 0.611664
0.000031 0.479401 0.622070
0.154816 0.492950 0.650909
0.420197 0.495514 0.653595
0.713470 0.493347 0.650879
0.948639 0.490326 0.647888
0.006165 0.725220 0.691254
0.198517 0.726044 0.692291
0.469757 0.726715 0.692841
0.762085 0.725281 0.691101
0.992126 0.724396 0.690247
0.012878 0.922119 0.697540
0.204254 0.923584 0.699280
0.473755 0.925018 0.700653
0.767090 0.923279 0.698547
0.999512 0.921509 0.696747
0.000031 0.078705 0.543182
0.121552 0.069458 0.788361
0.389038 0.064209 0.824768
0.681793 0.061920 0.822113
0.916504 0.058655 0.819153
0.000031 0.253937 0.661957
0.119843 0.262238 0.818542
0.379456 0.266632 0.822845
0.673218 0.264069 0.820007
0.912750 0.259033 0.815063
0.000031 0.483795 0.814514
0.156586 0.494568 0.854645
0.421387 0.497284 0.857544
0.715057 0.495117 0.854797
0.950653 0.491882 0.851532
0.007721 0.726715 0.895172
0.200043 0.727661 0.896423
0.471008 0.728516 0.897095
0.763672 0.726990 0.895233
0.994141 0.725952 0.894287
0.014526 0.923615 0.901550
0.205719 0.925171 0.903412
0.475006 0.926758 0.904938
0.768402 0.924957 0.902771
1.000000 0.923035 0.900818
