luts/Grading 1.CUBE
#Created by: Adobe Photoshop Export Color Lookup Plugin
#Copyright: (C) Copyright 2017 rafyA
TITLE "Grading 1.jpg"
#LUT size
LUT_3D_SIZE 5
#data domain
#LUT data points
DOMAIN_MIN 0.000000 0.000000 0.000000
DOMAIN_MAX 0.903226 0.903226 0.903226
0.000000 0.000000 0.147095
0.122650 0.011871 0.152802
0.394745 0.032410 0.163696
0.644775 0.059875 0.178802
0.862061 0.060089 0.179016
0.000000 0.208527 0.147125
0.132782 0.208557 0.147125
0.376587 0.229675 0.153595
0.630249 0.251282 0.164215
0.830597 0.257355 0.173065
0.000000 0.481079 0.153625
0.168152 0.471344 0.147919
0.431061 0.486755 0.157104
0.686646 0.499054 0.168610
0.895660 0.489777 0.172821
0.000000 0.739349 0.170074
0.197510 0.729675 0.164337
0.461060 0.745117 0.173553
0.721588 0.759613 0.181885
0.948029 0.748413 0.175354
0.000000 0.954102 0.157379
0.174652 0.944153 0.151672
0.437714 0.960022 0.160675
0.698853 0.974884 0.169037
0.925903 0.963440 0.162567
0.000000 0.000061 0.273529
0.132813 0.000061 0.273529
0.403503 0.015503 0.298706
0.648163 0.048981 0.316193
0.860199 0.054596 0.317352
0.000000 0.208588 0.273529
0.132782 0.208557 0.273499
0.382477 0.235260 0.292847
0.632690 0.260651 0.311829
0.850342 0.260895 0.312256
0.000000 0.477478 0.302887
0.164429 0.467957 0.295685
0.427216 0.483154 0.307251
0.676239 0.497101 0.326965
0.886932 0.495544 0.331390
0.000000 0.735870 0.324158
0.193726 0.725922 0.316559
0.457184 0.741638 0.328400
0.717926 0.755920 0.339508
0.938873 0.742981 0.335266
0.000000 0.950562 0.307556
0.170959 0.940430 0.300110
0.433838 0.956512 0.311737
0.695129 0.971100 0.322601
0.922272 0.959625 0.314270
0.000000 0.002625 0.489777
0.151276 0.000061 0.461823
0.421204 0.009491 0.494934
0.678436 0.030060 0.506561
0.888184 0.037231 0.497833
0.000000 0.220093 0.450714
0.138641 0.214264 0.463989
0.400726 0.229645 0.477844
0.651123 0.254639 0.490479
0.863098 0.259857 0.488678
0.000000 0.483093 0.499939
0.170410 0.473358 0.491089
0.433289 0.488739 0.505157
0.682648 0.513885 0.528320
0.898682 0.514099 0.528503
0.000000 0.741608 0.525269
0.199738 0.731689 0.516510
0.463226 0.747375 0.530487
0.723846 0.761658 0.543762
0.938202 0.750427 0.544373
0.000000 0.956451 0.505554
0.176880 0.946289 0.496613
0.439941 0.962372 0.510742
0.701050 0.976959 0.523621
0.928040 0.965485 0.513519
0.000000 0.008942 0.714264
0.162537 0.000061 0.695435
0.426849 0.015503 0.719910
0.688202 0.031250 0.734009
0.915588 0.019104 0.723145
0.000000 0.228088 0.669098
0.144073 0.219513 0.685791
0.406311 0.234894 0.700867
0.668060 0.248993 0.714996
0.891937 0.242035 0.702820
0.000000 0.488281 0.725403
0.175842 0.478546 0.715698
0.438843 0.493927 0.731079
0.700012 0.507904 0.745331
0.916016 0.507721 0.734344
0.000000 0.746674 0.753204
0.205261 0.737000 0.743469
0.468811 0.752441 0.758942
0.729248 0.766937 0.773254
0.943939 0.767181 0.773468
0.000000 0.961853 0.731537
0.182312 0.951691 0.721832
0.445496 0.967773 0.737213
0.706512 0.982422 0.751465
0.933350 0.970947 0.740448
0.000000 0.004120 0.944366
0.157471 0.000061 0.905060
0.422516 0.010742 0.950195
0.683960 0.027008 0.964600
0.911469 0.014557 0.953308
0.000000 0.225708 0.877655
0.139893 0.215424 0.914703
0.401917 0.231018 0.930511
0.663818 0.245087 0.945129
0.891937 0.234009 0.933838
0.000000 0.484192 0.955872
0.171600 0.474670 0.945862
0.434540 0.489838 0.961731
0.695770 0.503784 0.976318
0.922943 0.493073 0.964813
0.000000 0.742706 0.984436
0.200958 0.732819 0.974426
0.464447 0.748505 0.990234
0.725006 0.762756 1.000000
0.951324 0.751556 0.993591
0.000000 0.957581 0.962158
0.178101 0.947449 0.952148
0.441193 0.963562 0.968048
0.702301 0.978149 0.982666
0.929230 0.966675 0.971313
