luts/Liverpool ● 16.cube
# Created by Adobe Lightroom plugin Export LUT (1.16.0)
# www.johnrellis.com/lightroom/exportlut.htm
# Preset: Liverpool ●
# Color profile: C:\Program Files (x86)\Common Files\Adobe\Color\Profiles\Recommended\sRGB Color Space Profile.icm
LUT_3D_SIZE 6
DOMAIN_MIN 0.0 0.0 0.0
DOMAIN_MAX 1.0 1.0 1.0
0.016449 0.015259 0.017700
0.268894 0.038514 0.004547
0.455818 0.104585 0.000000
0.644617 0.178897 0.000000
0.832639 0.234775 0.000000
1.000000 0.273381 0.000000
0.018189 0.184146 0.077363
0.246983 0.192844 0.051789
0.441810 0.218753 0.000000
0.635676 0.261601 0.000000
0.826658 0.295323 0.000000
1.000000 0.318608 0.000000
0.000000 0.362585 0.165072
0.210605 0.366339 0.153902
0.421668 0.378424 0.117037
0.627192 0.391730 0.013214
0.826108 0.403326 0.000000
1.000000 0.419196 0.000000
0.000000 0.528801 0.237919
0.155978 0.530785 0.230869
0.395697 0.535821 0.211276
0.623560 0.542596 0.169436
0.826505 0.538872 0.084108
1.000000 0.541772 0.000000
0.000000 0.706722 0.307988
0.100893 0.708248 0.303288
0.394171 0.711391 0.288548
0.640528 0.713436 0.260929
0.846189 0.702876 0.218082
0.993256 0.688960 0.134585
0.253391 0.879911 0.449195
0.332433 0.878630 0.442756
0.502312 0.877623 0.431067
0.704097 0.874998 0.410773
0.890074 0.873075 0.375982
1.000000 0.849668 0.330297
0.000000 0.101961 0.235386
0.218692 0.091737 0.218692
0.439094 0.129549 0.174838
0.629999 0.203891 0.133516
0.823606 0.255619 0.004913
1.000000 0.298680 0.000000
0.000000 0.219821 0.243992
0.214267 0.222751 0.234073
0.424201 0.239170 0.204257
0.626154 0.271275 0.153628
0.821836 0.303227 0.045624
1.000000 0.332769 0.000000
0.000000 0.378790 0.269352
0.184451 0.383062 0.261997
0.406653 0.391302 0.240635
0.615534 0.401007 0.199191
0.819181 0.409979 0.126375
1.000000 0.421027 0.000000
0.000000 0.538994 0.306279
0.127138 0.541131 0.300999
0.385779 0.545617 0.285832
0.616449 0.549798 0.256596
0.820676 0.545342 0.206851
0.998444 0.547601 0.088960
0.000000 0.712154 0.359442
0.056886 0.713252 0.355200
0.383673 0.716243 0.342168
0.633845 0.717922 0.319097
0.841703 0.707729 0.283757
0.990387 0.694331 0.221622
0.247807 0.880766 0.484565
0.327825 0.879576 0.478737
0.497749 0.878599 0.468025
0.698116 0.876158 0.448859
0.884245 0.874174 0.417151
1.000000 0.852049 0.373846
0.000000 0.198001 0.398169
0.000000 0.186709 0.393439
0.379980 0.210636 0.377447
0.613916 0.238132 0.345342
0.815122 0.279667 0.301762
0.998413 0.316747 0.242924
0.000000 0.280003 0.401251
0.064149 0.278904 0.396429
0.376135 0.290410 0.384527
0.608087 0.305699 0.353460
0.810361 0.333043 0.313512
0.996399 0.349767 0.245914
0.000000 0.413214 0.412696
0.004303 0.416724 0.409979
0.367193 0.427466 0.401862
0.594720 0.432136 0.373999
0.807004 0.436439 0.334813
0.995911 0.439216 0.267124
0.000000 0.560723 0.432929
0.000000 0.563775 0.431098
0.352209 0.570397 0.423041
0.598352 0.571801 0.402594
0.808438 0.565362 0.365606
0.991913 0.564569 0.305577
0.000000 0.724178 0.462104
0.000000 0.725399 0.462379
0.355901 0.727932 0.462348
0.612421 0.729824 0.443397
0.828519 0.721645 0.414588
0.982452 0.709010 0.363287
0.000000 0.886351 0.542748
0.247074 0.883391 0.553002
0.471168 0.881346 0.553643
0.675349 0.879515 0.536645
0.866789 0.877409 0.510674
0.993683 0.858762 0.473579
0.000000 0.297765 0.553613
0.000000 0.292973 0.551446
0.251194 0.297398 0.545037
0.550164 0.324102 0.530541
0.790433 0.353094 0.498360
0.972045 0.421790 0.484596
0.000000 0.356420 0.557610
0.000000 0.353857 0.554253
0.253910 0.355291 0.549187
0.550195 0.374090 0.535180
0.787259 0.395911 0.503868
0.970916 0.443397 0.485267
0.000000 0.459876 0.564050
0.000000 0.462196 0.562646
0.258091 0.468391 0.557855
0.552575 0.479561 0.548363
0.784634 0.491890 0.522026
0.975433 0.502708 0.488472
0.000000 0.589471 0.582300
0.000000 0.591638 0.581140
0.246189 0.598230 0.578149
0.563867 0.610559 0.573327
0.792813 0.602594 0.537896
0.981476 0.594812 0.485573
0.000000 0.744778 0.609979
0.000000 0.745998 0.607385
0.174197 0.747799 0.600946
0.570336 0.749203 0.599573
0.802670 0.745327 0.576104
0.966918 0.735439 0.529747
0.000000 0.904784 0.609979
0.000000 0.902770 0.603967
0.110842 0.894316 0.630579
0.629877 0.885130 0.660822
0.832242 0.883299 0.639887
0.974273 0.870207 0.610346
0.000000 0.402594 0.728420
0.000000 0.402533 0.727077
0.000000 0.411841 0.723384
0.451240 0.429206 0.715694
0.748989 0.453040 0.703914
0.938781 0.507256 0.670497
0.000000 0.440436 0.730800
0.000000 0.440497 0.728695
0.000000 0.448951 0.725216
0.456428 0.464698 0.717678
0.748043 0.484840 0.705623
0.935851 0.530846 0.674006
0.000000 0.516716 0.735256
0.000000 0.517662 0.734035
0.000000 0.524926 0.729976
0.469703 0.544945 0.723384
0.749111 0.558953 0.712795
0.934203 0.593988 0.688289
0.000000 0.624384 0.746670
0.000000 0.625177 0.745846
0.000000 0.627710 0.742794
0.463355 0.642206 0.735988
0.753902 0.659144 0.727565
0.933867 0.682704 0.709194
0.000000 0.757656 0.763668
0.000000 0.759213 0.763058
0.000000 0.763912 0.761044
0.467689 0.770962 0.757290
0.766629 0.782071 0.754757
0.941711 0.772488 0.716121
0.000000 0.920836 0.800900
0.000000 0.919371 0.796994
0.000000 0.915404 0.788296
0.347448 0.905638 0.774472
0.779171 0.892546 0.782101
0.944518 0.886778 0.762173
0.000000 0.516167 0.896208
0.000000 0.524071 0.895018
0.000000 0.556390 0.890745
0.472206 0.611566 0.882780
0.729580 0.632685 0.876280
0.918822 0.662104 0.868254
0.000000 0.535332 0.897093
0.000000 0.542596 0.895781
0.000000 0.572625 0.891295
0.480781 0.629938 0.882597
0.729397 0.647211 0.875792
0.916167 0.672511 0.867399
0.000000 0.575341 0.900389
0.000000 0.581506 0.899321
0.000000 0.607904 0.895109
0.475196 0.668086 0.885679
0.732937 0.689509 0.878416
0.913420 0.709651 0.870726
0.000000 0.649928 0.906371
0.000000 0.648676 0.906035
0.000000 0.647913 0.904631
0.337835 0.703883 0.894652
0.731930 0.748959 0.884184
0.909667 0.764248 0.876738
0.000000 0.769741 0.911742
0.000000 0.770016 0.911406
0.000000 0.772824 0.910002
0.000000 0.784451 0.905699
0.694453 0.811856 0.895842
0.907134 0.831968 0.886961
0.000000 0.899565 0.916655
0.000000 0.900023 0.916258
0.000000 0.903014 0.914824
0.000000 0.906859 0.911162
0.634882 0.906188 0.906157
0.907744 0.909575 0.902159
