luts/Liverpool ● 16.cube
# Created by Adobe Lightroom plugin Export LUT (1.16.0)
# www.johnrellis.com/lightroom/exportlut.htm
# Preset: Liverpool ●
# Color profile: C:\Program Files (x86)\Common Files\Adobe\Color\Profiles\Recommended\sRGB Color Space Profile.icm
LUT_3D_SIZE 16
DOMAIN_MIN 0.0 0.0 0.0
DOMAIN_MAX 1.0 1.0 1.0
0.016449 0.015259 0.017700
0.101503 0.018463 0.015930
0.190982 0.025391 0.011749
0.268894 0.038514 0.004547
0.334997 0.058381 0.000000
0.396399 0.080812 0.000000
0.455818 0.104585 0.000000
0.516960 0.129854 0.000000
0.579553 0.155123 0.000000
0.644617 0.178897 0.000000
0.708492 0.200565 0.000000
0.770443 0.218845 0.000000
0.832639 0.234775 0.000000
0.894682 0.248600 0.000000
0.954192 0.261357 0.000000
1.000000 0.273381 0.000000
0.018341 0.072145 0.031006
0.105165 0.073945 0.022858
0.187167 0.081117 0.009857
0.263798 0.089876 0.000000
0.330632 0.101106 0.000000
0.392279 0.116121 0.000000
0.453223 0.134249 0.000000
0.514549 0.155337 0.000000
0.577264 0.176638 0.000000
0.642847 0.197360 0.000000
0.706905 0.216220 0.000000
0.769100 0.232486 0.000000
0.831449 0.246464 0.000000
0.893675 0.259129 0.000000
0.953399 0.270787 0.000000
1.000000 0.282048 0.000000
0.018677 0.127321 0.051698
0.101930 0.127657 0.044831
0.180392 0.132784 0.031678
0.257237 0.140322 0.013275
0.324193 0.148135 0.000000
0.387152 0.160250 0.000000
0.448280 0.176059 0.000000
0.510124 0.192569 0.000000
0.573632 0.209262 0.000000
0.640070 0.226444 0.000000
0.704402 0.241733 0.000000
0.767025 0.255039 0.000000
0.829648 0.266728 0.000000
0.892393 0.277379 0.000000
0.952422 0.287175 0.000000
1.000000 0.296880 0.000000
0.018189 0.184146 0.077363
0.097932 0.184604 0.073396
0.170901 0.185489 0.066163
0.246983 0.192844 0.051789
0.317113 0.200534 0.030640
0.379828 0.208194 0.007935
0.441810 0.218753 0.000000
0.504601 0.231754 0.000000
0.569177 0.246220 0.000000
0.635676 0.261601 0.000000
0.699825 0.275639 0.000000
0.762997 0.286473 0.000000
0.826658 0.295323 0.000000
0.889525 0.303441 0.000000
0.949340 0.310887 0.000000
1.000000 0.318608 0.000000
0.015229 0.243137 0.107118
0.092714 0.244083 0.103914
0.164523 0.245701 0.098726
0.235813 0.247959 0.090181
0.307256 0.255680 0.075013
0.374853 0.263157 0.053132
0.437324 0.269688 0.023438
0.501305 0.278782 0.000000
0.567376 0.289189 0.000000
0.635035 0.300694 0.000000
0.699825 0.311101 0.000000
0.763912 0.320958 0.000000
0.828214 0.330663 0.000000
0.891661 0.337591 0.000000
0.951720 0.342840 0.000000
1.000000 0.348211 0.000000
0.002289 0.303288 0.136660
0.081422 0.304417 0.134615
0.153353 0.306004 0.130037
0.225132 0.307652 0.123293
0.293675 0.310063 0.113130
0.363561 0.317479 0.096712
0.431617 0.324346 0.073945
0.496712 0.329931 0.042481
0.562799 0.336706 0.000000
0.631281 0.344518 0.000000
0.696742 0.351171 0.000000
0.762264 0.357977 0.000000
0.827207 0.364721 0.000000
0.890562 0.371862 0.000000
0.950439 0.378271 0.000000
1.000000 0.381964 0.000000
0.000000 0.362585 0.165072
0.058198 0.363531 0.163272
0.137209 0.364813 0.159579
0.210605 0.366339 0.153902
0.281651 0.368322 0.145907
0.350286 0.371038 0.134768
0.421668 0.378424 0.117037
0.492836 0.384314 0.093294
0.559930 0.387640 0.062501
0.627192 0.391730 0.013214
0.693385 0.395331 0.000000
0.760189 0.399359 0.000000
0.826108 0.403326 0.000000
0.889860 0.407965 0.000000
0.949828 0.413428 0.000000
1.000000 0.419196 0.000000
0.000000 0.419837 0.191348
0.016419 0.420905 0.190219
0.115267 0.422278 0.187320
0.193606 0.423804 0.182284
0.267765 0.425208 0.175906
0.339117 0.426886 0.166567
0.409094 0.428840 0.154299
0.483284 0.434943 0.135683
0.556725 0.439521 0.111635
0.624537 0.440620 0.082368
0.691005 0.441810 0.038331
0.757595 0.443519 0.000000
0.824247 0.445502 0.000000
0.888212 0.447974 0.000000
0.948119 0.451179 0.000000
1.000000 0.456062 0.000000
0.000000 0.472816 0.214817
0.000000 0.473304 0.213504
0.087221 0.474403 0.211185
0.174990 0.475837 0.207156
0.252689 0.477455 0.201633
0.327123 0.479194 0.194369
0.400366 0.481117 0.184695
0.474861 0.484749 0.171756
0.550958 0.489479 0.153292
0.624781 0.492042 0.130526
0.692988 0.491615 0.103151
0.760311 0.491554 0.063752
0.825864 0.491859 0.000000
0.889464 0.492744 0.000000
0.949187 0.494575 0.000000
1.000000 0.497353 0.000000
0.000000 0.528801 0.237919
0.000000 0.528985 0.236545
0.044038 0.529656 0.234531
0.155978 0.530785 0.230869
0.239048 0.532403 0.225742
0.318639 0.533898 0.219547
0.395697 0.535821 0.211276
0.471626 0.537835 0.200809
0.549432 0.541466 0.186862
0.623560 0.542596 0.169436
0.693721 0.541558 0.148318
0.761166 0.539940 0.122103
0.826505 0.538872 0.084108
0.889067 0.538842 0.012482
0.947539 0.539879 0.000000
1.000000 0.541772 0.000000
0.000000 0.588098 0.260044
0.000000 0.588281 0.258854
0.000000 0.588708 0.257053
0.133761 0.589532 0.253849
0.228641 0.590692 0.249210
0.312474 0.591882 0.243229
0.393408 0.593072 0.236118
0.472297 0.594324 0.227054
0.550164 0.595605 0.215549
0.628290 0.597467 0.201053
0.698177 0.594568 0.184451
0.763058 0.590204 0.164950
0.827695 0.588128 0.138735
0.889433 0.587335 0.101411
0.946654 0.587610 0.030488
0.998322 0.589014 0.000000
0.000000 0.647944 0.283452
0.000000 0.648035 0.282506
0.000000 0.648371 0.280735
0.113497 0.648859 0.277806
0.220157 0.649592 0.273411
0.307713 0.650538 0.267674
0.392187 0.651179 0.261051
0.473213 0.651942 0.252750
0.553002 0.652735 0.242557
0.631952 0.653407 0.229740
0.708156 0.653132 0.214817
0.772152 0.646906 0.198978
0.830320 0.640162 0.180362
0.889342 0.637598 0.154421
0.945281 0.637263 0.116701
0.995758 0.638209 0.044678
0.000000 0.706722 0.307988
0.000000 0.706966 0.307103
0.000000 0.707546 0.305821
0.100893 0.708248 0.303288
0.217380 0.709285 0.299718
0.308354 0.710353 0.294591
0.394171 0.711391 0.288548
0.477760 0.712154 0.281163
0.559869 0.712917 0.272129
0.640528 0.713436 0.260929
0.719478 0.714076 0.247044
0.789944 0.711513 0.233036
0.846189 0.702876 0.218082
0.895567 0.693812 0.200504
0.945678 0.690028 0.174960
0.993256 0.688960 0.134585
0.000000 0.770260 0.342077
0.000000 0.769223 0.340124
0.000000 0.768948 0.338170
0.128206 0.769131 0.335668
0.233646 0.769680 0.332250
0.322118 0.770291 0.327459
0.405249 0.770932 0.321324
0.488899 0.771145 0.314641
0.571099 0.771267 0.306462
0.651179 0.771023 0.296147
0.728664 0.770871 0.283757
0.802152 0.770687 0.268467
0.861906 0.765103 0.255100
0.907805 0.754116 0.239475
0.947753 0.743191 0.221500
0.989502 0.737972 0.195407
0.000000 0.828122 0.385779
0.038117 0.827298 0.383642
0.127993 0.826841 0.381537
0.207797 0.826749 0.378943
0.284703 0.826810 0.375708
0.360815 0.826841 0.371344
0.436988 0.826932 0.365759
0.514549 0.826596 0.359045
0.592920 0.825895 0.351507
0.669306 0.825010 0.342199
0.743069 0.824063 0.330907
0.812711 0.823270 0.317266
0.876982 0.822965 0.300999
0.923491 0.814755 0.287999
0.960235 0.802823 0.271550
0.992493 0.790372 0.251469
0.253391 0.879911 0.449195
0.266087 0.879271 0.447028
0.292241 0.878874 0.445075
0.332433 0.878630 0.442756
0.382940 0.878386 0.439826
0.440345 0.878019 0.435981
0.502312 0.877623 0.431067
0.567071 0.877043 0.424781
0.635981 0.876066 0.418463
0.704097 0.874998 0.410773
0.770138 0.874022 0.401343
0.832395 0.873259 0.389715
0.890074 0.873075 0.375982
0.943694 0.873381 0.358770
0.978729 0.862730 0.346929
1.000000 0.849668 0.330297
0.000000 0.035828 0.093385
0.089662 0.036500 0.089815
0.186007 0.032715 0.076631
0.263157 0.049775 0.059297
0.325841 0.079866 0.053681
0.387640 0.103059 0.032197
0.448157 0.127260 0.006561
0.509758 0.151522 0.000000
0.572808 0.175509 0.000000
0.638514 0.198917 0.000000
0.703365 0.218997 0.000000
0.766018 0.234592 0.000000
0.828916 0.247562 0.000000
0.891630 0.258946 0.000000
0.951629 0.269596 0.000000
1.000000 0.279820 0.000000
0.000000 0.086366 0.103456
0.090913 0.086397 0.097932
0.177798 0.089784 0.088838
0.255070 0.098238 0.077455
0.322637 0.111452 0.063142
0.385290 0.128115 0.043366
0.446906 0.147646 0.016266
0.508721 0.168795 0.000000
0.572076 0.189975 0.000000
0.638392 0.211276 0.000000
0.702876 0.231022 0.000000
0.765499 0.246464 0.000000
0.828336 0.258244 0.000000
0.891051 0.268711 0.000000
0.951080 0.278416 0.000000
1.000000 0.287877 0.000000
0.004242 0.138460 0.115053
0.091981 0.139712 0.110048
0.173251 0.141604 0.102510
0.249607 0.146487 0.092317
0.318212 0.154208 0.078279
0.382177 0.165621 0.060121
0.444373 0.180026 0.033356
0.506767 0.196506 0.000000
0.571160 0.214176 0.000000
0.637629 0.232578 0.000000
0.701717 0.249454 0.000000
0.764096 0.264683 0.000000
0.827024 0.276585 0.000000
0.890074 0.285649 0.000000
0.950286 0.293828 0.000000
1.000000 0.301976 0.000000
0.011902 0.193973 0.131502
0.091005 0.194553 0.126467
0.166964 0.195163 0.120668
0.242344 0.199680 0.111482
0.311925 0.205386 0.098787
0.376043 0.212528 0.082521
0.439124 0.222568 0.059754
0.502831 0.234684 0.025025
0.568078 0.248356 0.000000
0.634821 0.263005 0.000000
0.699184 0.276341 0.000000
0.762173 0.288945 0.000000
0.825864 0.301061 0.000000
0.888731 0.310399 0.000000
0.948608 0.316655 0.000000
1.000000 0.323095 0.000000
0.005035 0.249912 0.147951
0.085969 0.250614 0.145418
0.159060 0.251804 0.140505
0.231632 0.253361 0.133486
0.302098 0.258946 0.122316
0.369177 0.265141 0.107332
0.432258 0.271550 0.088808
0.497230 0.280125 0.061830
0.563653 0.290074 0.019074
0.631586 0.300999 0.000000
0.696742 0.311131 0.000000
0.761349 0.320775 0.000000
0.826169 0.330297 0.000000
0.889555 0.339788 0.000000
0.949767 0.346990 0.000000
1.000000 0.351598 0.000000
0.000000 0.307958 0.168429
0.073640 0.308629 0.166323
0.148226 0.309850 0.162387
0.220493 0.311376 0.156374
0.290074 0.313664 0.147860
0.359594 0.319982 0.134981
0.427192 0.325811 0.117708
0.492470 0.331060 0.096773
0.559106 0.337652 0.067506
0.627771 0.345159 0.017914
0.693812 0.351751 0.000000
0.759792 0.358282 0.000000
0.825193 0.364691 0.000000
0.888823 0.371405 0.000000
0.948882 0.378851 0.000000
1.000000 0.384436 0.000000
0.000000 0.366278 0.190097
0.048585 0.367071 0.188602
0.132265 0.367956 0.185092
0.206455 0.369451 0.179660
0.278202 0.371099 0.172580
0.347234 0.373602 0.162905
0.418189 0.379950 0.148257
0.488655 0.385168 0.129244
0.556390 0.388617 0.106081
0.623896 0.392523 0.075990
0.690547 0.396033 0.025605
0.757565 0.399847 0.000000
0.823819 0.403632 0.000000
0.887877 0.407935 0.000000
0.948119 0.413062 0.000000
1.000000 0.419562 0.000000
0.000000 0.422370 0.211154
0.004395 0.423133 0.209812
0.109590 0.424048 0.207034
0.189456 0.425360 0.202365
0.264134 0.426703 0.196170
0.335851 0.428351 0.188205
0.406409 0.430426 0.177462
0.480446 0.436225 0.161379
0.553674 0.440345 0.140871
0.621637 0.441474 0.118044
0.688289 0.442573 0.088136
0.755154 0.444251 0.039124
0.822141 0.446082 0.000000
0.886412 0.448341 0.000000
0.946654 0.451301 0.000000
1.000000 0.455787 0.000000
0.000000 0.475685 0.231083
0.000000 0.476112 0.229953
0.080049 0.476783 0.227695
0.171420 0.477913 0.223758
0.249424 0.479377 0.218509
0.324804 0.480934 0.211826
0.398535 0.482856 0.203037
0.473060 0.486275 0.191318
0.549096 0.490639 0.174868
0.622492 0.492866 0.155154
0.690791 0.492439 0.132570
0.758297 0.492378 0.102358
0.824033 0.492622 0.054810
0.888090 0.493568 0.000000
0.948272 0.495338 0.000000
1.000000 0.498024 0.000000
0.000000 0.530816 0.251530
0.000000 0.531060 0.250309
0.030854 0.531640 0.248356
0.151858 0.532647 0.244968
0.236454 0.534234 0.240116
0.316411 0.535668 0.234073
0.393713 0.537316 0.226413
0.470161 0.539117 0.216648
0.547814 0.542535 0.203799
0.621668 0.543359 0.187900
0.691615 0.542168 0.168917
0.759274 0.540581 0.145907
0.824918 0.539635 0.115206
0.887755 0.539696 0.067048
0.946654 0.540764 0.000000
1.000000 0.542718 0.000000
0.000000 0.589685 0.271946
0.000000 0.589929 0.270970
0.000000 0.590387 0.269139
0.128817 0.591119 0.266087
0.225559 0.592126 0.261601
0.310002 0.593225 0.255741
0.391547 0.594141 0.248875
0.470405 0.595239 0.240238
0.548516 0.596460 0.229435
0.626734 0.598199 0.215763
0.696468 0.595148 0.200443
0.761349 0.590723 0.182376
0.826230 0.588769 0.158938
0.888212 0.588006 0.126986
0.945678 0.588373 0.076814
0.997589 0.589868 0.000000
0.000000 0.649012 0.293919
0.000000 0.649104 0.292973
0.000000 0.649348 0.291264
0.107027 0.649805 0.288457
0.216709 0.650507 0.284184
0.305608 0.651484 0.278721
0.390112 0.652186 0.272221
0.471748 0.652857 0.264378
0.551507 0.653498 0.254459
0.630549 0.654047 0.242222
0.706722 0.653712 0.228092
0.770687 0.647395 0.212924
0.828763 0.640528 0.195499
0.887968 0.637995 0.171572
0.943999 0.637659 0.137972
0.994720 0.638636 0.082155
0.000000 0.708003 0.317693
0.000000 0.708217 0.316869
0.000000 0.708675 0.315465
0.095186 0.709285 0.312993
0.214420 0.710201 0.309483
0.306432 0.711208 0.304570
0.392462 0.712306 0.298497
0.476417 0.713008 0.291386
0.558556 0.713680 0.282719
0.639277 0.714168 0.271855
0.718288 0.714717 0.258640
0.788937 0.712184 0.245090
0.845274 0.703578 0.230716
0.894743 0.694575 0.214206
0.945098 0.690883 0.190066
0.992798 0.689937 0.153353
0.000000 0.771023 0.350805
0.000000 0.770077 0.348882
0.000000 0.769802 0.346990
0.125154 0.769986 0.344488
0.231846 0.770504 0.341192
0.320562 0.771023 0.336492
0.403906 0.771603 0.330449
0.487587 0.771756 0.323705
0.569787 0.771786 0.315709
0.649866 0.771511 0.305638
0.727382 0.771298 0.293553
0.800992 0.771115 0.278813
0.861051 0.765682 0.265782
0.907042 0.754726 0.250736
0.947143 0.743893 0.233433
0.989044 0.738857 0.208621
0.000000 0.828519 0.393530
0.036988 0.827756 0.391608
0.127504 0.827359 0.389563
0.207370 0.827237 0.387030
0.284276 0.827298 0.383825
0.360113 0.827329 0.379461
0.436225 0.827359 0.373846
0.513542 0.826993 0.367071
0.591760 0.826261 0.359625
0.668147 0.825315 0.350408
0.741909 0.824369 0.339300
0.811612 0.823545 0.326055
0.875914 0.823239 0.310155
0.922728 0.815183 0.297307
0.959564 0.803342 0.281224
0.991943 0.790982 0.261784
0.253147 0.880125 0.455695
0.266117 0.879515 0.453681
0.292302 0.879118 0.451728
0.332586 0.878843 0.449470
0.382788 0.878599 0.446632
0.440131 0.878294 0.442817
0.501976 0.877867 0.437934
0.566583 0.877287 0.431739
0.635096 0.876310 0.425360
0.703182 0.875212 0.417670
0.769131 0.874205 0.408301
0.831357 0.873411 0.396826
0.889036 0.873198 0.383215
0.942718 0.873472 0.366186
0.978027 0.863035 0.354345
1.000000 0.850004 0.337896
0.000000 0.069062 0.170077
0.036378 0.061707 0.166110
0.157046 0.060883 0.157351
0.252537 0.058839 0.144198
0.322881 0.071382 0.123751
0.382666 0.102327 0.113466
0.442145 0.130831 0.104250
0.503410 0.155947 0.088960
0.567681 0.177737 0.059937
0.634424 0.199557 0.014588
0.699763 0.220066 0.000000
0.762722 0.238651 0.000000
0.825834 0.255344 0.000000
0.888853 0.271427 0.000000
0.949615 0.281559 0.000000
1.000000 0.289311 0.000000
0.000000 0.108156 0.172763
0.051118 0.105837 0.168673
0.157168 0.105196 0.161868
0.244419 0.106752 0.150332
0.314305 0.117525 0.137209
0.377386 0.135439 0.127504
0.439521 0.154238 0.114260
0.502556 0.172946 0.094087
0.567407 0.192416 0.065553
0.634546 0.212161 0.020569
0.699672 0.231052 0.000000
0.762600 0.248051 0.000000
0.825681 0.263676 0.000000
0.888579 0.278813 0.000000
0.949126 0.289677 0.000000
1.000000 0.296849 0.000000
0.000000 0.154513 0.178470
0.060395 0.153750 0.174777
0.156771 0.154330 0.169558
0.236484 0.157443 0.161166
0.307683 0.163943 0.151034
0.373693 0.173739 0.138491
0.437476 0.186374 0.122621
0.501030 0.200839 0.102510
0.566796 0.217014 0.076173
0.633875 0.233890 0.034699
0.698573 0.249882 0.000000
0.761624 0.264530 0.000000
0.825040 0.278294 0.000000
0.888029 0.291814 0.000000
0.948455 0.303777 0.000000
1.000000 0.310063 0.000000
0.000000 0.203677 0.185153
0.072847 0.204776 0.183688
0.154177 0.206546 0.179416
0.231601 0.208988 0.172519
0.301976 0.213230 0.162783
0.368353 0.219699 0.150576
0.432807 0.228397 0.135073
0.497810 0.239414 0.116182
0.563867 0.251713 0.091371
0.631312 0.265019 0.055756
0.696223 0.277470 0.001434
0.759792 0.289403 0.000000
0.824277 0.300816 0.000000
0.887266 0.311925 0.000000
0.947021 0.323217 0.000000
1.000000 0.329931 0.000000
0.000000 0.257939 0.198154
0.070802 0.259068 0.195590
0.147951 0.260502 0.191165
0.222934 0.262242 0.185275
0.294316 0.266117 0.176852
0.361425 0.271000 0.165255
0.426123 0.277012 0.151461
0.492256 0.284794 0.133669
0.559503 0.293828 0.111055
0.627893 0.303838 0.081270
0.693751 0.313115 0.035248
0.759152 0.322179 0.000000
0.824613 0.330785 0.000000
0.888518 0.339483 0.000000
0.948943 0.348577 0.000000
1.000000 0.357336 0.000000
0.000000 0.314580 0.211246
0.054810 0.315587 0.208927
0.137758 0.316747 0.205631
0.211978 0.318517 0.200290
0.283574 0.320592 0.193545
0.353643 0.325505 0.183261
0.421271 0.330419 0.169741
0.487465 0.335271 0.154025
0.555230 0.341466 0.134340
0.624353 0.348272 0.108797
0.691066 0.354345 0.074891
0.757504 0.360449 0.016907
0.823514 0.366186 0.000000
0.887633 0.372198 0.000000
0.948241 0.378698 0.000000
1.000000 0.386511 0.000000
0.000000 0.371649 0.225834
0.022644 0.372656 0.224338
0.120607 0.373571 0.221469
0.198367 0.375097 0.216831
0.271794 0.376745 0.210819
0.342473 0.379095 0.202518
0.413672 0.384436 0.190829
0.484169 0.388800 0.175692
0.552422 0.391882 0.158145
0.620294 0.395575 0.137514
0.687831 0.398901 0.110719
0.755367 0.402319 0.071077
0.821958 0.405707 0.000000
0.886442 0.409522 0.000000
0.947265 0.413886 0.000000
1.000000 0.419562 0.000000
0.000000 0.426947 0.240879
0.000000 0.427741 0.239963
0.096284 0.428595 0.237583
0.181704 0.429877 0.233646
0.258244 0.431281 0.228183
0.331609 0.432807 0.221103
0.403052 0.434760 0.211978
0.477058 0.439704 0.198764
0.550164 0.443214 0.182101
0.618463 0.444282 0.164309
0.685542 0.445258 0.142855
0.753140 0.446754 0.114229
0.820371 0.448432 0.069856
0.884947 0.450324 0.000000
0.945556 0.452888 0.000000
1.000000 0.456641 0.000000
0.000000 0.479591 0.256962
0.000000 0.479896 0.255985
0.064118 0.480598 0.253910
0.163760 0.481697 0.250462
0.243717 0.483253 0.245518
0.320775 0.484718 0.239536
0.395422 0.486580 0.231968
0.470314 0.489509 0.221897
0.546471 0.493568 0.207797
0.619684 0.495338 0.191379
0.688319 0.494911 0.173220
0.756161 0.494728 0.150546
0.822080 0.494942 0.120119
0.886717 0.495735 0.070527
0.947173 0.497292 0.000000
1.000000 0.499641 0.000000
0.000000 0.534112 0.274174
0.000000 0.534386 0.273198
0.006104 0.534936 0.271275
0.143404 0.535973 0.268254
0.231479 0.537530 0.263798
0.312352 0.539055 0.258183
0.390814 0.540612 0.251225
0.467811 0.542290 0.242618
0.545830 0.545342 0.231205
0.619654 0.545830 0.217288
0.689418 0.544305 0.200961
0.757351 0.542718 0.181643
0.823209 0.541802 0.157198
0.886290 0.541833 0.124300
0.945586 0.542809 0.069581
0.999817 0.544579 0.000000
0.000000 0.592370 0.292210
0.000000 0.592676 0.291264
0.000000 0.593072 0.289647
0.118563 0.593774 0.286656
0.220127 0.594720 0.282658
0.305608 0.595911 0.277073
0.388251 0.596826 0.270817
0.468116 0.597803 0.262882
0.546532 0.598901 0.253025
0.624933 0.600488 0.240848
0.694759 0.597223 0.226871
0.759487 0.592676 0.210971
0.824704 0.590753 0.190585
0.886870 0.589990 0.164279
0.944518 0.590326 0.127504
0.996612 0.591791 0.061524
0.000000 0.651026 0.312139
0.000000 0.651179 0.311254
0.000000 0.651362 0.309606
0.094728 0.651850 0.306920
0.211307 0.652552 0.303014
0.301610 0.653468 0.297826
0.386847 0.654261 0.291691
0.469154 0.654841 0.284245
0.549340 0.655482 0.275029
0.628656 0.655940 0.263767
0.705135 0.655543 0.250858
0.769162 0.649165 0.236820
0.827237 0.642206 0.220951
0.886717 0.639826 0.199710
0.942870 0.639429 0.170993
0.993713 0.640345 0.128786
0.000000 0.709682 0.334325
0.000000 0.709865 0.333562
0.000000 0.710292 0.332158
0.082399 0.710903 0.329870
0.208988 0.711788 0.326421
0.302770 0.712764 0.321843
0.388922 0.713863 0.315923
0.473640 0.714534 0.309239
0.556207 0.715206 0.300999
0.637263 0.715633 0.290776
0.716457 0.716152 0.278630
0.787533 0.713771 0.265843
0.843931 0.705135 0.252415
0.893400 0.696162 0.237064
0.944060 0.692592 0.214969
0.991882 0.691585 0.182712
0.000000 0.772061 0.365911
0.000000 0.771176 0.364111
0.000000 0.770932 0.362310
0.117647 0.771054 0.359838
0.227909 0.771572 0.356664
0.317632 0.772030 0.352117
0.401434 0.772610 0.346288
0.484901 0.772824 0.339788
0.567529 0.772824 0.332128
0.647822 0.772549 0.322515
0.725490 0.772305 0.311070
0.799130 0.772091 0.297185
0.859648 0.766873 0.284672
0.905730 0.756008 0.270298
0.945922 0.745205 0.253727
0.988159 0.740352 0.230503
0.000000 0.829068 0.407294
0.028901 0.828305 0.405310
0.123873 0.827939 0.403326
0.204746 0.827848 0.400916
0.282200 0.827878 0.397742
0.358282 0.827939 0.393500
0.434485 0.827939 0.388098
0.511284 0.827665 0.381415
0.589715 0.826902 0.374090
0.666133 0.825925 0.365118
0.739956 0.824979 0.354467
0.809720 0.824125 0.341650
0.874113 0.823819 0.326513
0.921416 0.816129 0.313970
0.958373 0.804349 0.298222
0.990845 0.792081 0.279484
0.251621 0.880369 0.467018
0.264347 0.879789 0.465034
0.290806 0.879393 0.463111
0.331121 0.879118 0.460945
0.381598 0.878904 0.458259
0.438727 0.878599 0.454566
0.500542 0.878172 0.449805
0.565087 0.877592 0.443732
0.633265 0.876646 0.437385
0.701350 0.875578 0.429938
0.767300 0.874571 0.420935
0.829465 0.873808 0.409857
0.887205 0.873564 0.396612
0.940917 0.873838 0.380133
0.976745 0.863737 0.368231
1.000000 0.850797 0.352056
0.000000 0.101961 0.235386
0.000000 0.093690 0.232975
0.107118 0.086885 0.227329
0.218692 0.091737 0.218692
0.307164 0.097627 0.207919
0.375921 0.109163 0.190402
0.439094 0.129549 0.174838
0.500664 0.155245 0.162387
0.563989 0.180087 0.148806
0.629999 0.203891 0.133516
0.695644 0.223423 0.109377
0.759487 0.240391 0.072663
0.823606 0.255619 0.004913
0.887510 0.270176 0.000000
0.948425 0.284245 0.000000
1.000000 0.298680 0.000000
0.000000 0.134615 0.236179
0.000000 0.130129 0.233188
0.115114 0.125612 0.228855
0.217685 0.128908 0.221530
0.301335 0.133333 0.211276
0.371496 0.141299 0.196719
0.435248 0.157809 0.182864
0.497841 0.177462 0.170199
0.562493 0.198245 0.156558
0.629511 0.218051 0.138979
0.695338 0.234897 0.112947
0.759213 0.250370 0.077302
0.823453 0.264408 0.011841
0.887175 0.277928 0.000000
0.948028 0.291020 0.000000
1.000000 0.304906 0.000000
0.000000 0.172549 0.238682
0.000000 0.171786 0.235904
0.125460 0.171603 0.232120
0.216800 0.173068 0.226871
0.295872 0.176791 0.217716
0.365179 0.183993 0.205936
0.429877 0.196109 0.194339
0.494179 0.210697 0.181888
0.560693 0.225010 0.165499
0.628809 0.239811 0.144869
0.694240 0.254215 0.119600
0.758114 0.267521 0.085603
0.822629 0.279820 0.024750
0.886595 0.291630 0.000000
0.947539 0.303471 0.000000
1.000000 0.315892 0.000000
0.000000 0.219821 0.243992
0.000000 0.219638 0.241794
0.125887 0.220279 0.238590
0.214267 0.222751 0.234073
0.288731 0.225986 0.226017
0.357671 0.231479 0.216190
0.424201 0.239170 0.204257
0.490669 0.248844 0.190249
0.557794 0.259403 0.173709
0.626154 0.271275 0.153628
0.691798 0.282597 0.129824
0.756435 0.293187 0.098146
0.821836 0.303227 0.045624
0.885618 0.312871 0.000000
0.946105 0.322454 0.000000
1.000000 0.332769 0.000000
0.000000 0.267765 0.247501
0.015869 0.269078 0.246586
0.125002 0.271092 0.244724
0.207218 0.273899 0.241245
0.281498 0.276860 0.234623
0.350500 0.280674 0.225437
0.417853 0.286168 0.214145
0.485359 0.293126 0.200748
0.553613 0.301152 0.184909
0.622827 0.310124 0.166110
0.689357 0.318456 0.144198
0.755764 0.326635 0.115145
0.822049 0.334264 0.071992
0.886687 0.341588 0.000000
0.947845 0.349126 0.000000
1.000000 0.357305 0.000000
0.000000 0.323186 0.257603
0.012818 0.324224 0.256992
0.117128 0.325872 0.254856
0.197513 0.328099 0.250919
0.272465 0.330297 0.244907
0.344121 0.334081 0.237003
0.412726 0.337957 0.226322
0.480171 0.342473 0.213993
0.549584 0.348089 0.198947
0.619562 0.354284 0.181399
0.686793 0.359869 0.161288
0.754116 0.365240 0.135164
0.820768 0.370245 0.098817
0.885618 0.375250 0.031647
0.946838 0.380529 0.000000
1.000000 0.386755 0.000000
0.000000 0.378790 0.269352
0.000000 0.379767 0.268162
0.098634 0.381262 0.265782
0.184451 0.383062 0.261997
0.260929 0.384955 0.256687
0.334447 0.387091 0.249943
0.406653 0.391302 0.240635
0.477424 0.394690 0.228550
0.546349 0.397589 0.214908
0.615534 0.401007 0.199191
0.683803 0.404059 0.180484
0.752010 0.407050 0.157198
0.819181 0.409979 0.126375
