luts/Lorne ● 16.cube
# Created by Adobe Lightroom plugin Export LUT (1.16.0)
# www.johnrellis.com/lightroom/exportlut.htm
# Preset: Lorne ●
# Color profile: C:\Program Files (x86)\Common Files\Adobe\Color\Profiles\Recommended\sRGB Color Space Profile.icm
LUT_3D_SIZE 6
DOMAIN_MIN 0.0 0.0 0.0
DOMAIN_MAX 1.0 1.0 1.0
0.071504 0.053315 0.037537
0.316564 0.057954 0.017700
0.522881 0.094911 0.000000
0.724666 0.154269 0.000000
0.914336 0.199527 0.000000
1.000000 0.233219 0.000000
0.119448 0.204257 0.057893
0.308812 0.208865 0.028443
0.517144 0.218051 0.000000
0.721370 0.245762 0.000000
0.913146 0.269169 0.000000
1.000000 0.287114 0.000000
0.195804 0.364660 0.113375
0.315526 0.365667 0.099458
0.509453 0.372351 0.040589
0.718868 0.382208 0.000000
0.913725 0.388098 0.000000
1.000000 0.399969 0.000000
0.247562 0.525750 0.188632
0.338476 0.527031 0.180056
0.511406 0.531060 0.151431
0.717311 0.538079 0.076020
0.915465 0.536126 0.000000
1.000000 0.536065 0.000000
0.278202 0.715816 0.277897
0.363165 0.716365 0.271794
0.533623 0.717922 0.252201
0.740414 0.719875 0.210056
0.927520 0.708644 0.134829
1.000000 0.695277 0.000000
0.452674 0.904479 0.443885
0.505028 0.904295 0.439796
0.631373 0.903716 0.426734
0.797330 0.903166 0.399542
0.961395 0.905119 0.347295
1.000000 0.873320 0.262364
0.000000 0.119631 0.186435
0.280735 0.115572 0.173678
0.505852 0.141146 0.132998
0.710231 0.194583 0.078584
0.906920 0.231174 0.000000
1.000000 0.263920 0.000000
0.107210 0.233921 0.195285
0.290166 0.234440 0.184573
0.499336 0.242679 0.155581
0.709712 0.262669 0.093996
0.907347 0.283513 0.000000
1.000000 0.305516 0.000000
0.197940 0.378241 0.223270
0.308934 0.379553 0.214115
0.499672 0.384619 0.189334
0.709163 0.393347 0.136568
0.908476 0.398291 0.000000
1.000000 0.404517 0.000000
0.236301 0.534905 0.269139
0.328679 0.536217 0.262272
0.504814 0.539849 0.243259
0.710872 0.545373 0.203769
0.910521 0.543938 0.127474
1.000000 0.543572 0.000000
0.263005 0.720027 0.337316
0.351598 0.720607 0.332372
0.525261 0.722011 0.316625
0.733577 0.723873 0.284428
0.922728 0.713466 0.233219
1.000000 0.701015 0.118257
0.447791 0.905241 0.479835
0.500084 0.905089 0.476173
0.626062 0.904601 0.464515
0.791562 0.904204 0.440528
0.955474 0.906279 0.395300
1.000000 0.876402 0.322240
0.000000 0.208713 0.365789
0.170504 0.201663 0.361028
0.461616 0.219364 0.344427
0.693233 0.234531 0.310979
0.895933 0.267918 0.264134
1.000000 0.297337 0.186221
0.000000 0.287266 0.370459
0.226200 0.286595 0.365850
0.463081 0.291203 0.351202
0.689448 0.298985 0.320104
0.893645 0.322210 0.278691
1.000000 0.334630 0.190890
0.089143 0.411353 0.387366
0.259129 0.411933 0.382666
0.468605 0.415076 0.369329
0.684779 0.422522 0.345373
0.893919 0.428717 0.304234
1.000000 0.430060 0.214969
0.183017 0.556970 0.415595
0.291295 0.558526 0.412055
0.477699 0.562066 0.398871
0.691493 0.565393 0.376959
0.897459 0.565301 0.339788
1.000000 0.564050 0.260685
0.148318 0.732021 0.453162
0.291844 0.732052 0.452003
0.500664 0.732387 0.448463
0.712306 0.734340 0.426490
0.908415 0.727352 0.391943
1.000000 0.717311 0.330053
0.339605 0.911131 0.539239
0.449866 0.909026 0.550378
0.601678 0.907591 0.549584
0.771115 0.907408 0.530968
0.937957 0.909636 0.496956
1.000000 0.884947 0.443458
0.000000 0.304509 0.547326
0.000000 0.300633 0.544884
0.374945 0.303288 0.536431
0.642451 0.317571 0.520073
0.871183 0.341741 0.488869
1.000000 0.419196 0.476967
0.000000 0.359777 0.549889
0.000000 0.357794 0.547448
0.385504 0.356085 0.539818
0.643854 0.365362 0.524193
0.869108 0.386328 0.495003
1.000000 0.447059 0.481727
0.000000 0.461036 0.559136
0.111086 0.461646 0.556634
0.404852 0.463233 0.549371
0.647730 0.468879 0.535119
0.866880 0.486732 0.513085
1.000000 0.506462 0.483467
0.000000 0.590539 0.575769
0.158480 0.591394 0.573449
0.415991 0.594324 0.566644
0.654780 0.599512 0.553124
0.876402 0.603143 0.528527
1.000000 0.600519 0.477852
0.000000 0.754116 0.605676
0.000000 0.754025 0.602014
0.396796 0.753048 0.592065
0.670527 0.751644 0.583276
0.882353 0.751003 0.560693
1.000000 0.747158 0.520073
0.000000 0.931640 0.608362
0.000000 0.930144 0.603479
0.392920 0.921172 0.626581
0.727169 0.913451 0.652064
0.904875 0.915801 0.628107
1.000000 0.899565 0.590051
0.000000 0.402991 0.728634
0.000000 0.403388 0.727199
0.233921 0.410590 0.722469
0.578119 0.427283 0.713375
0.841489 0.448646 0.699214
1.000000 0.509911 0.666743
0.000000 0.440345 0.730068
0.000000 0.440894 0.728634
0.257206 0.447364 0.723995
0.584649 0.463752 0.714900
0.840970 0.482551 0.700954
1.000000 0.537194 0.671565
0.000000 0.518883 0.735683
0.000000 0.519646 0.734279
0.276432 0.526452 0.729641
0.599420 0.547631 0.719844
0.840513 0.559472 0.706447
1.000000 0.601984 0.683803
0.000000 0.630793 0.746487
0.000000 0.631281 0.745266
0.237552 0.633692 0.741360
0.594293 0.647333 0.731807
0.840787 0.660700 0.717433
1.000000 0.693172 0.702693
0.000000 0.767880 0.762692
0.000000 0.769100 0.761563
0.242618 0.772824 0.757839
0.596033 0.778286 0.750332
0.841245 0.784329 0.736995
1.000000 0.788357 0.709499
0.000000 0.951019 0.813657
0.000000 0.949767 0.809445
0.000000 0.944976 0.797635
0.499153 0.935332 0.778134
0.850553 0.925597 0.781979
1.000000 0.920775 0.755367
0.000000 0.505455 0.922240
0.000000 0.514183 0.920928
0.063569 0.550652 0.916106
0.604517 0.618280 0.906615
0.822263 0.641718 0.899413
0.989837 0.673579 0.889860
0.000000 0.525689 0.923674
0.000000 0.533898 0.922362
0.033204 0.568414 0.917571
0.613245 0.639124 0.907500
0.823514 0.659632 0.900572
0.988098 0.688350 0.891234
0.000000 0.568139 0.929168
0.000000 0.574975 0.927886
0.000000 0.605035 0.923217
0.602930 0.674800 0.912596
0.824399 0.702846 0.904631
0.983978 0.725246 0.895720
0.000000 0.646967 0.938537
0.000000 0.645655 0.938109
0.000000 0.645075 0.936370
0.496925 0.709865 0.925322
0.819730 0.764065 0.913481
0.978027 0.781643 0.904692
0.000000 0.773098 0.949035
0.000000 0.773281 0.948577
0.000000 0.775967 0.946838
0.186038 0.790494 0.941680
0.778897 0.827695 0.930358
0.970062 0.855619 0.919188
0.000000 0.915343 0.960143
0.000000 0.915923 0.959777
0.000000 0.919615 0.957977
0.000000 0.927642 0.953368
0.711299 0.936370 0.947021
0.958984 0.949096 0.941161
