luts/Lorne ● 16.cube
# Created by Adobe Lightroom plugin Export LUT (1.16.0)
# www.johnrellis.com/lightroom/exportlut.htm
# Preset: Lorne ●
# Color profile: C:\Program Files (x86)\Common Files\Adobe\Color\Profiles\Recommended\sRGB Color Space Profile.icm
LUT_3D_SIZE 16
DOMAIN_MIN 0.0 0.0 0.0
DOMAIN_MAX 1.0 1.0 1.0
0.071504 0.053315 0.037537
0.147189 0.053285 0.034241
0.235630 0.053864 0.027497
0.316564 0.057954 0.017700
0.389197 0.066316 0.005066
0.456825 0.078737 0.000000
0.522881 0.094911 0.000000
0.589044 0.113710 0.000000
0.656123 0.134493 0.000000
0.724666 0.154269 0.000000
0.789883 0.172091 0.000000
0.852354 0.187015 0.000000
0.914336 0.199527 0.000000
0.974212 0.210849 0.000000
1.000000 0.221805 0.000000
1.000000 0.233219 0.000000
0.078889 0.102327 0.039673
0.156039 0.101991 0.032532
0.237400 0.102968 0.020142
0.315831 0.105135 0.006928
0.387976 0.108827 0.000000
0.455390 0.116579 0.000000
0.521691 0.127596 0.000000
0.587732 0.142641 0.000000
0.655146 0.158602 0.000000
0.723873 0.175082 0.000000
0.789151 0.190158 0.000000
0.851926 0.202701 0.000000
0.914061 0.213352 0.000000
0.974060 0.223301 0.000000
1.000000 0.233005 0.000000
1.000000 0.243473 0.000000
0.096681 0.152377 0.046906
0.159060 0.152377 0.041077
0.235355 0.154635 0.028321
0.314916 0.156039 0.010193
0.385931 0.157443 0.000000
0.453315 0.162722 0.000000
0.519432 0.171817 0.000000
0.585931 0.182589 0.000000
0.653651 0.194461 0.000000
0.722652 0.207126 0.000000
0.788022 0.218631 0.000000
0.851164 0.228183 0.000000
0.913634 0.236637 0.000000
0.973816 0.244358 0.000000
1.000000 0.252262 0.000000
1.000000 0.261143 0.000000
0.119448 0.204257 0.057893
0.169711 0.204532 0.053681
0.233005 0.204898 0.045228
0.308812 0.208865 0.028443
0.382971 0.211307 0.007904
0.450538 0.213413 0.000000
0.517144 0.218051 0.000000
0.584161 0.225345 0.000000
0.652369 0.234775 0.000000
0.721370 0.245762 0.000000
0.786648 0.255955 0.000000
0.850248 0.263401 0.000000
0.913146 0.269169 0.000000
0.973510 0.274601 0.000000
1.000000 0.280430 0.000000
1.000000 0.287114 0.000000
0.145663 0.258305 0.072724
0.185641 0.258366 0.069490
0.240238 0.258762 0.062776
0.305730 0.259556 0.051179
0.377478 0.263188 0.030426
0.448585 0.266178 0.003754
0.515343 0.268559 0.000000
0.582635 0.273045 0.000000
0.651270 0.279576 0.000000
0.720363 0.287266 0.000000
0.785733 0.294072 0.000000
0.849882 0.300267 0.000000
0.912871 0.306828 0.000000
0.973327 0.311559 0.000000
1.000000 0.315251 0.000000
1.000000 0.320134 0.000000
0.171633 0.312016 0.091310
0.203861 0.312016 0.088746
0.250706 0.312261 0.083345
0.309545 0.312932 0.074372
0.374121 0.314031 0.059876
0.443824 0.317754 0.033722
0.514122 0.321324 0.000000
0.581720 0.323919 0.000000
0.650599 0.328099 0.000000
0.719631 0.333074 0.000000
0.785092 0.337041 0.000000
0.849882 0.341100 0.000000
0.913176 0.345434 0.000000
0.973571 0.350195 0.000000
1.000000 0.355108 0.000000
1.000000 0.358160 0.000000
0.195804 0.364660 0.113375
0.222232 0.364813 0.111086
0.262547 0.365118 0.106783
0.315526 0.365667 0.099458
0.375860 0.366644 0.088197
0.440040 0.367987 0.071107
0.509453 0.372351 0.040589
0.581292 0.376867 0.000000
0.650324 0.379522 0.000000
0.718868 0.382208 0.000000
0.784726 0.384009 0.000000
0.850095 0.385809 0.000000
0.913725 0.388098 0.000000
0.974090 0.391211 0.000000
1.000000 0.395300 0.000000
1.000000 0.399969 0.000000
0.217441 0.417182 0.137942
0.239261 0.417304 0.135958
0.274907 0.417639 0.132509
0.323095 0.418189 0.126314
0.379370 0.419043 0.117250
0.440986 0.420264 0.103700
0.505608 0.422034 0.084321
0.576806 0.427222 0.050050
0.650446 0.432502 0.000000
0.718074 0.433326 0.000000
0.784634 0.433631 0.000000
0.850584 0.434058 0.000000
0.914366 0.434730 0.000000
0.974701 0.436011 0.000000
1.000000 0.438270 0.000000
1.000000 0.442023 0.000000
0.234867 0.469886 0.163302
0.253971 0.470039 0.161654
0.286168 0.470344 0.158633
0.330846 0.470893 0.153414
0.384161 0.471717 0.145937
0.443458 0.472908 0.135073
0.506523 0.474495 0.119997
0.572930 0.476814 0.098604
0.645838 0.482399 0.061830
0.717891 0.485664 0.001923
0.785061 0.485176 0.000000
0.851164 0.484688 0.000000
0.914977 0.484352 0.000000
0.975067 0.484413 0.000000
1.000000 0.485237 0.000000
1.000000 0.487098 0.000000
0.247562 0.525750 0.188632
0.265660 0.525963 0.187198
0.295659 0.526390 0.184451
0.338476 0.527031 0.180056
0.390356 0.528008 0.173373
0.448615 0.529412 0.164126
0.511406 0.531060 0.151431
0.577417 0.533074 0.134615
0.646418 0.535729 0.110628
0.717311 0.538079 0.076020
0.785916 0.538048 0.017762
0.851987 0.537041 0.000000
0.915465 0.536126 0.000000
0.974975 0.535607 0.000000
1.000000 0.535576 0.000000
1.000000 0.536065 0.000000
0.255955 0.587304 0.214786
0.273564 0.587488 0.213535
0.303136 0.587823 0.211185
0.345251 0.588342 0.207218
0.396948 0.589166 0.201358
0.455177 0.590173 0.193240
0.517937 0.591424 0.182498
0.584039 0.592950 0.168276
0.652735 0.594598 0.149416
0.722866 0.595758 0.124636
0.790311 0.594232 0.092226
0.853391 0.591058 0.041352
0.915770 0.589593 0.000000
0.974426 0.588708 0.000000
1.000000 0.588281 0.000000
1.000000 0.588067 0.000000
0.264622 0.650813 0.244144
0.281682 0.650935 0.242985
0.310765 0.651209 0.240787
0.352544 0.651606 0.237369
0.403815 0.652186 0.232029
0.461830 0.652979 0.225010
0.524712 0.653925 0.215518
0.591058 0.655024 0.203098
0.660029 0.656214 0.187320
0.731319 0.657465 0.166629
0.800015 0.656275 0.141421
0.861570 0.651301 0.111452
0.917388 0.645228 0.067048
0.973327 0.642969 0.000000
1.000000 0.642267 0.000000
1.000000 0.641535 0.000000
0.278202 0.715816 0.277897
0.294499 0.715938 0.276829
0.322667 0.716121 0.274937
0.363165 0.716365 0.271794
0.413550 0.716823 0.267094
0.470954 0.717311 0.260807
0.533623 0.717922 0.252201
0.600000 0.718563 0.241306
0.669429 0.719234 0.227604
0.740414 0.719875 0.210056
0.811276 0.720729 0.187594
0.874113 0.716670 0.163058
0.927520 0.708644 0.134829
0.974701 0.699855 0.094972
1.000000 0.696407 0.000000
1.000000 0.695277 0.000000
0.305913 0.781094 0.319005
0.320623 0.781155 0.318090
0.346258 0.781247 0.316320
0.384253 0.781399 0.313420
0.432380 0.781582 0.309178
0.488075 0.781796 0.303319
0.549279 0.782010 0.295842
0.614771 0.782193 0.286229
0.683040 0.782284 0.274113
0.752346 0.782406 0.258885
0.821042 0.782712 0.239902
0.887388 0.783322 0.215763
0.940612 0.776089 0.192111
0.984741 0.765408 0.164523
1.000000 0.754086 0.126314
1.000000 0.748257 0.040070
0.360662 0.844297 0.372381
0.372992 0.844297 0.371527
0.394873 0.844266 0.370001
0.427924 0.844266 0.367315
0.470710 0.844205 0.363561
0.521660 0.844114 0.358343
0.578943 0.843961 0.351537
0.640406 0.843717 0.342901
0.704524 0.843442 0.332128
0.769680 0.843198 0.318822
0.834073 0.843107 0.302281
0.895964 0.843381 0.281834
0.954131 0.844236 0.256168
0.997070 0.833555 0.232486
1.000000 0.820188 0.203525
1.000000 0.805753 0.163577
0.452674 0.904479 0.443885
0.462104 0.904417 0.443183
0.478889 0.904387 0.441962
0.505028 0.904295 0.439796
0.540002 0.904143 0.436652
0.582666 0.903960 0.432410
0.631373 0.903716 0.426734
0.684443 0.903471 0.419562
0.740322 0.903258 0.410651
0.797330 0.903166 0.399542
0.853819 0.903349 0.385779
0.908507 0.903990 0.368688
0.961395 0.905119 0.347295
1.000000 0.906737 0.319615
1.000000 0.891142 0.295018
1.000000 0.873320 0.262364
0.054810 0.070222 0.083070
0.142672 0.068635 0.078737
0.230900 0.066285 0.067781
0.310582 0.073732 0.053468
0.379919 0.094148 0.043519
0.448341 0.108003 0.021363
0.515160 0.123781 0.000000
0.582147 0.140963 0.000000
0.650324 0.158785 0.000000
0.719600 0.177401 0.000000
0.785733 0.193729 0.000000
0.849149 0.205295 0.000000
0.911955 0.214755 0.000000
0.972503 0.223392 0.000000
1.000000 0.231968 0.000000
1.000000 0.241337 0.000000
0.061555 0.113497 0.086122
0.148989 0.113375 0.081147
0.228702 0.114260 0.073640
0.306676 0.117983 0.062531
0.379095 0.124666 0.047456
0.447578 0.134127 0.024811
0.514488 0.146456 0.000000
0.581689 0.160250 0.000000
0.650019 0.175387 0.000000
0.719448 0.191562 0.000000
0.785397 0.206943 0.000000
0.848875 0.218540 0.000000
0.911833 0.227176 0.000000
0.972442 0.234775 0.000000
1.000000 0.242344 0.000000
1.000000 0.250858 0.000000
0.103517 0.160830 0.090120
0.159365 0.161440 0.086091
0.230381 0.162356 0.079133
0.306737 0.163607 0.068452
0.378180 0.166171 0.053559
0.446509 0.171725 0.031373
0.513725 0.179629 0.004089
0.581018 0.190127 0.000000
0.649500 0.202335 0.000000
0.718990 0.215610 0.000000
0.784970 0.227909 0.000000
0.848692 0.239170 0.000000
0.911620 0.247807 0.000000
0.972351 0.254093 0.000000
1.000000 0.260349 0.000000
1.000000 0.267582 0.000000
0.129397 0.211368 0.097871
0.172732 0.211612 0.093660
0.233402 0.211887 0.087953
0.305333 0.214176 0.077638
0.377569 0.215946 0.062867
0.445563 0.218143 0.042359
0.512749 0.222873 0.013428
0.580285 0.229862 0.000000
0.649012 0.238712 0.000000
0.718593 0.249058 0.000000
0.784421 0.258457 0.000000
0.848478 0.267185 0.000000
0.911559 0.275486 0.000000
0.972229 0.282261 0.000000
1.000000 0.286839 0.000000
1.000000 0.292515 0.000000
0.151614 0.263401 0.106874
0.188479 0.263584 0.104128
0.241428 0.263828 0.099397
0.305364 0.264530 0.090883
0.374914 0.267094 0.077516
0.444862 0.269535 0.057710
0.511925 0.271733 0.028717
0.579706 0.276036 0.000000
0.648646 0.282200 0.000000
0.718196 0.289494 0.000000
0.783932 0.296025 0.000000
0.848417 0.302068 0.000000
0.911803 0.308415 0.000000
0.972503 0.314794 0.000000
1.000000 0.320409 0.000000
1.000000 0.324224 0.000000
0.175540 0.315526 0.120638
0.205997 0.315618 0.118532
0.251652 0.315892 0.114443
0.309361 0.316503 0.107210
0.373114 0.317540 0.096407
0.441779 0.320653 0.079133
0.511437 0.323796 0.053101
0.579217 0.326299 0.015076
0.648371 0.330388 0.000000
0.717647 0.335210 0.000000
0.783474 0.338933 0.000000
0.848631 0.342657 0.000000
0.912291 0.346593 0.000000
0.972961 0.351202 0.000000
1.000000 0.356664 0.000000
1.000000 0.361334 0.000000
0.198032 0.367407 0.138735
0.223362 0.367529 0.136721
0.263127 0.367803 0.133120
0.315465 0.368383 0.126894
0.375250 0.369268 0.117769
0.438941 0.370764 0.104128
0.507897 0.374670 0.083040
0.579004 0.378851 0.050629
0.648432 0.381506 0.001587
0.717067 0.384039 0.000000
0.783230 0.385748 0.000000
0.848936 0.387488 0.000000
0.912871 0.389471 0.000000
0.973571 0.392157 0.000000
1.000000 0.396002 0.000000
1.000000 0.400977 0.000000
0.217655 0.419318 0.159579
0.239719 0.419471 0.157870
0.274693 0.419806 0.154635
0.322576 0.420356 0.149416
0.378729 0.421180 0.141329
0.439979 0.422492 0.130068
0.504570 0.424109 0.114382
0.575280 0.429053 0.089784
0.648707 0.433997 0.049805
0.716487 0.434943 0.000000
0.783291 0.435279 0.000000
0.849424 0.435767 0.000000
0.913481 0.436255 0.000000
0.974090 0.437354 0.000000
1.000000 0.439216 0.000000
1.000000 0.442603 0.000000
0.234012 0.471717 0.181460
0.253452 0.471901 0.180240
0.285283 0.472236 0.177462
0.330114 0.472694 0.172732
0.383368 0.473548 0.165988
0.442603 0.474739 0.156497
0.505760 0.476265 0.143374
0.571954 0.478462 0.125582
0.644617 0.483925 0.097841
0.716457 0.486946 0.057221
0.783719 0.486671 0.000000
0.850095 0.486183 0.000000
0.914061 0.485847 0.000000
0.974365 0.485908 0.000000
1.000000 0.486519 0.000000
1.000000 0.488045 0.000000
0.245914 0.527398 0.204654
0.264164 0.527611 0.203342
0.294377 0.527977 0.200839
0.337133 0.528679 0.196872
0.389197 0.529625 0.190707
0.447578 0.530999 0.182376
0.510369 0.532677 0.170748
0.576623 0.534600 0.155978
0.645563 0.537133 0.135653
0.716243 0.539330 0.108248
0.784756 0.539239 0.069612
0.851011 0.538323 0.000458
0.914580 0.537560 0.000000
0.974243 0.537011 0.000000
1.000000 0.536919 0.000000
1.000000 0.537285 0.000000
0.253544 0.588617 0.229099
0.271336 0.588800 0.227939
0.301183 0.589136 0.225742
0.343572 0.589654 0.221958
0.395483 0.590448 0.216556
0.453773 0.591455 0.208957
0.516777 0.592706 0.199039
0.582940 0.594171 0.186007
0.651728 0.595819 0.169223
0.721920 0.596918 0.147463
0.789303 0.595361 0.120851
0.852476 0.592157 0.084321
0.914977 0.590784 0.011597
0.973693 0.589960 0.000000
1.000000 0.589532 0.000000
1.000000 0.589288 0.000000
0.261906 0.651850 0.256748
0.279332 0.651972 0.255772
0.308537 0.652216 0.253758
0.350561 0.652644 0.250278
0.401923 0.653223 0.245426
0.460334 0.653986 0.238712
0.523247 0.654902 0.229770
0.589868 0.656001 0.218235
0.659022 0.657160 0.203525
0.730373 0.658320 0.184543
0.799130 0.657191 0.162081
0.860685 0.652277 0.136294
0.916533 0.646174 0.101808
0.972656 0.644038 0.029816
1.000000 0.643366 0.000000
1.000000 0.642634 0.000000
0.275456 0.716548 0.289067
0.292180 0.716670 0.287999
0.320348 0.716854 0.286198
0.361242 0.717128 0.283238
0.411749 0.717556 0.278752
0.469368 0.718044 0.272679
0.532250 0.718654 0.264530
0.598840 0.719265 0.254215
0.668238 0.719936 0.241215
0.739162 0.720607 0.224796
0.810147 0.721401 0.203922
0.873228 0.717525 0.181399
0.926726 0.709499 0.156252
0.973907 0.700710 0.122866
1.000000 0.697444 0.055451
1.000000 0.696284 0.000000
0.303960 0.781582 0.328771
0.319066 0.781613 0.327825
0.344793 0.781704 0.326177
0.383001 0.781857 0.323400
0.430945 0.782040 0.319341
0.486641 0.782284 0.313787
0.547997 0.782467 0.306462
0.613550 0.782681 0.297063
0.681849 0.782773 0.285466
0.751125 0.782925 0.270909
0.819883 0.783169 0.252811
0.886320 0.783810 0.230014
0.939757 0.776761 0.207828
0.983948 0.766110 0.182528
1.000000 0.754818 0.148531
1.000000 0.749172 0.083040
0.360204 0.844511 0.380926
0.372503 0.844541 0.380102
0.394171 0.844511 0.378546
0.427131 0.844511 0.375982
0.470008 0.844480 0.372259
0.520897 0.844388 0.367193
0.577966 0.844236 0.360510
0.639460 0.844022 0.352117
0.703578 0.843748 0.341650
0.768551 0.843503 0.328679
0.832975 0.843381 0.312657
0.894865 0.843687 0.292973
0.953094 0.844572 0.268345
0.996277 0.834134 0.245487
1.000000 0.820768 0.218143
1.000000 0.806424 0.181155
0.452125 0.904601 0.450416
0.461524 0.904570 0.449775
0.478218 0.904509 0.448493
0.504448 0.904417 0.446418
0.539330 0.904295 0.443336
0.581903 0.904082 0.439094
0.630488 0.903868 0.433600
0.683558 0.903624 0.426673
0.739376 0.903410 0.417914
0.796384 0.903349 0.406989
0.852842 0.903532 0.393591
0.907500 0.904204 0.377020
0.960388 0.905303 0.356176
1.000000 0.906950 0.329381
1.000000 0.891630 0.305303
1.000000 0.873838 0.273686
0.018616 0.093019 0.132631
0.121340 0.090852 0.129702
0.213199 0.089784 0.123598
0.303777 0.087282 0.112642
0.377173 0.094911 0.096132
0.443580 0.115663 0.084260
0.508934 0.135775 0.071199
0.575738 0.153628 0.049531
0.644923 0.168734 0.008820
0.715053 0.184787 0.000000
0.781979 0.200076 0.000000
0.846006 0.213993 0.000000
0.909422 0.226200 0.000000
0.970367 0.238224 0.000000
1.000000 0.246067 0.000000
1.000000 0.252567 0.000000
0.055940 0.129793 0.134371
0.136568 0.129702 0.131289
0.217105 0.129152 0.126131
0.299199 0.129244 0.116091
0.371923 0.135805 0.104646
0.440040 0.147250 0.093385
0.507469 0.158999 0.077729
0.575647 0.170657 0.051698
0.644800 0.183810 0.010803
0.715053 0.198154 0.000000
0.781949 0.212070 0.000000
0.846036 0.224399 0.000000
0.909483 0.235904 0.000000
0.970489 0.246921 0.000000
1.000000 0.255589 0.000000
1.000000 0.261418 0.000000
0.089021 0.174319 0.137545
0.152224 0.173739 0.134676
0.222568 0.173739 0.129763
0.297398 0.174960 0.122103
0.369451 0.177920 0.112490
0.438911 0.182895 0.099367
0.507103 0.189761 0.081727
0.575433 0.198459 0.055970
0.644831 0.209140 0.015442
0.715053 0.220859 0.000000
0.781674 0.232425 0.000000
0.846098 0.242924 0.000000
0.909636 0.252995 0.000000
0.970642 0.262638 0.000000
1.000000 0.271946 0.000000
1.000000 0.276982 0.000000
0.128725 0.220127 0.141695
0.172946 0.220798 0.139986
0.230350 0.221530 0.135622
0.299596 0.222599 0.128481
0.370367 0.223850 0.118654
0.438941 0.226322 0.105898
0.507042 0.230625 0.088594
0.575402 0.236698 0.064149
0.644739 0.244572 0.024079
0.714961 0.253696 0.000000
0.781399 0.262211 0.000000
0.846159 0.270329 0.000000
0.909880 0.278233 0.000000
0.970947 0.286168 0.000000
1.000000 0.294774 0.000000
1.000000 0.300420 0.000000
0.159243 0.270451 0.151492
0.190829 0.270695 0.148714
0.239841 0.271122 0.144167
0.302495 0.271702 0.138064
0.370550 0.273442 0.128481
0.439216 0.275242 0.115694
0.506920 0.277714 0.098909
0.575067 0.281712 0.075990
0.644648 0.287236 0.039704
0.714717 0.293919 0.000000
0.781094 0.299687 0.000000
0.846281 0.305272 0.000000
0.910246 0.310704 0.000000
0.971344 0.316686 0.000000
1.000000 0.323613 0.000000
1.000000 0.330755 0.000000
0.179629 0.320928 0.162264
0.207004 0.321172 0.159640
0.250767 0.321538 0.155947
0.307408 0.321996 0.150515
0.370581 0.323095 0.142275
0.438087 0.325536 0.129946
0.506828 0.328313 0.113619
0.575189 0.330816 0.092378
0.644709 0.334844 0.061189
0.714382 0.339208 0.010040
0.780789 0.342657 0.000000
0.846464 0.345953 0.000000
0.910735 0.349248 0.000000
0.971893 0.353185 0.000000
1.000000 0.358068 0.000000
1.000000 0.364233 0.000000
0.199344 0.371801 0.176120
0.223239 0.372045 0.173892
0.261997 0.372259 0.170871
0.314000 0.372869 0.165805
0.373114 0.373785 0.158541
0.436591 0.375158 0.148135
0.504784 0.378546 0.133242
0.575402 0.382269 0.112825
0.644953 0.385016 0.086091
0.713954 0.387579 0.045686
0.780575 0.389288 0.000000
0.846830 0.390875 0.000000
0.911284 0.392584 0.000000
0.972412 0.394659 0.000000
1.000000 0.397620 0.000000
1.000000 0.401953 0.000000
0.216526 0.423072 0.192386
0.238163 0.423255 0.190860
0.272923 0.423590 0.188235
0.320897 0.424079 0.183780
0.376806 0.424964 0.177218
0.437995 0.426184 0.168093
0.502525 0.427832 0.155703
0.572595 0.432227 0.137911
0.645472 0.436805 0.113436
0.713649 0.437842 0.083528
0.780819 0.438392 0.034089
0.847349 0.438849 0.000000
0.911803 0.439368 0.000000
0.972839 0.440192 0.000000
1.000000 0.441535 0.000000
1.000000 0.443946 0.000000
0.231266 0.475044 0.211002
0.251011 0.475196 0.209751
0.283177 0.475471 0.207309
0.327794 0.476020 0.203433
0.381353 0.476814 0.197482
0.440620 0.477974 0.189425
0.503868 0.479530 0.178622
0.569909 0.481514 0.164370
0.642390 0.486580 0.143771
0.713832 0.489387 0.118135
0.781430 0.489296 0.084596
0.848112 0.488930 0.025177
0.912444 0.488685 0.000000
0.973022 0.488716 0.000000
1.000000 0.489113 0.000000
1.000000 0.490089 0.000000
0.242252 0.530358 0.231144
0.260441 0.530510 0.230014
0.291142 0.530877 0.227787
0.334325 0.531579 0.224094
0.386725 0.532525 0.218814
0.445350 0.533806 0.211521
0.508476 0.535424 0.201572
0.574670 0.537407 0.189059
0.643641 0.539696 0.172580
0.714199 0.541680 0.151553
0.782620 0.541405 0.125277
0.849180 0.540642 0.088624
0.913024 0.539971 0.018463
0.972930 0.539513 0.000000
1.000000 0.539452 0.000000
1.000000 0.539605 0.000000
0.248722 0.591058 0.253086
0.266514 0.591241 0.251957
0.297124 0.591516 0.250034
0.339940 0.592096 0.246647
0.392248 0.592798 0.241825
0.451118 0.593744 0.235080
0.514336 0.595026 0.226352
0.580804 0.596399 0.214939
0.649836 0.597986 0.200443
0.720180 0.599054 0.182467
0.787533 0.597345 0.161349
0.850614 0.594110 0.135317
0.913451 0.592981 0.095186
0.972412 0.592218 0.012909
1.000000 0.591852 0.000000
1.000000 0.591547 0.000000
0.256565 0.653712 0.278508
0.274266 0.653834 0.277501
0.304082 0.654078 0.275700
0.346563 0.654475 0.272526
0.398688 0.655055 0.267979
0.457282 0.655818 0.261875
0.520745 0.656703 0.253880
0.587488 0.657740 0.243473
0.656886 0.658869 0.230320
0.728298 0.660060 0.213962
0.797421 0.658961 0.194675
0.859098 0.654017 0.173434
0.914916 0.647974 0.147127
0.971374 0.646052 0.104189
1.000000 0.645411 0.006989
1.000000 0.644648 0.000000
0.270909 0.717922 0.308476
0.287694 0.718013 0.307591
0.316289 0.718166 0.305882
0.357671 0.718441 0.303014
0.408606 0.718837 0.298772
0.466529 0.719387 0.293187
0.529503 0.719936 0.285649
0.596307 0.720577 0.276188
0.665949 0.721218 0.264225
0.737118 0.721828 0.249302
0.808133 0.722621 0.230747
0.871611 0.718990 0.210819
0.925231 0.710964 0.189395
0.972473 0.702327 0.162600
1.000000 0.699275 0.116732
1.000000 0.698054 0.000000
0.300847 0.782437 0.346075
0.315892 0.782498 0.345190
0.342046 0.782589 0.343633
0.380102 0.782742 0.340978
0.428412 0.782925 0.337072
0.484230 0.783139 0.331701
0.545647 0.783352 0.324865
0.611322 0.783536 0.316075
0.679591 0.783658 0.305150
0.748989 0.783780 0.291661
0.817777 0.784085 0.274937
0.884276 0.784665 0.254215
0.938201 0.778012 0.233860
0.982574 0.767422 0.211398
1.000000 0.756222 0.182498
1.000000 0.750790 0.132692
0.359106 0.844968 0.396002
0.371374 0.844968 0.395209
0.393103 0.844968 0.393744
0.425971 0.844968 0.391363
0.468666 0.844938 0.387732
0.519402 0.844877 0.382818
0.576379 0.844724 0.376471
0.637690 0.844511 0.368353
0.701656 0.844266 0.358343
0.766629 0.844022 0.345953
0.830961 0.843961 0.330846
0.892882 0.844266 0.312169
0.951141 0.845151 0.289158
0.994781 0.835142 0.267674
1.000000 0.821866 0.242435
1.000000 0.807614 0.209384
0.450660 0.904845 0.462043
0.460029 0.904814 0.461402
0.476875 0.904753 0.460151
0.502983 0.904662 0.458106
0.537865 0.904540 0.455207
0.580407 0.904356 0.451148
0.628901 0.904143 0.445808
0.681849 0.903929 0.439063
0.737667 0.903716 0.430732
0.794583 0.903685 0.420264
0.851011 0.903868 0.407538
0.905638 0.904540 0.391608
0.958495 0.905699 0.371832
1.000000 0.907347 0.346502
1.000000 0.892485 0.323247
1.000000 0.874815 0.293217
0.000000 0.119631 0.186435
0.080690 0.115633 0.184451
0.184695 0.112764 0.180606
0.280735 0.115572 0.173678
0.367590 0.118929 0.163607
0.438544 0.126650 0.147250
0.505852 0.141146 0.132998
0.572747 0.158755 0.118685
0.640833 0.176608 0.101320
0.710231 0.194583 0.078584
0.777554 0.208835 0.036713
0.842618 0.220645 0.000000
0.906920 0.231174 0.000000
0.968750 0.241581 0.000000
1.000000 0.252476 0.000000
1.000000 0.263920 0.000000
0.036683 0.152651 0.187442
0.114107 0.150362 0.185702
0.195895 0.147799 0.182132
0.282872 0.149569 0.175784
0.364050 0.151736 0.165927
0.435370 0.156222 0.151949
0.503380 0.167208 0.138857
0.570886 0.180392 0.124758
0.639551 0.194888 0.107607
0.709743 0.208988 0.082704
0.777432 0.220493 0.040284
0.842588 0.231296 0.000000
0.907012 0.240909 0.000000
0.968841 0.250492 0.000000
1.000000 0.260441 0.000000
1.000000 0.271458 0.000000
0.077272 0.189334 0.190249
0.140444 0.189487 0.188205
0.209781 0.189303 0.184787
0.286046 0.189639 0.179110
0.361334 0.191104 0.170291
0.431952 0.195377 0.159426
0.500450 0.202487 0.147646
0.568719 0.211887 0.133944
0.638697 0.220951 0.114199
0.709804 0.230808 0.086854
0.777188 0.240726 0.046143
0.842588 0.249851 0.000000
0.907073 0.257969 0.000000
0.969024 0.265995 0.000000
1.000000 0.274846 0.000000
1.000000 0.284855 0.000000
0.107210 0.233921 0.195285
0.157351 0.233829 0.193362
0.220127 0.233799 0.189883
0.290166 0.234440 0.184573
0.360815 0.235813 0.177218
0.430488 0.238651 0.167666
0.499336 0.242679 0.155581
0.568536 0.248203 0.140200
0.638727 0.254795 0.120363
0.709712 0.262669 0.093996
0.776974 0.270298 0.055970
0.842679 0.277195 0.000000
0.907347 0.283513 0.000000
0.969268 0.289830 0.000000
1.000000 0.296971 0.000000
1.000000 0.305516 0.000000
0.143893 0.279667 0.200320
0.181582 0.279973 0.198978
0.233524 0.280522 0.196689
0.295659 0.281407 0.191989
0.362890 0.282628 0.185031
0.431342 0.284428 0.175692
0.499672 0.286992 0.163912
0.568780 0.290837 0.148806
0.638880 0.295964 0.129732
0.709590 0.301823 0.104585
0.776669 0.307286 0.069947
0.842741 0.312016 0.010071
0.907622 0.316472 0.000000
0.969604 0.321019 0.000000
1.000000 0.326085 0.000000
1.000000 0.332708 0.000000
0.174228 0.328496 0.210361
0.203861 0.328832 0.209354
0.246647 0.329320 0.206699
0.302098 0.329992 0.201785
0.364904 0.330999 0.195346
0.431861 0.332982 0.186557
0.500359 0.335332 0.174899
0.569085 0.338018 0.160494
0.639155 0.341863 0.142214
0.709407 0.346105 0.118898
0.776425 0.349432 0.088197
0.842954 0.352392 0.035950
0.907958 0.355291 0.000000
0.969970 0.358190 0.000000
1.000000 0.361456 0.000000
1.000000 0.365911 0.000000
0.197940 0.378241 0.223270
0.221012 0.378454 0.221592
0.258244 0.378943 0.218540
0.308934 0.379553 0.214115
0.368353 0.380407 0.208255
0.432013 0.381720 0.200259
0.499672 0.384619 0.189334
0.569757 0.387823 0.175143
0.639704 0.390692 0.157900
0.709163 0.393347 0.136568
0.776486 0.395117 0.109499
0.843320 0.396796 0.068513
0.908476 0.398291 0.000000
