luts/Louellen ● 16.cube
# Created by Adobe Lightroom plugin Export LUT (1.16.0)
# www.johnrellis.com/lightroom/exportlut.htm
# Preset: Louellen ●
# Color profile: C:\Program Files (x86)\Common Files\Adobe\Color\Profiles\Recommended\sRGB Color Space Profile.icm
LUT_3D_SIZE 16
DOMAIN_MIN 0.0 0.0 0.0
DOMAIN_MAX 1.0 1.0 1.0
0.174868 0.132021 0.161837
0.174868 0.132021 0.161837
0.226169 0.131594 0.160586
0.334051 0.131533 0.156649
0.430732 0.134157 0.151034
0.519768 0.140841 0.143496
0.602991 0.152651 0.133577
0.679194 0.175174 0.131075
0.747341 0.209323 0.144930
0.809598 0.241245 0.162173
0.866392 0.271611 0.180728
0.916747 0.299290 0.202396
0.963256 0.326635 0.228122
1.000000 0.354681 0.258030
1.000000 0.384253 0.291722
1.000000 0.416510 0.330175
0.174868 0.132021 0.161837
0.174868 0.132021 0.161837
0.246647 0.146517 0.158236
0.343481 0.156069 0.153109
0.435706 0.162264 0.146914
0.522545 0.170169 0.138857
0.604700 0.181674 0.128298
0.679194 0.204593 0.131014
0.747127 0.232700 0.146151
0.809232 0.260441 0.163241
0.865965 0.286992 0.181796
0.916320 0.312047 0.204044
0.962860 0.337346 0.229587
1.000000 0.363561 0.259342
1.000000 0.391821 0.293339
1.000000 0.423163 0.332219
0.168124 0.160342 0.158450
0.198947 0.167727 0.156710
0.268467 0.181186 0.152468
0.359503 0.192996 0.146426
0.445167 0.200656 0.139559
0.528252 0.210880 0.130373
0.606897 0.226261 0.124636
0.679500 0.247562 0.132845
0.746853 0.269505 0.147738
0.808896 0.291234 0.164645
0.865171 0.312963 0.184451
0.915557 0.333745 0.206882
0.962188 0.355810 0.232670
1.000000 0.379339 0.262364
1.000000 0.405127 0.296178
1.000000 0.434638 0.335454
0.165408 0.231540 0.164675
0.212436 0.235782 0.163027
0.281529 0.240818 0.163394
0.367864 0.251530 0.163363
0.453681 0.260685 0.162387
0.532555 0.269841 0.162692
0.608209 0.282597 0.164126
0.679805 0.298253 0.168215
0.746395 0.315190 0.173831
0.807980 0.332280 0.181643
0.864195 0.348821 0.191104
0.914641 0.365118 0.211307
0.961181 0.382910 0.237491
1.000000 0.402960 0.267399
1.000000 0.425727 0.301335
1.000000 0.452644 0.341009
0.207858 0.304051 0.209415
0.244358 0.306706 0.207553
0.300420 0.311223 0.206180
0.373358 0.317571 0.207065
0.455726 0.328191 0.207553
0.536645 0.337652 0.207828
0.610285 0.346166 0.208164
0.680201 0.356359 0.210758
0.745754 0.367590 0.214054
0.806699 0.379187 0.220096
0.862181 0.391028 0.227146
0.912718 0.403479 0.237247
0.959747 0.417243 0.248936
1.000000 0.433417 0.274754
1.000000 0.452766 0.308934
1.000000 0.476509 0.348699
0.252598 0.376349 0.253056
0.280430 0.378271 0.252140
0.325017 0.381903 0.249973
0.388342 0.386542 0.250584
0.460395 0.393011 0.251041
0.537957 0.402625 0.251774
0.613275 0.411200 0.252598
0.681209 0.417121 0.254063
0.745266 0.423651 0.256260
0.805417 0.430976 0.260288
0.859678 0.438392 0.266514
0.909972 0.447303 0.274388
0.956756 0.457832 0.284764
1.000000 0.470100 0.297704
1.000000 0.484993 0.319219
1.000000 0.505699 0.359564
0.297185 0.444862 0.296605
0.318914 0.446143 0.295354
0.354894 0.448798 0.293645
0.407843 0.452430 0.292638
0.471778 0.457191 0.293217
0.541070 0.463478 0.294224
0.613489 0.471290 0.295293
0.683406 0.477607 0.296971
0.745418 0.480781 0.299229
0.803983 0.484413 0.301976
0.857176 0.488685 0.306828
0.906920 0.494423 0.313725
0.953216 0.502098 0.323247
0.996033 0.511894 0.335393
1.000000 0.523827 0.350042
1.000000 0.539178 0.373388
0.341192 0.508324 0.338567
0.358038 0.509300 0.337987
0.387243 0.511009 0.336278
0.430243 0.513909 0.333806
0.485939 0.517388 0.334356
0.548669 0.521904 0.335119
0.615198 0.527825 0.336461
0.682002 0.532982 0.338506
0.746365 0.537255 0.341131
0.802518 0.537987 0.343786
0.854704 0.539666 0.348180
0.903655 0.543236 0.354772
0.949187 0.548852 0.363836
0.991333 0.556512 0.375647
1.000000 0.566552 0.390448
1.000000 0.579339 0.408728
0.383612 0.566400 0.381109
0.396796 0.567071 0.380316
0.420203 0.568322 0.379095
0.455665 0.570245 0.376898
0.502647 0.572900 0.375891
0.558160 0.576318 0.376501
0.618494 0.580591 0.378058
0.681941 0.585595 0.379553
0.743709 0.588861 0.382635
0.801541 0.590784 0.386572
0.852323 0.590784 0.391241
0.900084 0.592706 0.397955
0.944701 0.596582 0.406836
0.985992 0.602625 0.418799
1.000000 0.611170 0.433478
1.000000 0.622583 0.452003
0.425513 0.621454 0.425025
0.436133 0.621912 0.424292
0.454871 0.622950 0.423438
0.484199 0.624414 0.421515
0.522972 0.626520 0.419043
0.572076 0.629511 0.419837
0.626978 0.633112 0.421363
0.685695 0.637324 0.423102
0.745693 0.641138 0.425574
0.800076 0.641321 0.430030
0.850126 0.641047 0.435309
0.896483 0.641749 0.442237
0.939879 0.644343 0.451362
0.980102 0.649195 0.463325
1.000000 0.656550 0.478279
1.000000 0.666804 0.496651
0.468696 0.676570 0.471962
0.477028 0.676997 0.471351
0.492622 0.677577 0.470527
0.516808 0.678706 0.469062
0.549828 0.680171 0.466712
0.591516 0.682216 0.466041
0.640497 0.684718 0.467659
0.693721 0.687770 0.469581
0.749355 0.691218 0.471992
0.803586 0.693080 0.475502
0.850492 0.691218 0.480903
0.893339 0.689509 0.487068
0.935058 0.691066 0.496315
0.974090 0.694942 0.507988
1.000000 0.701381 0.523064
1.000000 0.710933 0.541619
0.515923 0.728389 0.521477
0.522759 0.728573 0.521263
0.535271 0.729061 0.520226
0.555138 0.729824 0.519127
0.582361 0.730831 0.517113
0.616602 0.732113 0.515007
0.659571 0.733944 0.516472
0.706691 0.736202 0.518334
0.756558 0.738827 0.520836
0.807736 0.741939 0.523705
0.855131 0.742123 0.528191
0.895293 0.739193 0.534142
0.931731 0.736721 0.540612
0.968383 0.739101 0.551965
1.000000 0.744991 0.566979
1.000000 0.753964 0.585565
0.569024 0.777218 0.572961
0.574273 0.777401 0.572534
0.584283 0.777707 0.571862
0.600122 0.778225 0.570855
0.622156 0.778958 0.569360
0.650233 0.779904 0.567437
0.685328 0.781155 0.567010
0.726070 0.782895 0.568933
0.769589 0.785000 0.571557
0.814878 0.787442 0.574395
0.860685 0.790341 0.577813
0.900877 0.789212 0.582879
0.934691 0.785794 0.589349
0.965240 0.783169 0.596490
0.997223 0.786709 0.609552
1.000000 0.795163 0.627955
0.628931 0.823636 0.626307
0.633051 0.823789 0.626062
0.640558 0.824033 0.625513
0.652735 0.824430 0.624628
0.669917 0.825040 0.623407
0.692134 0.825772 0.621729
0.719081 0.826719 0.619745
0.753048 0.828122 0.621668
0.789914 0.829831 0.624170
0.828611 0.831907 0.626886
0.868254 0.834318 0.630243
0.908110 0.837156 0.633936
0.941253 0.835019 0.639521
0.969635 0.831693 0.646082
0.995392 0.829160 0.653071
1.000000 0.833555 0.667536
0.690639 0.868376 0.679957
0.693721 0.868498 0.679866
0.699428 0.868711 0.679438
0.708766 0.869078 0.678828
0.721859 0.869627 0.677882
0.739071 0.870298 0.676692
0.760128 0.871183 0.675166
0.786313 0.872343 0.675349
0.816556 0.873838 0.677760
0.848844 0.875700 0.680598
0.882414 0.877867 0.683864
0.916564 0.880400 0.687709
0.950988 0.883330 0.692012
0.977966 0.880583 0.698299
1.000000 0.877562 0.705470
1.000000 0.870085 0.714412
0.755367 0.912993 0.738552
0.757656 0.913146 0.738399
0.761868 0.913420 0.738155
0.768856 0.913817 0.737819
0.778714 0.914427 0.737362
0.791684 0.915251 0.736721
0.807797 0.916258 0.735927
0.826963 0.917540 0.735073
0.851225 0.919127 0.737850
0.877379 0.920989 0.741207
0.905028 0.923186 0.745205
0.933135 0.925200 0.749996
0.956909 0.922271 0.756710
0.978363 0.919493 0.764462
0.984070 0.906310 0.775631
0.986908 0.896880 0.787839
0.174868 0.132021 0.161837
0.174868 0.132021 0.161837
0.232334 0.121309 0.163088
0.336950 0.119020 0.157870
0.429938 0.128542 0.151736
0.517296 0.145632 0.146578
0.597772 0.174044 0.150118
0.672938 0.204349 0.154421
0.742153 0.234623 0.160769
0.805295 0.263279 0.168215
0.863096 0.289403 0.181613
0.914214 0.313542 0.203403
0.961334 0.337774 0.228916
1.000000 0.363134 0.258885
1.000000 0.390631 0.292607
1.000000 0.421302 0.331212
0.174868 0.132021 0.161837
0.174868 0.132021 0.161837
0.251896 0.134615 0.159457
0.346014 0.141115 0.154940
0.434974 0.155184 0.156466
0.519005 0.175174 0.158206
0.598779 0.199130 0.161257
0.673304 0.225650 0.165743
0.742123 0.252415 0.171176
0.805173 0.278294 0.177707
0.862669 0.302647 0.187259
0.913909 0.324987 0.204379
0.960967 0.347631 0.230777
1.000000 0.371527 0.260472
1.000000 0.397833 0.294072
1.000000 0.427436 0.332891
0.145113 0.173953 0.178683
0.188937 0.180850 0.177310
0.267155 0.187503 0.176822
0.354681 0.195041 0.176608
0.439704 0.205142 0.177005
0.521813 0.219760 0.178714
0.600305 0.238468 0.180911
0.673976 0.259831 0.183383
0.742031 0.282078 0.188052
0.804685 0.303929 0.194980
0.861845 0.324712 0.202762
0.913207 0.344549 0.213260
0.960510 0.364508 0.233677
1.000000 0.386236 0.263432
1.000000 0.410590 0.296971
1.000000 0.438636 0.336370
0.178958 0.240787 0.209689
0.217685 0.244816 0.208011
0.281254 0.250278 0.206699
0.362982 0.258885 0.207034
0.446693 0.267674 0.206455
0.526116 0.278019 0.206790
0.602472 0.291508 0.207675
0.674769 0.307256 0.209964
0.741970 0.324010 0.213840
0.804074 0.340826 0.218631
0.860716 0.357061 0.225467
0.911772 0.373419 0.234745
0.959289 0.390356 0.246525
1.000000 0.408759 0.268070
1.000000 0.430335 0.302159
1.000000 0.456123 0.341802
0.217807 0.310796 0.242954
0.249760 0.313481 0.241947
0.301732 0.318242 0.239414
0.372656 0.324132 0.240116
0.452247 0.333379 0.240330
0.531640 0.342840 0.240269
0.605554 0.351843 0.240452
0.675990 0.362493 0.242222
0.741909 0.373999 0.244694
0.803159 0.385748 0.249210
0.858885 0.397650 0.255039
0.909819 0.410101 0.262608
0.957092 0.423926 0.273198
1.000000 0.438758 0.285313
1.000000 0.456550 0.309850
1.000000 0.479438 0.349340
0.259983 0.380987 0.278996
0.285069 0.383032 0.277958
0.327642 0.386572 0.275761
0.388464 0.391150 0.275029
0.459144 0.397528 0.275792
0.535180 0.406561 0.276402
0.609705 0.414801 0.276616
0.677852 0.421180 0.277989
0.742031 0.428168 0.279942
0.802304 0.435706 0.283299
0.856931 0.443488 0.288029
0.907408 0.452552 0.295323
0.954376 0.463081 0.304479
0.997833 0.475319 0.316045
1.000000 0.489387 0.330144
1.000000 0.508141 0.360388
0.302464 0.448341 0.316350
0.322942 0.449561 0.315435
0.357610 0.452033 0.313512
0.408362 0.455787 0.311559
0.471107 0.460365 0.312108
0.539696 0.466712 0.313115
0.611505 0.474189 0.314031
0.680568 0.480354 0.315587
0.742855 0.483864 0.317113
0.801389 0.487892 0.319982
0.854795 0.492317 0.324224
0.904662 0.498421 0.330632
0.951080 0.506310 0.339422
0.994018 0.516106 0.350195
1.000000 0.528099 0.364416
1.000000 0.542596 0.381842
0.345006 0.510765 0.354620
0.361334 0.511742 0.354070
0.389410 0.513512 0.352636
0.431189 0.516289 0.350103
0.485725 0.519799 0.349676
0.547662 0.524315 0.350591
0.613733 0.530053 0.351812
0.680079 0.535241 0.353582
0.744045 0.539422 0.356023
0.800320 0.540490 0.358434
0.852659 0.542473 0.362524
0.901579 0.546380 0.368688
0.947265 0.552087 0.377539
0.989502 0.559991 0.388739
1.000000 0.570031 0.402380
1.000000 0.582940 0.420172
0.386816 0.568200 0.394446
0.399878 0.568872 0.393683
0.422278 0.570184 0.392432
0.456886 0.572076 0.390143
0.502708 0.574640 0.388708
0.557733 0.578058 0.389593
0.617762 0.582330 0.390509
0.680659 0.587274 0.392401
0.742153 0.590631 0.394842
0.799619 0.592584 0.398627
0.850431 0.592981 0.403113
0.898283 0.595117 0.409552
0.942901 0.599268 0.418463
0.984253 0.605493 0.429572
1.000000 0.614130 0.443854
1.000000 0.625544 0.461341
0.428260 0.622827 0.436500
0.438575 0.623346 0.435798
0.457008 0.624323 0.434791
0.485603 0.625879 0.432929
0.523796 0.627985 0.430426
0.572015 0.630823 0.430884
0.626337 0.634455 0.432136
0.684779 0.638666 0.433783
0.744564 0.642512 0.436286
0.798550 0.642786 0.440345
0.848539 0.642634 0.445350
0.894896 0.643580 0.452125
0.938262 0.646509 0.461006
0.978607 0.651453 0.472389
1.000000 0.658869 0.486641
1.000000 0.669245 0.504662
0.471138 0.677607 0.481514
0.479500 0.677943 0.481178
0.494667 0.678645 0.480079
0.518364 0.679713 0.478584
0.550744 0.681239 0.476265
0.591608 0.683162 0.474922
0.640223 0.685725 0.476448
0.693019 0.688685 0.478431
0.748318 0.692164 0.480690
0.802365 0.694148 0.484260
0.849149 0.692470 0.489143
0.892027 0.690913 0.495064
0.933745 0.692653 0.503960
0.972747 0.696742 0.515587
1.000000 0.703273 0.529992
1.000000 0.712764 0.547906
0.518364 0.729000 0.529320
0.524987 0.729244 0.528862
0.537316 0.729763 0.528161
0.556634 0.730495 0.526757
0.583490 0.731502 0.524987
0.617365 0.732815 0.522484
0.659510 0.734615 0.523461
0.706355 0.736873 0.525475
0.755825 0.739498 0.527855
0.806760 0.742611 0.530816
0.854032 0.743038 0.534844
0.894163 0.740200 0.540581
0.930571 0.737819 0.547021
0.967285 0.740444 0.558007
1.000000 0.746426 0.572595
1.000000 0.755428 0.590570
0.571038 0.777615 0.578943
0.576440 0.777798 0.578729
0.586145 0.778103 0.578058
0.601770 0.778653 0.577081
0.623438 0.779416 0.575586
0.651087 0.780331 0.573388
0.685512 0.781582 0.572503
0.725978 0.783352 0.574578
0.769223 0.785428 0.576898
0.814176 0.787900 0.579889
0.859770 0.790829 0.583185
0.899931 0.789914 0.588098
0.933745 0.786648 0.594293
0.964324 0.784054 0.601190
0.996399 0.787747 0.613886
1.000000 0.796231 0.631769
0.630457 0.823880 0.630823
0.634607 0.824033 0.630640
0.641993 0.824277 0.630060
0.654047 0.824674 0.629145
0.671015 0.825284 0.627985
0.692866 0.826047 0.626307
0.719570 0.826993 0.624262
0.753048 0.828397 0.625818
0.789670 0.830106 0.628138
0.828153 0.832181 0.630915
0.867613 0.834623 0.634058
0.907347 0.837491 0.637690
0.940551 0.835538 0.643153
0.968933 0.832273 0.649470
0.994751 0.829801 0.656336
1.000000 0.834379 0.670588
0.691524 0.868498 0.683223
0.694575 0.868650 0.682979
0.700221 0.868864 0.682673
0.709468 0.869230 0.682063
0.722499 0.869749 0.681178
0.739437 0.870481 0.679927
0.760342 0.871366 0.678370
0.786069 0.872526 0.678187
0.816342 0.874022 0.680568
0.848478 0.875853 0.683345
0.881895 0.878050 0.686580
0.915984 0.880613 0.690303
0.950317 0.883543 0.694514
0.977417 0.880949 0.700710
1.000000 0.877989 0.707729
1.000000 0.870481 0.716579
0.755673 0.913085 0.740780
0.757931 0.913237 0.740627
0.762142 0.913512 0.740414
0.769009 0.913909 0.740108
0.778836 0.914519 0.739620
0.791714 0.915343 0.738888
0.807706 0.916381 0.738125
0.826810 0.917662 0.737209
0.850828 0.919219 0.739773
0.876982 0.921111 0.743008
0.904570 0.923308 0.746975
0.932616 0.925231 0.751736
0.956359 0.922301 0.758328
0.977813 0.919524 0.766018
0.983673 0.906523 0.777096
0.986511 0.897093 0.789212
0.166842 0.136324 0.183780
0.170687 0.131319 0.191836
0.221530 0.121798 0.200992
0.336095 0.107546 0.203891
0.427955 0.125429 0.200290
0.511650 0.158419 0.206851
0.590356 0.193027 0.216037
0.664942 0.225772 0.223117
0.735042 0.254490 0.226169
0.798795 0.281682 0.230838
0.857237 0.307134 0.236484
0.909239 0.330602 0.244144
0.957488 0.353124 0.253849
1.000000 0.375372 0.265202
1.000000 0.399756 0.293584
1.000000 0.428046 0.332341
0.153323 0.149355 0.203128
0.165072 0.146273 0.209171
0.238071 0.149599 0.216403
0.337346 0.154910 0.217350
0.426551 0.170993 0.218051
0.510246 0.194400 0.223117
0.590234 0.219150 0.227512
0.665644 0.244541 0.229862
0.735195 0.270420 0.232853
0.798795 0.295262 0.237156
0.856992 0.318822 0.243015
0.908843 0.340795 0.250401
0.957122 0.362036 0.259434
1.000000 0.383459 0.270665
1.000000 0.406500 0.295476
1.000000 0.434058 0.334325
0.140414 0.189242 0.228092
0.192203 0.194003 0.230991
0.256962 0.201511 0.235355
0.343542 0.209598 0.236393
0.429480 0.221408 0.237308
0.512810 0.236423 0.238376
0.592065 0.255131 0.239902
0.666529 0.276005 0.241611
0.735409 0.297765 0.244785
0.798550 0.318944 0.248692
0.856321 0.339300 0.254215
0.908141 0.358679 0.261051
0.956268 0.378149 0.269871
1.000000 0.397864 0.280919
1.000000 0.418647 0.298497
1.000000 0.444678 0.337530
0.187686 0.250034 0.255039
0.225498 0.254826 0.257664
0.278630 0.262089 0.258030
0.355779 0.269871 0.257237
0.437873 0.278508 0.257450
0.517967 0.289860 0.257786
0.595209 0.303960 0.258488
0.668177 0.319738 0.260105
0.735805 0.336553 0.262364
0.798367 0.353277 0.266056
0.855283 0.369604 0.270970
0.906950 0.385748 0.277806
0.954833 0.402441 0.286351
0.999145 0.419898 0.296757
1.000000 0.438300 0.309728
1.000000 0.461463 0.342901
0.231907 0.319432 0.285679
0.258701 0.322118 0.285893
0.302892 0.327214 0.283421
0.369329 0.333532 0.282231
0.446784 0.341802 0.282872
0.524681 0.350896 0.282872
0.599176 0.360601 0.283177
0.669978 0.371771 0.283909
0.736233 0.383673 0.286046
0.797848 0.395941 0.289372
0.854002 0.407843 0.293492
0.905303 0.420478 0.299962
0.952911 0.434150 0.308141
0.996979 0.449104 0.318151
1.000000 0.465278 0.330510
1.000000 0.484016 0.350683
0.270603 0.387610 0.315801
0.292485 0.389715 0.314977
0.330297 0.393469 0.312902
0.386786 0.398474 0.310582
0.456184 0.404395 0.310918
0.530755 0.412696 0.311437
0.604059 0.420844 0.311955
0.672663 0.427802 0.312474
0.737026 0.435401 0.314275
0.797604 0.443397 0.316625
0.852537 0.451514 0.320623
0.903258 0.460883 0.326635
0.950469 0.471717 0.334447
0.994110 0.484016 0.344549
1.000000 0.498024 0.356756
1.000000 0.514122 0.372412
0.310185 0.453437 0.347234
0.328649 0.454963 0.346380
0.360418 0.457374 0.344701
0.408270 0.461219 0.341863
0.469306 0.465797 0.341588
0.537102 0.471717 0.342290
0.607813 0.479011 0.343053
0.675990 0.485023 0.344518
0.738369 0.489113 0.345556
0.797147 0.493629 0.348089
0.850736 0.498726 0.351751
0.900816 0.505241 0.357641
0.947478 0.513481 0.365209
0.990509 0.523552 0.375402
1.000000 0.535515 0.387945
1.000000 0.549889 0.403754
0.351110 0.514855 0.381140
0.366491 0.515770 0.379980
0.392432 0.517632 0.378943
0.432502 0.520317 0.376287
0.484962 0.523888 0.374731
0.545983 0.528313 0.375647
0.611292 0.533867 0.376471
0.676905 0.538994 0.378241
0.740169 0.543145 0.380346
0.796567 0.544854 0.382696
0.848936 0.547448 0.386511
0.898070 0.551781 0.392248
0.943847 0.557946 0.400153
0.986236 0.566064 0.410132
1.000000 0.576379 0.423194
1.000000 0.589227 0.439399
0.392279 0.571405 0.417273
0.404517 0.572015 0.416388
0.425910 0.573236 0.415473
0.458869 0.575219 0.413275
0.502739 0.577844 0.410224
0.556756 0.581170 0.411017
0.615869 0.585412 0.412390
0.678157 0.590387 0.413794
0.739284 0.593805 0.416052
0.796231 0.595941 0.419440
0.847135 0.596918 0.423743
0.895048 0.599481 0.429694
0.939849 0.603967 0.437842
0.981292 0.610468 0.448188
1.000000 0.619287 0.461494
1.000000 0.630793 0.477943
0.433478 0.625269 0.456245
0.443397 0.625788 0.455695
0.460822 0.626795 0.454383
0.488228 0.628382 0.452888
0.525078 0.630518 0.450324
0.571771 0.633265 0.449348
0.625360 0.636835 0.450446
0.682948 0.641016 0.452094
0.742214 0.645045 0.454505
0.795987 0.645441 0.458015
0.845579 0.645563 0.462715
0.892027 0.646937 0.469154
0.935485 0.650202 0.477394
0.975860 0.655451 0.488167
1.000000 0.663081 0.501366
1.000000 0.673457 0.518181
0.475837 0.679438 0.498238
0.483711 0.679744 0.497566
0.498360 0.680446 0.496742
0.521233 0.681575 0.495247
0.552544 0.682979 0.493202
0.591852 0.684840 0.490639
0.639796 0.687404 0.492042
0.691890 0.690364 0.493721
0.746517 0.693812 0.496010
0.800229 0.696132 0.499092
0.846891 0.694606 0.503777
0.889433 0.693416 0.509392
0.931273 0.695552 0.517754
0.970459 0.699855 0.528435
1.000000 0.706569 0.542016
1.000000 0.716121 0.558953
0.522606 0.730190 0.542809
0.528893 0.730495 0.542351
0.540917 0.730922 0.541588
0.559533 0.731685 0.540398
0.585718 0.732723 0.538689
0.618585 0.734035 0.536187
0.659541 0.735805 0.536156
0.705745 0.738003 0.537926
0.754665 0.740658 0.540093
0.805020 0.743771 0.542809
0.852171 0.744503 0.546685
0.892180 0.741939 0.552056
0.928466 0.739864 0.558099
0.965362 0.742855 0.568414
1.000000 0.748989 0.582269
1.000000 0.758114 0.599573
0.575128 0.778347 0.589899
0.580224 0.778531 0.589471
0.589532 0.778866 0.588800
0.604700 0.779416 0.587732
0.625788 0.780148 0.586267
0.652705 0.781125 0.584344
0.685878 0.782315 0.582513
0.725795 0.784115 0.584344
0.768490 0.786191 0.586633
0.813016 0.788693 0.589319
0.858152 0.791623 0.592493
0.898344 0.791104 0.597162
0.932036 0.788113 0.603021
0.962676 0.785733 0.609461
0.994934 0.789670 0.621637
1.000000 0.798184 0.638697
0.633326 0.824338 0.638849
0.637293 0.824460 0.638636
0.644587 0.824735 0.638087
0.656245 0.825162 0.637171
0.672816 0.825803 0.636042
0.694148 0.826566 0.634394
0.720302 0.827512 0.632410
0.752865 0.828855 0.633082
0.789120 0.830625 0.635157
0.827329 0.832731 0.637842
0.866514 0.835172 0.640864
0.905913 0.838071 0.644251
0.939269 0.836454 0.649348
0.967712 0.833341 0.655451
0.993530 0.831022 0.662074
1.000000 0.835813 0.675929
0.693141 0.868803 0.689113
0.696101 0.868925 0.688899
0.701625 0.869169 0.688472
0.710658 0.869535 0.687831
0.723415 0.870085 0.686854
0.740078 0.870787 0.685664
0.760708 0.871672 0.684108
0.785702 0.872801 0.683284
0.815702 0.874357 0.685542
0.847715 0.876188 0.688136
0.881010 0.878416 0.691310
0.914977 0.880980 0.694850
0.949218 0.883909 0.699031
0.976501 0.881590 0.704952
1.000000 0.878721 0.711788
1.000000 0.871214 0.720394
0.756130 0.913268 0.744839
0.758389 0.913420 0.744747
0.762539 0.913695 0.744503
0.769345 0.914122 0.744076
0.779019 0.914733 0.743618
0.791745 0.915526 0.742916
0.807614 0.916594 0.742123
0.826474 0.917876 0.741146
0.850126 0.919432 0.743099
0.876188 0.921324 0.746304
0.903746 0.923552 0.750118
0.931609 0.925261 0.754879
0.955322 0.922362 0.761349
0.976776 0.919585 0.768887
0.982940 0.906859 0.779721
0.985809 0.897520 0.791653
0.130190 0.153048 0.250217
0.134463 0.142397 0.256168
0.203525 0.140841 0.263310
0.305303 0.145663 0.271672
0.416968 0.152560 0.275700
0.505241 0.173678 0.272190
0.585992 0.204288 0.273106
0.660151 0.238224 0.278294
0.728786 0.271550 0.284642
0.791318 0.303227 0.292607
0.849638 0.328893 0.298314
0.902129 0.351781 0.303746
0.950927 0.373449 0.310124
0.996033 0.394934 0.318395
1.000000 0.416297 0.328618
1.000000 0.438270 0.341222
0.113680 0.170596 0.266636
0.165408 0.175113 0.269291
0.229709 0.180179 0.274998
0.315465 0.183474 0.281651
0.417517 0.190341 0.283757
0.504356 0.207034 0.281712
0.584771 0.232547 0.283391
0.659052 0.261112 0.287114
0.727596 0.290135 0.293065
0.790860 0.316991 0.298558
0.849363 0.339483 0.302647
0.901823 0.360967 0.308110
0.950561 0.381720 0.314611
0.995544 0.402441 0.322911
1.000000 0.423041 0.333074
1.000000 0.444587 0.345739
0.153841 0.213107 0.283787
0.200748 0.218326 0.286137
0.260166 0.226841 0.289555
0.328923 0.230594 0.294987
0.420264 0.237949 0.295933
0.504509 0.253056 0.296361
0.584039 0.272801 0.298344
0.657954 0.295720 0.301701
0.727138 0.317266 0.304173
0.790799 0.338231 0.306828
0.848844 0.358343 0.310948
0.901183 0.377478 0.315892
0.949737 0.396490 0.322667
0.994690 0.415686 0.330999
1.000000 0.435218 0.341100
1.000000 0.455726 0.353704
0.191653 0.268040 0.305577
0.228885 0.271122 0.307103
0.281712 0.276555 0.309209
0.345373 0.284825 0.312413
0.427253 0.293828 0.312963
0.508385 0.305699 0.313725
0.586084 0.320043 0.314458
0.659693 0.336126 0.315587
0.727901 0.353033 0.317266
0.790738 0.369879 0.320287
0.848081 0.386358 0.323766
0.900206 0.402502 0.328862
0.948608 0.419043 0.335302
0.993256 0.436316 0.343786
1.000000 0.454170 0.353674
1.000000 0.473365 0.366766
0.233463 0.329259 0.328832
0.262455 0.332280 0.330602
0.306584 0.337774 0.332616
0.363836 0.345708 0.332952
0.438300 0.353491 0.332280
0.515923 0.362463 0.332677
0.590784 0.372717 0.333104
0.662196 0.384497 0.334081
0.728847 0.396796 0.335424
0.790768 0.409461 0.338109
0.847135 0.422004 0.341711
0.898894 0.434943 0.346654
0.946899 0.448768 0.352850
0.991302 0.463600 0.361120
1.000000 0.479652 0.371801
1.000000 0.497230 0.384802
0.277745 0.396399 0.357397
0.300389 0.398657 0.358373
0.335424 0.402319 0.358679
0.384894 0.407965 0.356664
0.450629 0.414252 0.355200
0.523980 0.421729 0.355566
0.596948 0.429541 0.355688
0.665400 0.437385 0.356756
0.730190 0.445563 0.358038
0.790829 0.454383 0.360540
0.846006 0.463264 0.363745
0.897154 0.473182 0.368688
0.944610 0.484321 0.375372
0.988617 0.496803 0.383642
1.000000 0.510765 0.394293
1.000000 0.526787 0.407904
0.319432 0.460761 0.386938
0.336553 0.462135 0.386603
0.365789 0.464759 0.385962
0.408453 0.468727 0.383459
0.465614 0.473579 0.380957
0.532372 0.479194 0.381811
0.602106 0.486091 0.382635
0.669429 0.492073 0.383673
0.731930 0.496986 0.384741
0.790799 0.502403 0.386786
0.844694 0.508080 0.390539
0.895018 0.515282 0.395514
0.941924 0.524132 0.402045
