luts/Louellen ● 16.cube
# Created by Adobe Lightroom plugin Export LUT (1.16.0)
# www.johnrellis.com/lightroom/exportlut.htm
# Preset: Louellen ●
# Color profile: C:\Program Files (x86)\Common Files\Adobe\Color\Profiles\Recommended\sRGB Color Space Profile.icm
LUT_3D_SIZE 6
DOMAIN_MIN 0.0 0.0 0.0
DOMAIN_MAX 1.0 1.0 1.0
0.174868 0.132021 0.161837
0.334051 0.131533 0.156649
0.602991 0.152651 0.133577
0.809598 0.241245 0.162173
0.963256 0.326635 0.228122
1.000000 0.416510 0.330175
0.165408 0.231540 0.164675
0.367864 0.251530 0.163363
0.608209 0.282597 0.164126
0.807980 0.332280 0.181643
0.961181 0.382910 0.237491
1.000000 0.452644 0.341009
0.297185 0.444862 0.296605
0.407843 0.452430 0.292638
0.613489 0.471290 0.295293
0.803983 0.484413 0.301976
0.953216 0.502098 0.323247
1.000000 0.539178 0.373388
0.425513 0.621454 0.425025
0.484199 0.624414 0.421515
0.626978 0.633112 0.421363
0.800076 0.641321 0.430030
0.939879 0.644343 0.451362
1.000000 0.666804 0.496651
0.569024 0.777218 0.572961
0.600122 0.778225 0.570855
0.685328 0.781155 0.567010
0.814878 0.787442 0.574395
0.934691 0.785794 0.589349
1.000000 0.795163 0.627955
0.755367 0.912993 0.738552
0.768856 0.913817 0.737819
0.807797 0.916258 0.735927
0.877379 0.920989 0.741207
0.956909 0.922271 0.756710
0.986908 0.896880 0.787839
0.130190 0.153048 0.250217
0.305303 0.145663 0.271672
0.585992 0.204288 0.273106
0.791318 0.303227 0.292607
0.950927 0.373449 0.310124
1.000000 0.438270 0.341222
0.191653 0.268040 0.305577
0.345373 0.284825 0.312413
0.586084 0.320043 0.314458
0.790738 0.369879 0.320287
0.948608 0.419043 0.335302
1.000000 0.473365 0.366766
0.319432 0.460761 0.386938
0.408453 0.468727 0.383459
0.602106 0.486091 0.382635
0.790799 0.502403 0.386786
0.941924 0.524132 0.402045
1.000000 0.560937 0.435523
0.441016 0.629175 0.484474
0.492744 0.632197 0.481941
0.623621 0.640528 0.477729
0.791806 0.649592 0.484352
0.931243 0.655970 0.501793
1.000000 0.679896 0.538293
0.581659 0.779477 0.606348
0.609583 0.780636 0.604242
0.686702 0.783536 0.598047
0.811185 0.790005 0.603937
0.929534 0.790311 0.616083
1.000000 0.801205 0.649134
0.756802 0.913542 0.751308
0.769711 0.914397 0.750546
0.807340 0.916899 0.748440
0.874846 0.921691 0.751522
0.953704 0.922423 0.766049
0.984649 0.898161 0.795560
0.002197 0.263005 0.452033
0.281651 0.282139 0.460487
0.534508 0.308110 0.473060
0.767025 0.363470 0.468635
0.926055 0.442664 0.479713
1.000000 0.512688 0.505425
0.235721 0.362860 0.479774
0.358129 0.376989 0.482582
0.545983 0.388281 0.490852
0.762661 0.427649 0.489174
0.921599 0.484688 0.499916
1.000000 0.538018 0.517662
0.336706 0.500755 0.528588
0.421515 0.506371 0.529717
0.573175 0.520073 0.531640
0.761135 0.543481 0.534417
0.916197 0.571954 0.541741
1.000000 0.607996 0.557092
0.460121 0.649073 0.591699
0.510307 0.651789 0.593011
0.618189 0.658839 0.590753
0.772122 0.669520 0.590692
0.912047 0.682918 0.600336
1.000000 0.708797 0.621027
0.585870 0.788083 0.667506
0.619532 0.788449 0.669368
0.693172 0.790524 0.669154
0.800778 0.796719 0.666041
0.917723 0.801144 0.673243
1.000000 0.815152 0.696559
0.744686 0.916442 0.776364
0.765164 0.916564 0.780148
0.803647 0.918822 0.780148
0.865476 0.923735 0.777249
0.944610 0.922881 0.789822
0.978729 0.901518 0.815457
0.143740 0.410742 0.639704
0.308965 0.425696 0.641688
0.509026 0.450721 0.645472
0.713619 0.466804 0.648127
0.894316 0.515740 0.638453
1.000000 0.617609 0.669337
0.289250 0.473823 0.651392
0.385107 0.485176 0.652003
0.538628 0.503044 0.653864
0.717830 0.510430 0.655238
0.890501 0.551385 0.648493
1.000000 0.635401 0.675898
0.399756 0.571618 0.674067
0.466468 0.579156 0.674250
0.596094 0.597620 0.674037
0.729000 0.599237 0.672999
0.884916 0.629664 0.673793
1.000000 0.675227 0.687892
0.498390 0.682948 0.704372
0.541039 0.685389 0.704189
0.636683 0.691249 0.703212
0.747921 0.696864 0.699062
0.891905 0.714870 0.700893
1.000000 0.738705 0.706966
0.589532 0.804135 0.750484
0.617823 0.804562 0.750210
0.687709 0.805844 0.748745
0.785458 0.808621 0.744747
0.901610 0.816800 0.744564
1.000000 0.833402 0.758053
0.673243 0.925231 0.807553
0.692073 0.925170 0.806729
0.770382 0.924804 0.817258
0.851316 0.927672 0.825132
0.928649 0.923674 0.828244
0.968383 0.907164 0.848508
0.344091 0.559319 0.792020
0.429664 0.573602 0.791714
0.579339 0.604639 0.790921
0.716335 0.623407 0.790097
0.863127 0.632776 0.787716
0.982879 0.673762 0.777127
0.407874 0.594934 0.795315
0.477058 0.607385 0.794949
0.605280 0.633570 0.793942
0.728420 0.649836 0.792813
0.863340 0.654414 0.790341
0.981384 0.691035 0.782132
0.485145 0.659724 0.804196
0.536217 0.668055 0.803799
0.650996 0.691463 0.802762
0.753841 0.705531 0.800870
0.865171 0.702876 0.797848
0.980224 0.732174 0.795102
0.567163 0.741421 0.819303
0.600000 0.744930 0.819120
0.677333 0.753780 0.818479
0.780514 0.769162 0.816892
0.870451 0.764767 0.811582
0.983307 0.790005 0.815427
0.638239 0.825528 0.840818
0.660700 0.827054 0.840879
0.718410 0.831144 0.840970
0.798001 0.837095 0.840360
0.879759 0.838682 0.833188
0.995331 0.855192 0.835782
0.678187 0.935210 0.891295
0.696834 0.935332 0.890776
0.745937 0.935973 0.889311
0.821256 0.933227 0.883787
0.917754 0.923125 0.888487
0.951720 0.915892 0.897887
0.602014 0.729397 0.919707
0.646509 0.742458 0.918914
0.732723 0.769497 0.917876
0.818936 0.796902 0.917449
0.887053 0.803891 0.918181
0.970886 0.807858 0.918120
0.612268 0.741207 0.921019
0.655055 0.753445 0.920226
0.739590 0.779477 0.919127
0.825010 0.807156 0.918822
0.889311 0.812741 0.919554
0.970916 0.815274 0.919554
0.607416 0.761471 0.925566
0.651148 0.772427 0.924773
0.744350 0.799283 0.923247
0.832090 0.827024 0.923064
0.894438 0.834531 0.923857
0.971435 0.834348 0.923919
0.605280 0.800809 0.933715
0.632349 0.804257 0.933318
0.700008 0.813657 0.932219
0.828336 0.848356 0.926848
0.901793 0.867063 0.923247
0.963195 0.866545 0.922087
0.675349 0.857725 0.927977
0.695430 0.859739 0.927459
0.747768 0.865446 0.926024
0.822812 0.875639 0.923552
0.915190 0.899931 0.918761
0.947845 0.912200 0.916472
0.749966 0.905333 0.920867
0.764797 0.906188 0.920531
0.804501 0.908843 0.919524
0.865690 0.913359 0.917876
0.940246 0.918761 0.915709
0.945373 0.919127 0.915557
