luts/Merivale ●●● 16.cube
# Created by Adobe Lightroom plugin Export LUT (1.16.0)
# www.johnrellis.com/lightroom/exportlut.htm
# Preset: Merivale ●●●
# Color profile: C:\Program Files (x86)\Common Files\Adobe\Color\Profiles\Recommended\sRGB Color Space Profile.icm
LUT_3D_SIZE 6
DOMAIN_MIN 0.0 0.0 0.0
DOMAIN_MAX 1.0 1.0 1.0
0.019135 0.022370 0.010285
0.342687 0.101564 0.000000
0.565759 0.166812 0.000000
0.766812 0.217350 0.000000
0.926574 0.250340 0.000000
1.000000 0.270481 0.000000
0.005219 0.172854 0.048707
0.286442 0.194797 0.000000
0.537865 0.237308 0.000000
0.752041 0.263188 0.000000
0.916106 0.278965 0.000000
1.000000 0.289464 0.000000
0.018006 0.317327 0.093324
0.260197 0.325628 0.057862
0.524346 0.331914 0.000000
0.744778 0.336736 0.000000
0.917754 0.344121 0.000000
1.000000 0.339055 0.000000
0.115724 0.432807 0.153414
0.258091 0.437293 0.124666
0.508782 0.433448 0.083497
0.737453 0.425513 0.000000
0.920500 0.411872 0.000000
1.000000 0.405310 0.000000
0.211368 0.541009 0.267887
0.337316 0.544518 0.259220
0.541283 0.546685 0.213321
0.770687 0.534264 0.154726
0.942901 0.513207 0.000000
1.000000 0.483192 0.000000
0.322454 0.690486 0.473823
0.433143 0.685634 0.463783
0.606592 0.688685 0.430091
0.836149 0.690089 0.404517
0.989075 0.665492 0.338140
1.000000 0.622034 0.153567
0.000000 0.180240 0.136294
0.247196 0.184512 0.107790
0.524315 0.219333 0.000000
0.735836 0.267765 0.000000
0.908324 0.292485 0.000000
1.000000 0.295415 0.000000
0.000000 0.241978 0.133272
0.233433 0.260807 0.114107
0.511070 0.269627 0.007355
0.733852 0.291325 0.000000
0.905577 0.312932 0.000000
1.000000 0.310491 0.000000
0.000000 0.348363 0.154665
0.229496 0.359655 0.140047
0.502434 0.359075 0.070741
0.727108 0.353460 0.000000
0.906767 0.353704 0.000000
1.000000 0.353094 0.000000
0.058808 0.450263 0.211093
0.257145 0.453895 0.197421
0.501823 0.454475 0.155276
0.727291 0.441382 0.039734
0.913146 0.424659 0.000000
1.000000 0.411292 0.000000
0.155154 0.551568 0.319768
0.305821 0.553979 0.311009
0.521416 0.557855 0.268406
0.763699 0.546288 0.222141
0.937987 0.525200 0.082765
1.000000 0.493996 0.000000
0.220249 0.696498 0.499428
0.373022 0.691859 0.489052
0.589532 0.695033 0.465034
0.820462 0.695949 0.436408
0.982238 0.673335 0.377325
1.000000 0.630518 0.215244
0.000000 0.283330 0.226932
0.000000 0.282811 0.219760
0.437446 0.317235 0.203494
0.710689 0.320958 0.087922
0.894682 0.329046 0.000000
1.000000 0.334295 0.000000
0.000000 0.319554 0.233829
0.000000 0.322759 0.227878
0.440192 0.357000 0.217563
0.702785 0.350713 0.111666
0.890227 0.349462 0.000000
1.000000 0.342535 0.000000
0.000000 0.381384 0.254337
0.000000 0.393042 0.254948
0.448310 0.428412 0.256107
0.693843 0.412238 0.167300
0.890379 0.396185 0.000000
1.000000 0.375738 0.000000
0.000000 0.465248 0.307866
0.129458 0.475105 0.312322
0.456275 0.497719 0.317601
0.702724 0.485176 0.250187
0.898924 0.464363 0.121340
1.000000 0.436988 0.000000
0.000000 0.566522 0.418250
0.072358 0.572656 0.420844
0.474739 0.582544 0.414252
0.736660 0.578729 0.374670
0.922087 0.557763 0.277195
1.000000 0.524010 0.013336
0.000000 0.710872 0.561883
0.000000 0.708064 0.552911
0.494820 0.706874 0.540826
0.765164 0.710323 0.509697
0.961547 0.695003 0.468452
1.000000 0.654841 0.345708
0.000000 0.366308 0.348516
0.000000 0.365850 0.345464
0.077028 0.378820 0.347723
0.623590 0.424201 0.370886
0.862943 0.422217 0.266392
1.000000 0.417334 0.138003
0.000000 0.389990 0.364080
0.000000 0.387854 0.359106
0.129702 0.402472 0.361089
0.625513 0.443732 0.384894
0.859068 0.436896 0.282444
1.000000 0.424475 0.144533
0.000000 0.426947 0.383001
0.000000 0.431952 0.385199
0.195956 0.450080 0.391699
0.632441 0.489113 0.421851
0.858640 0.473701 0.325109
1.000000 0.449348 0.165133
0.000000 0.488136 0.431556
0.000000 0.493324 0.434089
0.238651 0.510735 0.445106
0.651392 0.551598 0.482582
0.873167 0.525566 0.380407
1.000000 0.488746 0.188602
0.000000 0.567987 0.513420
0.000000 0.573083 0.515404
0.144350 0.590478 0.523369
0.656519 0.625360 0.543969
0.885863 0.610895 0.483253
1.000000 0.576226 0.334295
0.000000 0.700435 0.625299
0.000000 0.704005 0.619196
0.000000 0.728725 0.623194
0.650507 0.732876 0.614069
0.917662 0.730983 0.584131
1.000000 0.697230 0.505669
0.000000 0.459083 0.538445
0.000000 0.461067 0.535119
0.000000 0.456886 0.527550
0.341955 0.474617 0.528923
0.802060 0.531548 0.570520
0.971984 0.550439 0.519524
0.000000 0.475929 0.548425
0.000000 0.471717 0.542870
0.000000 0.469856 0.536584
0.353033 0.486397 0.536522
0.801114 0.541100 0.574975
0.969726 0.554284 0.520623
0.000000 0.497810 0.560815
0.000000 0.496315 0.558770
0.000000 0.497261 0.553582
0.364996 0.513298 0.554009
0.805234 0.569940 0.592554
0.975311 0.579919 0.543389
0.000000 0.539513 0.592035
0.000000 0.539635 0.591089
0.000000 0.540948 0.586969
0.335485 0.554223 0.586053
0.816037 0.618311 0.623011
0.988312 0.615869 0.567590
0.000000 0.600641 0.637568
0.000000 0.602319 0.637324
0.000000 0.608698 0.636530
0.339849 0.626123 0.636713
0.832181 0.692348 0.667872
1.000000 0.659663 0.581384
0.000000 0.713863 0.736049
0.000000 0.715236 0.731594
0.000000 0.724666 0.727321
0.000000 0.743801 0.712459
0.810666 0.771237 0.701534
1.000000 0.759915 0.656489
0.000000 0.578454 0.762875
0.000000 0.582757 0.761349
0.000000 0.582818 0.756039
0.000000 0.586206 0.743587
0.668269 0.614954 0.728237
0.944030 0.696651 0.735988
0.000000 0.584802 0.766781
0.000000 0.588617 0.764675
0.000000 0.588067 0.758358
0.000000 0.590387 0.744442
0.655207 0.613825 0.725063
0.940551 0.694087 0.732418
0.000000 0.596735 0.776181
0.000000 0.601068 0.775265
0.000000 0.604852 0.770748
0.000000 0.608148 0.758175
0.637781 0.627558 0.734463
0.942626 0.711879 0.742702
0.000000 0.622614 0.797543
0.000000 0.623896 0.796628
0.000000 0.627680 0.793545
0.000000 0.633539 0.783169
0.605921 0.657771 0.758633
0.944701 0.739376 0.758816
0.000000 0.669673 0.827298
0.000000 0.671443 0.826780
0.000000 0.677180 0.825376
0.000000 0.681666 0.821378
0.443915 0.702968 0.801816
0.946441 0.781674 0.784695
0.000000 0.744778 0.844602
0.000000 0.746822 0.843503
0.000000 0.754971 0.842466
0.000000 0.772244 0.840330
0.000000 0.796750 0.833371
0.942870 0.841337 0.821164
