luts/Merivale ●●● 16.cube
# Created by Adobe Lightroom plugin Export LUT (1.16.0)
# www.johnrellis.com/lightroom/exportlut.htm
# Preset: Merivale ●●●
# Color profile: C:\Program Files (x86)\Common Files\Adobe\Color\Profiles\Recommended\sRGB Color Space Profile.icm
LUT_3D_SIZE 16
DOMAIN_MIN 0.0 0.0 0.0
DOMAIN_MAX 1.0 1.0 1.0
0.019135 0.022370 0.010285
0.133608 0.038392 0.004364
0.250217 0.072511 0.000000
0.342687 0.101564 0.000000
0.420172 0.125429 0.000000
0.495644 0.147219 0.000000
0.565759 0.166812 0.000000
0.637903 0.185458 0.000000
0.705013 0.202731 0.000000
0.766812 0.217350 0.000000
0.823667 0.230198 0.000000
0.876646 0.241093 0.000000
0.926574 0.250340 0.000000
0.975158 0.258457 0.000000
1.000000 0.265263 0.000000
1.000000 0.270481 0.000000
0.016205 0.076143 0.024323
0.127321 0.086030 0.008209
0.231388 0.108736 0.000000
0.326116 0.129274 0.000000
0.408301 0.147158 0.000000
0.485115 0.164889 0.000000
0.561212 0.182437 0.000000
0.634089 0.199313 0.000000
0.701289 0.213962 0.000000
0.764279 0.226780 0.000000
0.821469 0.237888 0.000000
0.874601 0.247532 0.000000
0.924468 0.255680 0.000000
0.973388 0.263035 0.000000
1.000000 0.269352 0.000000
1.000000 0.274144 0.000000
0.010956 0.124239 0.035431
0.109377 0.127596 0.022950
0.209293 0.142580 0.000397
0.306523 0.160494 0.000000
0.391516 0.177768 0.000000
0.474891 0.193423 0.000000
0.552941 0.207706 0.000000
0.626551 0.220310 0.000000
0.695399 0.231907 0.000000
0.760342 0.242222 0.000000
0.817899 0.251041 0.000000
0.871458 0.258610 0.000000
0.921477 0.265110 0.000000
0.971374 0.271244 0.000000
1.000000 0.276402 0.000000
1.000000 0.280674 0.000000
0.005219 0.172854 0.048707
0.091341 0.175998 0.033936
0.186374 0.179782 0.020203
0.286442 0.194797 0.000000
0.378210 0.208438 0.000000
0.460517 0.222721 0.000000
0.537865 0.237308 0.000000
0.613397 0.247013 0.000000
0.686213 0.255802 0.000000
0.752041 0.263188 0.000000
0.810147 0.269139 0.000000
0.864286 0.274266 0.000000
0.916106 0.278965 0.000000
0.965759 0.283238 0.000000
1.000000 0.286473 0.000000
1.000000 0.289464 0.000000
0.004059 0.221653 0.062959
0.079866 0.225620 0.049134
0.179171 0.229801 0.036805
0.271397 0.235569 0.013458
0.367773 0.246159 0.000000
0.458259 0.255924 0.000000
0.537713 0.265080 0.000000
0.614038 0.275669 0.000000
0.686458 0.286198 0.000000
0.753506 0.290715 0.000000
0.812741 0.293980 0.000000
0.868864 0.296849 0.000000
0.922423 0.299443 0.000000
0.972961 0.301671 0.000000
1.000000 0.303319 0.000000
1.000000 0.304021 0.000000
0.005493 0.270756 0.078004
0.092073 0.274357 0.070832
0.168154 0.278386 0.053895
0.264897 0.279515 0.038636
0.353521 0.284398 0.003998
0.445380 0.290623 0.000000
0.532555 0.296391 0.000000
0.610468 0.301946 0.000000
0.683223 0.308537 0.000000
0.748867 0.314611 0.000000
0.807828 0.319432 0.000000
0.865721 0.320287 0.000000
0.920012 0.320836 0.000000
0.970916 0.321233 0.000000
1.000000 0.321080 0.000000
1.000000 0.320348 0.000000
0.018006 0.317327 0.093324
0.098878 0.320256 0.087953
0.163882 0.323796 0.071473
0.260197 0.325628 0.057862
0.348150 0.324865 0.037873
0.435920 0.328801 0.000000
0.524346 0.331914 0.000000
0.608270 0.333959 0.000000
0.679744 0.334966 0.000000
0.744778 0.336736 0.000000
0.804959 0.339635 0.000000
0.863005 0.343572 0.000000
0.917754 0.344121 0.000000
0.969177 0.342718 0.000000
1.000000 0.341070 0.000000
1.000000 0.339055 0.000000
0.048249 0.359808 0.110536
0.112947 0.362951 0.106447
0.175662 0.366705 0.094087
0.254643 0.368353 0.078279
0.349371 0.368444 0.063630
0.431281 0.366461 0.033570
0.513420 0.366186 0.000000
0.595514 0.365515 0.000000
0.673610 0.364416 0.000000
0.739376 0.362646 0.000000
0.801297 0.362066 0.000000
0.860410 0.362951 0.000000
0.915068 0.364813 0.000000
0.965911 0.365209 0.000000
1.000000 0.362036 0.000000
1.000000 0.359045 0.000000
0.078187 0.394263 0.127962
0.127291 0.395544 0.124361
0.191775 0.398444 0.117647
0.249485 0.401038 0.098360
0.340124 0.402167 0.086030
0.426673 0.400336 0.071290
0.506615 0.399603 0.031922
0.587671 0.398749 0.000000
0.667597 0.397070 0.000000
0.741115 0.393957 0.000000
0.805631 0.390997 0.000000
0.866178 0.388800 0.000000
0.921721 0.387457 0.000000
0.972137 0.387396 0.000000
1.000000 0.386755 0.000000
1.000000 0.381994 0.000000
0.115724 0.432807 0.153414
0.154360 0.433173 0.150179
0.209415 0.434760 0.144350
0.258091 0.437293 0.124666
0.338018 0.437446 0.112886
0.428687 0.437140 0.100313
0.508782 0.433448 0.083497
0.587335 0.432227 0.037171
0.665156 0.429694 0.000000
0.737453 0.425513 0.000000
0.804410 0.420447 0.000000
0.864652 0.415869 0.000000
0.920500 0.411872 0.000000
0.972290 0.408942 0.000000
1.000000 0.407355 0.000000
1.000000 0.405310 0.000000
0.153079 0.469947 0.185519
0.184512 0.470314 0.182681
0.233280 0.471229 0.177768
0.291295 0.472938 0.167117
0.347478 0.473671 0.146609
0.433326 0.472999 0.134920
0.519799 0.471321 0.121767
0.595270 0.466743 0.098268
0.669825 0.463325 0.050263
0.739925 0.458198 0.000000
0.805173 0.452216 0.000000
0.864164 0.445380 0.000000
0.920592 0.439918 0.000000
0.972747 0.435004 0.000000
1.000000 0.430365 0.000000
1.000000 0.426764 0.000000
0.188052 0.507256 0.225925
0.215000 0.507469 0.223392
0.258793 0.508141 0.219089
0.318242 0.509300 0.212253
0.363439 0.510613 0.187167
0.440467 0.509392 0.174350
0.529351 0.508080 0.162509
0.609461 0.503319 0.149203
0.680140 0.498054 0.119112
0.748104 0.492439 0.070924
0.811704 0.485908 0.000000
0.869841 0.478553 0.000000
0.922026 0.470527 0.000000
0.973053 0.464118 0.000000
1.000000 0.457893 0.000000
1.000000 0.451484 0.000000
0.211368 0.541009 0.267887
0.236790 0.541588 0.266331
0.279332 0.542870 0.263890
0.337316 0.544518 0.259220
0.381231 0.547784 0.234745
0.454139 0.547173 0.223026
0.541283 0.546685 0.213321
0.628290 0.545098 0.202335
0.703029 0.539117 0.189090
0.770687 0.534264 0.154726
0.834318 0.528466 0.110353
0.891691 0.521294 0.036835
0.942901 0.513207 0.000000
0.986267 0.503166 0.000000
1.000000 0.493751 0.000000
1.000000 0.483192 0.000000
0.252567 0.588373 0.335943
0.271580 0.585718 0.329473
0.308965 0.585016 0.324651
0.364477 0.585595 0.320043
0.431067 0.587304 0.314366
0.476631 0.588647 0.285222
0.554223 0.587945 0.273045
0.642634 0.587427 0.263615
0.726070 0.585901 0.253330
0.791073 0.577661 0.232944
0.852140 0.571466 0.197024
0.906767 0.563561 0.151797
0.955291 0.554498 0.089418
0.996735 0.543389 0.000000
1.000000 0.530358 0.000000
1.000000 0.517693 0.000000
0.284031 0.635523 0.402045
0.302403 0.632837 0.396094
0.339330 0.631586 0.391547
0.394720 0.631495 0.387945
0.463416 0.632349 0.386145
0.504967 0.634699 0.358221
0.574182 0.634333 0.345129
0.657465 0.633997 0.335454
0.740871 0.633631 0.325628
0.813809 0.629236 0.314763
0.871580 0.620813 0.287846
0.923827 0.612421 0.250706
0.970245 0.602899 0.206912
1.000000 0.591424 0.147585
1.000000 0.577722 0.039948
1.000000 0.560357 0.000000
0.322454 0.690486 0.473823
0.340581 0.687678 0.468818
0.377691 0.686152 0.465644
0.433143 0.685634 0.463783
0.500389 0.685939 0.463355
0.547723 0.688258 0.444892
0.606592 0.688685 0.430091
0.678553 0.688746 0.418860
0.759976 0.689784 0.411872
0.836149 0.690089 0.404517
0.896391 0.682582 0.397192
0.945403 0.674525 0.369787
0.989075 0.665492 0.338140
1.000000 0.654017 0.296147
1.000000 0.639979 0.239292
1.000000 0.622034 0.153567
0.000000 0.073732 0.057801
0.108186 0.085573 0.048615
0.234195 0.101045 0.015106
0.324712 0.129335 0.000000
0.397284 0.158145 0.000000
0.473793 0.180179 0.000000
0.549584 0.197177 0.000000
0.623560 0.212009 0.000000
0.692775 0.224796 0.000000
0.757504 0.236027 0.000000
0.816495 0.245518 0.000000
0.870329 0.253666 0.000000
0.920897 0.260472 0.000000
0.970275 0.266606 0.000000
1.000000 0.271733 0.000000
1.000000 0.275669 0.000000
0.000000 0.112062 0.063416
0.099123 0.119326 0.051392
0.211704 0.129763 0.026276
0.306676 0.148989 0.000000
0.389899 0.170169 0.000000
0.468879 0.191653 0.000000
0.547112 0.209262 0.000000
0.621790 0.222385 0.000000
0.691585 0.233799 0.000000
0.757626 0.243839 0.000000
0.816220 0.252354 0.000000
0.869902 0.259403 0.000000
0.920043 0.265385 0.000000
0.969390 0.270848 0.000000
1.000000 0.275395 0.000000
1.000000 0.279026 0.000000
0.000000 0.151095 0.066102
0.092073 0.158999 0.058045
0.197482 0.164218 0.037110
0.294835 0.175387 0.005371
0.382300 0.190707 0.000000
0.465553 0.208530 0.000000
0.543877 0.225772 0.000000
0.618189 0.239261 0.000000
0.690608 0.249088 0.000000
0.756344 0.257176 0.000000
0.813993 0.263645 0.000000
0.867399 0.269108 0.000000
0.917967 0.273960 0.000000
0.967864 0.278416 0.000000
1.000000 0.282109 0.000000
1.000000 0.284977 0.000000
0.000000 0.197513 0.075654
0.086824 0.200320 0.067475
0.182101 0.202213 0.052155
0.280552 0.210544 0.021881
0.372381 0.219699 0.000000
0.456733 0.231113 0.000000
0.535760 0.244083 0.000000
0.611658 0.257389 0.000000
0.683986 0.269383 0.000000
0.749935 0.275212 0.000000
0.808438 0.279637 0.000000
0.862852 0.283513 0.000000
0.915892 0.287144 0.000000
0.965698 0.290074 0.000000
1.000000 0.292180 0.000000
1.000000 0.293767 0.000000
0.000000 0.237522 0.084016
0.083131 0.240360 0.077211
0.168978 0.243900 0.061341
0.263890 0.246159 0.042908
0.356970 0.252873 0.004791
0.446174 0.260105 0.000000
0.527031 0.267979 0.000000
0.604578 0.277256 0.000000
0.677516 0.287144 0.000000
0.743984 0.296452 0.000000
0.804318 0.300389 0.000000
0.861906 0.302861 0.000000
0.916960 0.304967 0.000000
0.968353 0.306584 0.000000
1.000000 0.307408 0.000000
1.000000 0.307530 0.000000
0.000000 0.281163 0.094514
0.082979 0.283726 0.088838
0.159609 0.287266 0.073518
0.258488 0.288670 0.059998
0.346654 0.290959 0.030549
0.437598 0.295689 0.000000
0.523430 0.299687 0.000000
0.601251 0.303960 0.000000
0.674678 0.309514 0.000000
0.740963 0.315129 0.000000
0.801175 0.320806 0.000000
0.859556 0.324895 0.000000
0.914885 0.325109 0.000000
0.966369 0.324895 0.000000
1.000000 0.324193 0.000000
1.000000 0.323186 0.000000
0.004944 0.325261 0.107576
0.090944 0.327581 0.103120
0.169741 0.330449 0.092073
0.252873 0.332097 0.075074
0.343633 0.330571 0.059846
0.430152 0.333349 0.017426
0.516991 0.334997 0.000000
0.599359 0.336004 0.000000
0.672358 0.336858 0.000000
0.738338 0.338048 0.000000
0.798917 0.340246 0.000000
0.857267 0.343786 0.000000
0.912261 0.347082 0.000000
0.964294 0.345434 0.000000
1.000000 0.343420 0.000000
1.000000 0.341222 0.000000
0.032166 0.364782 0.122652
0.104921 0.366979 0.118898
0.178744 0.369329 0.110994
0.246677 0.371405 0.091798
0.342229 0.371466 0.078431
0.425116 0.369238 0.055207
0.507591 0.369085 0.005066
0.589654 0.368231 0.000000
0.667750 0.366674 0.000000
0.733761 0.364538 0.000000
0.795956 0.363409 0.000000
0.855467 0.363622 0.000000
0.911009 0.365057 0.000000
0.961944 0.367346 0.000000
1.000000 0.363989 0.000000
1.000000 0.360632 0.000000
0.070771 0.400031 0.140047
0.123384 0.401068 0.136660
0.187961 0.402991 0.130129
0.246708 0.405646 0.111208
0.335424 0.406043 0.099123
0.425086 0.405188 0.084871
0.503899 0.402960 0.054108
0.584558 0.401770 0.000000
0.663935 0.399664 0.000000
0.737057 0.396246 0.000000
0.801694 0.392950 0.000000
0.862516 0.390387 0.000000
0.918486 0.388495 0.000000
0.969879 0.387945 0.000000
1.000000 0.388739 0.000000
1.000000 0.384009 0.000000
0.109743 0.436378 0.164309
0.149905 0.436866 0.161196
0.205997 0.438117 0.155642
0.263706 0.440650 0.140444
0.334112 0.441047 0.124514
0.426062 0.440681 0.113069
0.506493 0.436378 0.098451
0.584680 0.434791 0.059174
0.661830 0.431952 0.000000
0.733730 0.427436 0.000000
0.800259 0.422095 0.000000
0.860990 0.417456 0.000000
0.917662 0.413397 0.000000
0.970336 0.410193 0.000000
1.000000 0.408118 0.000000
1.000000 0.406989 0.000000
0.147829 0.472633 0.195865
0.180453 0.473243 0.193332
0.229801 0.474128 0.188632
0.293980 0.475471 0.180880
0.345800 0.476631 0.158022
0.429908 0.475593 0.145937
0.516899 0.473518 0.133089
0.592554 0.468696 0.111818
0.666743 0.465156 0.070039
0.736690 0.459876 0.000000
0.801755 0.453712 0.000000
0.860960 0.446784 0.000000
0.917876 0.441413 0.000000
0.970672 0.436439 0.000000
1.000000 0.431556 0.000000
1.000000 0.427466 0.000000
0.180697 0.508995 0.235203
0.209628 0.509270 0.232822
0.253971 0.509819 0.228580
0.313756 0.510857 0.221714
0.360876 0.512718 0.197360
0.436469 0.511437 0.184054
0.526360 0.510094 0.172915
0.607843 0.505730 0.159945
0.677913 0.499825 0.131838
0.745571 0.494026 0.087709
0.808927 0.487282 0.012146
0.866941 0.479774 0.000000
0.919036 0.471595 0.000000
0.970336 0.465064 0.000000
1.000000 0.458717 0.000000
1.000000 0.452064 0.000000
0.204654 0.543664 0.278386
0.231479 0.544121 0.276677
0.274571 0.545190 0.274083
0.333318 0.546624 0.269291
0.389105 0.549218 0.252720
0.452308 0.549340 0.233677
0.538323 0.548760 0.223423
0.626307 0.547173 0.212802
0.701686 0.541100 0.200412
0.769253 0.536187 0.166995
0.832761 0.530266 0.125063
0.890227 0.523033 0.062318
0.941680 0.515007 0.000000
0.985229 0.505028 0.000000
1.000000 0.495766 0.000000
1.000000 0.485115 0.000000
0.243687 0.590234 0.344610
0.264286 0.587793 0.338476
0.303044 0.587121 0.333745
0.359777 0.587610 0.329168
0.429267 0.589075 0.324773
0.474952 0.590723 0.295506
0.550805 0.589807 0.282322
0.639826 0.589136 0.272801
0.723568 0.587457 0.262516
0.789395 0.579339 0.242954
0.850492 0.573022 0.207675
0.905425 0.565148 0.164065
0.954162 0.556176 0.106172
0.995911 0.545190 0.000000
1.000000 0.532280 0.000000
1.000000 0.519738 0.000000
0.273503 0.637018 0.408881
0.293248 0.634516 0.403326
0.331579 0.633387 0.398962
0.388312 0.633356 0.395453
0.458473 0.634119 0.393469
0.503105 0.636622 0.367254
0.572381 0.636103 0.354101
0.654444 0.635523 0.343481
0.738125 0.635065 0.333501
0.812100 0.631037 0.322484
0.869902 0.622278 0.296452
0.922423 0.613855 0.259800
0.969085 0.604364 0.216861
1.000000 0.592950 0.159915
1.000000 0.579431 0.066133
1.000000 0.562188 0.000000
0.308934 0.691768 0.478828
0.328649 0.689143 0.474067
0.367468 0.687648 0.470802
0.425055 0.687129 0.468940
0.494026 0.687373 0.468391
0.554040 0.689021 0.458564
0.604395 0.690211 0.437110
0.675227 0.690120 0.425147
0.757015 0.690913 0.418036
0.833738 0.691157 0.410407
0.894804 0.683864 0.403479
0.943969 0.675746 0.376104
0.987732 0.666499 0.344335
1.000000 0.655024 0.302861
1.000000 0.641047 0.247044
1.000000 0.623194 0.164126
0.000000 0.135470 0.104005
0.000000 0.134737 0.096223
0.183139 0.136507 0.080598
0.303471 0.144656 0.038605
0.384710 0.165377 0.000000
0.458747 0.188449 0.000000
0.532891 0.211063 0.000000
0.605890 0.230869 0.000000
0.676875 0.247745 0.000000
0.745327 0.257206 0.000000
0.806424 0.264378 0.000000
0.862303 0.270298 0.000000
0.914763 0.274815 0.000000
0.966186 0.278965 0.000000
1.000000 0.282109 0.000000
1.000000 0.284062 0.000000
0.000000 0.156558 0.101106
0.006867 0.156222 0.093751
0.173129 0.162356 0.080537
0.283909 0.168460 0.049287
0.370153 0.182528 0.010498
0.451667 0.201328 0.000000
0.530388 0.219730 0.000000
0.605707 0.236759 0.000000
0.678035 0.252842 0.000000
0.746029 0.263676 0.000000
0.806668 0.270024 0.000000
0.862181 0.275120 0.000000
0.914366 0.279057 0.000000
0.965484 0.282719 0.000000
1.000000 0.285405 0.000000
1.000000 0.287144 0.000000
0.000000 0.183597 0.100832
0.019593 0.185550 0.094667
0.166323 0.194247 0.083528
0.270085 0.198154 0.060334
0.362676 0.207279 0.023560
0.449470 0.219608 0.000000
0.530297 0.233371 0.000000
0.605737 0.247318 0.000000
0.679561 0.262028 0.000000
0.745754 0.274662 0.000000
0.805051 0.279606 0.000000
0.860136 0.283391 0.000000
0.912810 0.286564 0.000000
0.963989 0.289464 0.000000
1.000000 0.291386 0.000000
1.000000 0.292668 0.000000
0.000000 0.215793 0.101625
0.049531 0.219699 0.097475
0.160494 0.228519 0.088991
0.262272 0.231510 0.069642
0.356329 0.236057 0.035615
0.443366 0.243320 0.000000
0.524743 0.252415 0.000000
0.602960 0.263340 0.000000
0.676051 0.274662 0.000000
0.741817 0.285191 0.000000
0.800565 0.293248 0.000000
0.856352 0.295903 0.000000
0.911162 0.298314 0.000000
0.962036 0.299718 0.000000
1.000000 0.300481 0.000000
1.000000 0.300664 0.000000
0.000000 0.253269 0.107088
0.051057 0.258213 0.104311
0.155093 0.263005 0.095491
0.251774 0.264439 0.080354
0.345525 0.268162 0.051881
0.434821 0.272160 0.006439
0.517601 0.277440 0.000000
0.596338 0.284092 0.000000
0.670588 0.291722 0.000000
0.737881 0.299626 0.000000
0.798154 0.307195 0.000000
0.856474 0.313329 0.000000
0.912840 0.314549 0.000000
0.965301 0.315099 0.000000
1.000000 0.314824 0.000000
1.000000 0.313878 0.000000
0.000000 0.295079 0.116793
0.053773 0.298405 0.113924
0.154299 0.301701 0.105226
0.246036 0.304631 0.088838
0.338750 0.304875 0.070253
0.429603 0.307469 0.029908
0.515251 0.309361 0.000000
0.594202 0.311864 0.000000
0.668788 0.315435 0.000000
0.735866 0.319219 0.000000
0.797024 0.323735 0.000000
0.855711 0.329259 0.000000
0.911254 0.333104 0.000000
0.963653 0.332158 0.000000
1.000000 0.330632 0.000000
1.000000 0.328801 0.000000
0.000000 0.336492 0.129213
0.066682 0.338720 0.125887
0.158663 0.341375 0.118044
0.240055 0.344457 0.100465
0.338109 0.343816 0.087678
0.424781 0.344152 0.059205
0.511437 0.344488 0.007721
0.593561 0.344060 0.000000
0.667201 0.343450 0.000000
0.733791 0.343450 0.000000
0.795224 0.344213 0.000000
0.854368 0.346410 0.000000
0.909758 0.349737 0.000000
0.961822 0.351476 0.000000
1.000000 0.348882 0.000000
1.000000 0.346014 0.000000
0.000000 0.373541 0.142977
0.085389 0.375799 0.140047
0.166476 0.378088 0.133394
0.239597 0.381353 0.115633
0.334630 0.381445 0.102815
0.420935 0.378363 0.086244
0.503593 0.377478 0.047486
0.585351 0.375799 0.000000
0.663294 0.373358 0.000000
0.729946 0.370367 0.000000
0.792752 0.368292 0.000000
0.852903 0.367376 0.000000
0.908965 0.367590 0.000000
0.960357 0.369024 0.000000
1.000000 0.368566 0.000000
1.000000 0.364599 0.000000
0.045350 0.407141 0.159396
0.108675 0.408118 0.156374
0.178195 0.409918 0.150729
0.256718 0.412451 0.140810
0.327001 0.413764 0.120790
0.420691 0.413062 0.108736
0.500877 0.410315 0.086061
0.581353 0.408606 0.040955
0.660670 0.405982 0.000000
0.733577 0.402014 0.000000
0.798642 0.398230 0.000000
0.860014 0.394903 0.000000
0.916472 0.392126 0.000000
0.968566 0.390417 0.000000
1.000000 0.390326 0.000000
1.000000 0.387549 0.000000
0.095216 0.441901 0.182803
0.138674 0.442512 0.180026
0.197726 0.443763 0.175082
0.269535 0.445747 0.166781
0.331212 0.447547 0.146304
0.421118 0.447059 0.134676
0.504784 0.443153 0.122286
0.582513 0.440864 0.091066
0.659541 0.437629 0.039765
0.731289 0.432776 0.000000
0.797604 0.427039 0.000000
0.858701 0.422065 0.000000
0.915862 0.417517 0.000000
0.969055 0.413672 0.000000
1.000000 0.410437 0.000000
1.000000 0.408820 0.000000
0.134676 0.477119 0.213687
0.170291 0.477729 0.211582
0.221775 0.478614 0.207218
0.287602 0.479957 0.200046
0.343023 0.482002 0.178439
0.424292 0.480751 0.165835
0.513634 0.478981 0.154147
0.590814 0.473915 0.136416
0.664851 0.470130 0.100771
0.734585 0.464668 0.046387
0.799557 0.458289 0.000000
0.858732 0.451209 0.000000
0.916136 0.445594 0.000000
0.969421 0.440253 0.000000
1.000000 0.434699 0.000000
1.000000 0.429480 0.000000
0.166659 0.512566 0.252567
0.197147 0.512902 0.250370
0.244022 0.513390 0.246220
0.305638 0.514458 0.239750
0.366247 0.516503 0.223056
0.432044 0.515862 0.203342
0.521569 0.514397 0.192264
0.606653 0.511192 0.179538
0.676020 0.504143 0.154971
0.743679 0.498268 0.116182
0.807095 0.491371 0.059724
0.865202 0.483742 0.000000
0.917357 0.475502 0.000000
0.969085 0.468818 0.000000
1.000000 0.462074 0.000000
1.000000 0.454810 0.000000
0.188846 0.546838 0.294835
0.217716 0.547265 0.293095
0.262943 0.548302 0.290471
0.323857 0.549645 0.285863
0.395819 0.551537 0.279545
0.448585 0.553033 0.252384
0.532250 0.552331 0.241123
0.621881 0.550927 0.231144
0.699519 0.545403 0.220096
0.767300 0.540093 0.188876
0.831052 0.534173 0.150484
0.888731 0.526970 0.098451
0.940276 0.518914 0.005097
0.983948 0.508904 0.000000
1.000000 0.499428 0.000000
1.000000 0.488441 0.000000
0.224918 0.592706 0.358587
0.247349 0.590326 0.352697
0.289036 0.589715 0.348119
0.348119 0.590234 0.343603
0.419867 0.591608 0.339178
0.470619 0.593866 0.312596
0.544182 0.592859 0.298344
0.634272 0.592157 0.289464
0.719265 0.590661 0.279423
0.786954 0.582879 0.261845
0.848386 0.576532 0.227665
0.903593 0.568627 0.186313
0.952636 0.559716 0.134371
0.994629 0.548730 0.047059
1.000000 0.535698 0.000000
1.000000 0.523095 0.000000
0.250065 0.639063 0.420142
0.272038 0.636591 0.414588
0.313603 0.635523 0.410346
0.373693 0.635492 0.406744
0.446571 0.636225 0.404395
0.505058 0.638514 0.387396
0.567803 0.638666 0.368872
0.648035 0.637964 0.357153
0.732937 0.637568 0.347143
0.809079 0.634516 0.336614
0.867247 0.625299 0.312749
0.920226 0.616938 0.276860
0.967254 0.607477 0.235721
1.000000 0.596094 0.182010
1.000000 0.582605 0.101778
1.000000 0.565362 0.000000
0.279881 0.693629 0.486793
0.301915 0.691005 0.482063
0.345037 0.689479 0.478798
0.407019 0.688991 0.476783
0.479988 0.689235 0.476051
0.557977 0.689784 0.476661
0.598962 0.692134 0.448157
0.667872 0.691920 0.435035
0.751034 0.692653 0.428229
0.828763 0.693050 0.420630
0.891966 0.686763 0.413825
0.941497 0.678340 0.388190
0.985626 0.669123 0.357336
1.000000 0.657740 0.317235
1.000000 0.643824 0.263432
1.000000 0.626001 0.184756
0.000000 0.180240 0.136294
0.000000 0.179721 0.131441
0.059327 0.175998 0.123445
0.247196 0.184512 0.107790
0.362371 0.188754 0.070069
0.445930 0.202487 0.021820
0.524315 0.219333 0.000000
0.598199 0.236149 0.000000
0.669032 0.252415 0.000000
0.735836 0.267765 0.000000
0.796658 0.280461 0.000000
0.853544 0.289677 0.000000
0.908324 0.292485 0.000000
0.961669 0.294591 0.000000
1.000000 0.295506 0.000000
1.000000 0.295415 0.000000
0.000000 0.197299 0.133120
0.000000 0.194156 0.128420
0.080995 0.194919 0.121126
0.240452 0.203555 0.108064
0.350317 0.206607 0.075349
0.439460 0.217258 0.032319
0.520623 0.230350 0.000000
0.595727 0.244419 0.000000
0.669032 0.259281 0.000000
0.736812 0.272648 0.000000
0.797299 0.284062 0.000000
0.853483 0.293950 0.000000
0.908202 0.296178 0.000000
0.960937 0.297917 0.000000
1.000000 0.298466 0.000000
1.000000 0.298253 0.000000
0.000000 0.215457 0.131777
0.000000 0.215427 0.127565
0.097536 0.219669 0.121065
0.236942 0.230014 0.110384
0.342290 0.232334 0.083497
0.433448 0.239139 0.046143
0.516503 0.248447 0.000000
0.594141 0.259068 0.000000
0.669490 0.269871 0.000000
0.737270 0.280156 0.000000
0.796567 0.289921 0.000000
0.851987 0.299168 0.000000
0.906798 0.302708 0.000000
0.959655 0.303685 0.000000
1.000000 0.303899 0.000000
1.000000 0.303258 0.000000
0.000000 0.241978 0.133272
0.000000 0.243442 0.129793
0.102937 0.248692 0.124086
0.233433 0.260807 0.114107
0.334081 0.261357 0.091829
0.425666 0.264439 0.059419
0.511070 0.269627 0.007355
0.591577 0.276249 0.000000
0.666407 0.283726 0.000000
0.733852 0.291325 0.000000
0.793545 0.298924 0.000000
0.849760 0.306798 0.000000
0.905577 0.312932 0.000000
0.957824 0.312993 0.000000
1.000000 0.312016 0.000000
1.000000 0.310491 0.000000
0.000000 0.268498 0.133120
0.000000 0.271977 0.131197
0.113069 0.278721 0.126986
0.227024 0.289677 0.118715
0.327123 0.290715 0.099641
0.419409 0.291814 0.070405
0.504997 0.294072 0.022766
0.585901 0.297704 0.000000
0.661707 0.302220 0.000000
0.730556 0.307256 0.000000
0.792020 0.312413 0.000000
0.851743 0.318791 0.000000
0.908202 0.325475 0.000000
0.961547 0.326940 0.000000
1.000000 0.325353 0.000000
1.000000 0.322881 0.000000
0.000000 0.305028 0.140291
0.000000 0.308965 0.138949
0.117250 0.318425 0.137301
0.226383 0.324102 0.127413
0.324376 0.324620 0.111391
0.417121 0.325475 0.085451
0.504082 0.325139 0.044800
0.584649 0.325566 0.000000
0.660487 0.326848 0.000000
0.729030 0.328466 0.000000
0.791531 0.330663 0.000000
0.851530 0.333959 0.000000
0.907774 0.338109 0.000000
0.960266 0.342596 0.000000
1.000000 0.340002 0.000000
1.000000 0.336858 0.000000
0.000000 0.348363 0.154665
0.000000 0.351354 0.153445
0.128115 0.355566 0.150088
0.229496 0.359655 0.140047
0.323522 0.361791 0.122347
0.414862 0.360082 0.103883
0.502434 0.359075 0.070741
0.584588 0.356970 0.015656
0.659205 0.355108 0.000000
0.727108 0.353460 0.000000
0.789822 0.352514 0.000000
0.850187 0.352667 0.000000
0.906767 0.353704 0.000000
