luts/Milton ● 16.cube
# Created by Adobe Lightroom plugin Export LUT (1.16.0)
# www.johnrellis.com/lightroom/exportlut.htm
# Preset: Milton ●
# Color profile: C:\Program Files (x86)\Common Files\Adobe\Color\Profiles\Recommended\sRGB Color Space Profile.icm
LUT_3D_SIZE 16
DOMAIN_MIN 0.0 0.0 0.0
DOMAIN_MAX 1.0 1.0 1.0
0.021332 0.018982 0.023896
0.088502 0.021424 0.024140
0.162997 0.024872 0.022797
0.232853 0.031495 0.018769
0.296330 0.044007 0.011597
0.355627 0.062623 0.002106
0.416144 0.084840 0.000000
0.483009 0.108827 0.000000
0.561822 0.131228 0.000000
0.651545 0.149844 0.000000
0.740505 0.166110 0.000000
0.819181 0.181430 0.000000
0.888060 0.197116 0.000000
0.948852 0.212406 0.000000
1.000000 0.226261 0.000000
1.000000 0.238773 0.000000
0.026368 0.066255 0.032044
0.095003 0.067536 0.027253
0.164767 0.069917 0.021515
0.232609 0.075135 0.011994
0.295323 0.083772 0.004150
0.354314 0.097108 0.000000
0.414954 0.114687 0.000000
0.481910 0.135103 0.000000
0.561212 0.154665 0.000000
0.651179 0.171145 0.000000
0.740047 0.185580 0.000000
0.818875 0.198886 0.000000
0.887755 0.212345 0.000000
0.948608 0.225803 0.000000
1.000000 0.238132 0.000000
1.000000 0.249241 0.000000
0.035584 0.115358 0.045258
0.096986 0.116030 0.041749
0.162905 0.119173 0.033387
0.231418 0.123232 0.024048
0.292821 0.128328 0.012207
0.351873 0.138521 0.000000
0.412726 0.153079 0.000000
0.480385 0.170291 0.000000
0.560449 0.187320 0.000000
0.650965 0.202487 0.000000
0.739528 0.215579 0.000000
0.818418 0.226658 0.000000
0.887266 0.237675 0.000000
0.948241 0.248295 0.000000
1.000000 0.257939 0.000000
1.000000 0.267002 0.000000
0.047456 0.167239 0.063142
0.101656 0.168063 0.060670
0.159945 0.169406 0.055390
0.225193 0.174380 0.045686
0.289006 0.180606 0.033661
0.347845 0.186679 0.019165
0.409522 0.197665 0.000458
0.478614 0.211551 0.000000
0.560204 0.225711 0.000000
0.651331 0.238376 0.000000
0.739559 0.249180 0.000000
0.818296 0.259068 0.000000
0.886931 0.269749 0.000000
0.947723 0.279759 0.000000
1.000000 0.286748 0.000000
1.000000 0.293217 0.000000
0.057710 0.223209 0.084077
0.105837 0.223789 0.081849
0.160281 0.225040 0.077974
0.219883 0.227420 0.070771
0.281346 0.234073 0.059388
0.344182 0.241703 0.043488
0.406867 0.248966 0.023407
0.477150 0.259251 0.000000
0.560693 0.270848 0.000000
0.652461 0.281376 0.000000
0.740108 0.289555 0.000000
0.818601 0.296849 0.000000
0.887022 0.304845 0.000000
0.947662 0.313024 0.000000
1.000000 0.321508 0.000000
1.000000 0.325963 0.000000
0.058259 0.282139 0.105440
0.104189 0.282658 0.103883
0.157168 0.283818 0.100343
0.214786 0.285985 0.094545
0.273442 0.289372 0.085603
0.336217 0.297185 0.071351
0.404791 0.306279 0.051759
0.478187 0.313756 0.023804
0.562646 0.321233 0.000000
0.654444 0.329198 0.000000
0.741329 0.334874 0.000000
0.819364 0.339696 0.000000
0.887297 0.344823 0.000000
0.947784 0.350286 0.000000
1.000000 0.356329 0.000000
1.000000 0.362921 0.000000
0.040894 0.343023 0.127687
0.091798 0.343603 0.126162
0.146822 0.344701 0.122988
0.205783 0.346715 0.117983
0.266484 0.349676 0.110506
0.328618 0.353582 0.099611
0.399237 0.362371 0.082277
0.481971 0.371679 0.056764
0.569085 0.377020 0.020050
0.659174 0.380835 0.000000
0.743587 0.382940 0.000000
0.820462 0.385657 0.000000
0.887816 0.388495 0.000000
0.947875 0.391852 0.000000
1.000000 0.395666 0.000000
1.000000 0.400153 0.000000
0.000000 0.405829 0.150027
0.059327 0.406409 0.148562
0.126986 0.407416 0.146029
0.192538 0.409125 0.141756
0.258122 0.411566 0.135103
0.325689 0.414649 0.125826
0.396735 0.418219 0.112642
0.482765 0.426551 0.091829
0.578607 0.433692 0.061891
0.667140 0.434974 0.020386
0.749355 0.434791 0.000000
0.822660 0.434211 0.000000
0.888518 0.435004 0.000000
0.948028 0.436713 0.000000
1.000000 0.438911 0.000000
1.000000 0.441749 0.000000
0.000000 0.469215 0.172641
0.000000 0.469673 0.171206
0.097230 0.470466 0.169039
0.177584 0.471839 0.165194
0.251865 0.473610 0.159396
0.326482 0.475898 0.151400
0.404700 0.478248 0.140322
0.487892 0.480385 0.125551
0.583917 0.487221 0.101717
0.677089 0.490333 0.072297
0.756466 0.488869 0.033082
0.826993 0.486976 0.000000
0.890166 0.485328 0.000000
0.947967 0.484474 0.000000
1.000000 0.485695 0.000000
1.000000 0.487404 0.000000
0.000000 0.534936 0.195193
0.000000 0.535302 0.194064
0.051575 0.536034 0.191928
0.163607 0.537133 0.188510
0.250401 0.538628 0.183169
0.334844 0.540276 0.175937
0.420844 0.541833 0.166110
0.508507 0.543114 0.153292
0.596582 0.544182 0.136202
0.686366 0.547204 0.113313
0.763455 0.545464 0.088899
0.830961 0.542504 0.057038
0.892180 0.539818 0.006317
0.948577 0.537743 0.000000
1.000000 0.536461 0.000000
1.000000 0.537041 0.000000
0.000000 0.604486 0.219028
0.000000 0.604669 0.218051
0.000000 0.605127 0.216190
0.154971 0.605798 0.212924
0.256657 0.606592 0.208255
0.349279 0.607385 0.201602
0.439429 0.608026 0.193088
0.528527 0.608606 0.181613
0.615534 0.609094 0.167178
0.698543 0.609888 0.148379
0.772122 0.608301 0.128847
0.834012 0.602106 0.110597
0.892973 0.598077 0.083497
0.948180 0.595056 0.038514
1.000000 0.593011 0.000000
1.000000 0.591821 0.000000
0.000000 0.674250 0.246555
0.000000 0.674342 0.245670
0.000000 0.674586 0.243870
0.162722 0.674830 0.241062
0.269810 0.675135 0.236728
0.364599 0.675410 0.230900
0.455482 0.675502 0.223148
0.543267 0.675563 0.213169
0.627527 0.675715 0.200687
0.706691 0.676295 0.184726
0.780697 0.677455 0.164523
0.841245 0.670771 0.149477
0.893462 0.660639 0.134798
0.946319 0.655299 0.111391
0.998108 0.652247 0.071778
1.000000 0.650050 0.000000
0.000000 0.742519 0.279698
0.000000 0.742519 0.278874
0.070130 0.742550 0.277348
0.197086 0.742519 0.274723
0.294713 0.742489 0.270909
0.385229 0.742275 0.265721
0.472236 0.742061 0.258854
0.555932 0.741817 0.250156
0.635523 0.741726 0.239292
0.710719 0.741939 0.225864
0.781888 0.742611 0.208835
0.848905 0.743343 0.188235
0.900450 0.732265 0.176028
0.946166 0.719051 0.163272
0.994812 0.712367 0.141482
1.000000 0.709102 0.103334
0.063111 0.807309 0.320806
0.122499 0.807248 0.320073
0.189731 0.807156 0.318669
0.264103 0.806943 0.316442
0.341283 0.806638 0.313024
0.419348 0.806241 0.308415
0.496742 0.805814 0.302495
0.572412 0.805386 0.294957
0.645380 0.805081 0.285618
0.715602 0.804990 0.274083
0.783230 0.805173 0.259831
0.848325 0.805631 0.242252
0.909606 0.804715 0.221958
0.954986 0.790951 0.209964
0.995758 0.775631 0.197177
1.000000 0.767056 0.176303
0.266239 0.866789 0.372412
0.284947 0.866697 0.371801
0.316289 0.866545 0.370550
0.360662 0.866300 0.368505
0.414252 0.865934 0.365637
0.473732 0.865537 0.361730
0.536339 0.865019 0.356634
0.600000 0.864591 0.350072
0.663996 0.864195 0.342016
0.727443 0.863920 0.332128
0.790005 0.863737 0.319982
0.851408 0.863737 0.305150
0.911894 0.863890 0.286931
0.968139 0.861112 0.266667
1.000000 0.845274 0.253758
1.000000 0.828092 0.239445
0.423133 0.921447 0.440589
0.432746 0.921386 0.440101
0.449683 0.921294 0.439124
0.475929 0.921141 0.437537
0.510185 0.920958 0.435157
0.551354 0.920714 0.431922
0.597589 0.920470 0.427710
0.647456 0.920256 0.422492
0.699733 0.920073 0.415839
0.753597 0.919951 0.407721
0.808377 0.919951 0.397711
0.863859 0.920043 0.385351
0.919829 0.920287 0.370245
0.976287 0.920592 0.351019
1.000000 0.915892 0.330541
1.000000 0.897124 0.316320
0.008026 0.032258 0.078279
0.082094 0.031891 0.075807
0.158450 0.032807 0.070527
0.227665 0.040864 0.062531
0.288212 0.063172 0.061250
0.348241 0.081056 0.050446
0.409216 0.102022 0.034211
0.476570 0.124300 0.012634
0.556023 0.144869 0.000000
0.646509 0.162509 0.000000
0.736690 0.177890 0.000000
0.816434 0.193210 0.000000
0.885985 0.209964 0.000000
0.947356 0.224460 0.000000
1.000000 0.235843 0.000000
1.000000 0.245853 0.000000
0.008667 0.074586 0.084443
0.086580 0.075013 0.081422
0.156619 0.077852 0.078157
0.224033 0.083680 0.073091
0.287327 0.093202 0.066102
0.347143 0.106874 0.055573
0.408515 0.123812 0.039551
0.476204 0.143069 0.017334
0.556085 0.161593 0.000000
0.646937 0.177584 0.000000
0.736751 0.191836 0.000000
0.816464 0.205966 0.000000
0.885954 0.221225 0.000000
0.947143 0.236637 0.000000
1.000000 0.246647 0.000000
1.000000 0.255711 0.000000
0.033387 0.121553 0.093812
0.093050 0.122652 0.090822
0.157259 0.124453 0.086732
0.223789 0.127230 0.081453
0.285710 0.133394 0.074495
0.345495 0.143404 0.064088
0.407263 0.156619 0.048615
0.475593 0.172915 0.025635
0.556268 0.188754 0.000000
0.647364 0.203006 0.000000
0.736934 0.215366 0.000000
0.816617 0.227329 0.000000
0.885954 0.240604 0.000000
0.947112 0.254398 0.000000
1.000000 0.265415 0.000000
1.000000 0.272648 0.000000
0.048798 0.172763 0.105806
0.099062 0.173526 0.102907
0.157748 0.174624 0.099458
0.221042 0.178195 0.093385
0.283635 0.182834 0.086091
0.343023 0.189212 0.075929
0.405219 0.200046 0.061677
0.474830 0.213260 0.039246
0.556786 0.226658 0.006592
0.648493 0.238651 0.000000
0.737484 0.248783 0.000000
0.816861 0.258335 0.000000
0.886015 0.268894 0.000000
0.947082 0.280003 0.000000
1.000000 0.290990 0.000000
1.000000 0.297734 0.000000
0.055116 0.227420 0.118898
0.102876 0.227970 0.117311
0.157992 0.229129 0.114199
0.217380 0.231235 0.108949
0.278080 0.236698 0.100618
0.340124 0.243412 0.090333
0.402960 0.250553 0.077546
0.474159 0.260655 0.057771
0.557916 0.271794 0.024323
0.650172 0.281865 0.000000
0.738277 0.289708 0.000000
0.817319 0.296818 0.000000
0.886168 0.304417 0.000000
0.947143 0.312352 0.000000
1.000000 0.320745 0.000000
1.000000 0.329442 0.000000
0.053925 0.285161 0.134890
0.100069 0.285740 0.133516
0.153872 0.286900 0.130709
0.211917 0.288914 0.126101
0.271122 0.292180 0.118837
0.333562 0.299229 0.108034
0.401770 0.307439 0.094636
0.475471 0.314702 0.077058
0.560021 0.321996 0.050355
0.652461 0.329900 0.005615
0.739803 0.335332 0.000000
0.818204 0.340093 0.000000
0.886503 0.344976 0.000000
0.947204 0.350195 0.000000
1.000000 0.355932 0.000000
1.000000 0.362249 0.000000
0.030823 0.345495 0.152804
0.085451 0.346044 0.151553
0.142458 0.347204 0.148959
0.202670 0.349157 0.144503
0.263951 0.351934 0.138125
0.326665 0.355840 0.129183
0.397406 0.363928 0.115541
0.479408 0.372564 0.098054
0.566949 0.377722 0.074434
0.657282 0.381415 0.039368
0.742275 0.383581 0.000000
0.819486 0.386206 0.000000
0.887022 0.389014 0.000000
0.947387 0.392187 0.000000
1.000000 0.395819 0.000000
1.000000 0.400000 0.000000
0.000000 0.407874 0.171878
0.047333 0.408453 0.170474
0.120394 0.409461 0.168276
0.188724 0.411078 0.164218
0.255467 0.413489 0.158389
0.323552 0.416449 0.150454
0.395453 0.419898 0.139620
0.481178 0.427741 0.122896
0.576776 0.434333 0.100771
0.665522 0.435554 0.075227
0.748043 0.435248 0.038025
0.821592 0.434730 0.000000
0.887785 0.435615 0.000000
0.947448 0.437263 0.000000
1.000000 0.439368 0.000000
1.000000 0.442084 0.000000
0.000000 0.470924 0.191440
0.000000 0.471351 0.190433
0.087068 0.472175 0.188357
0.172366 0.473426 0.184878
0.248447 0.475257 0.179721
0.324193 0.477424 0.172457
0.403326 0.479713 0.162783
0.487007 0.481727 0.149996
0.582971 0.488167 0.130465
0.675715 0.490944 0.108278
0.755367 0.489387 0.082948
0.825986 0.487556 0.047730
0.889342 0.485939 0.000000
0.947356 0.485176 0.000000
1.000000 0.486305 0.000000
1.000000 0.487984 0.000000
0.000000 0.536400 0.212070
0.000000 0.536797 0.211032
0.029664 0.537499 0.209110
0.156313 0.538628 0.205783
0.246464 0.540032 0.201053
0.332250 0.541619 0.194461
0.419135 0.543053 0.185641
0.507530 0.544335 0.174166
0.595941 0.545342 0.159243
0.685451 0.548028 0.140108
0.762387 0.546044 0.120729
0.830106 0.543053 0.097932
0.891417 0.540429 0.065827
0.947906 0.538384 0.009552
1.000000 0.537102 0.000000
1.000000 0.537774 0.000000
0.000000 0.605585 0.234409
0.000000 0.605829 0.233341
0.000000 0.606256 0.231632
0.146853 0.606928 0.228641
0.252201 0.607660 0.224247
0.346197 0.608423 0.218173
0.437476 0.609064 0.210239
0.527062 0.609552 0.199893
0.614435 0.610010 0.186740
0.697749 0.610773 0.169986
0.771206 0.609094 0.153384
0.833158 0.602686 0.137697
0.892210 0.598749 0.116609
0.947478 0.595758 0.085634
0.999847 0.593713 0.028504
1.000000 0.592462 0.000000
0.000000 0.675105 0.260410
0.000000 0.675227 0.259586
0.000000 0.675410 0.257877
0.155520 0.675685 0.255161
0.265354 0.675990 0.251102
0.361975 0.676204 0.245579
0.453315 0.676295 0.238285
0.541741 0.676356 0.229129
0.626215 0.676478 0.217502
0.705653 0.676997 0.202884
0.779782 0.678096 0.184756
0.840391 0.671443 0.171176
0.892638 0.661219 0.158236
0.945647 0.656001 0.138155
0.997498 0.652979 0.107515
1.000000 0.650752 0.049256
0.000000 0.743069 0.291875
0.000000 0.743099 0.291081
0.058106 0.743099 0.289616
0.192935 0.743038 0.287144
0.291966 0.743008 0.283513
0.383185 0.742855 0.278691
0.470588 0.742580 0.272068
0.554559 0.742336 0.263798
0.634302 0.742184 0.253544
0.709560 0.742458 0.240970
0.780789 0.743099 0.225284
0.847990 0.743923 0.206241
0.899657 0.732815 0.194919
0.945373 0.719692 0.183230
0.994202 0.713100 0.163760
1.000000 0.709804 0.131502
0.061036 0.807614 0.331273
0.121981 0.807523 0.330541
0.189242 0.807431 0.329137
0.263767 0.807218 0.327001
0.340795 0.806943 0.323796
0.418585 0.806577 0.319493
0.495979 0.806088 0.313664
0.571466 0.805692 0.306401
0.644434 0.805417 0.297459
0.714656 0.805295 0.286381
0.782193 0.805478 0.273014
0.847349 0.805966 0.256291
0.908751 0.805173 0.237186
0.954223 0.791440 0.225986
0.994995 0.776242 0.213870
1.000000 0.767758 0.194522
0.269200 0.866850 0.381170
0.287572 0.866789 0.380529
0.318303 0.866606 0.379431
0.362280 0.866361 0.377386
0.415351 0.866026 0.374609
0.474342 0.865599 0.370794
0.536492 0.865141 0.365820
0.599969 0.864714 0.359442
0.663661 0.864347 0.351598
0.726833 0.864073 0.342107
0.789212 0.863920 0.330358
0.850553 0.863920 0.316045
0.911009 0.864103 0.298497
0.967376 0.861448 0.279057
1.000000 0.845701 0.266697
1.000000 0.828611 0.253025
0.425177 0.921416 0.447395
0.434638 0.921355 0.446937
0.451362 0.921294 0.445899
0.477394 0.921141 0.444404
0.511376 0.920928 0.442054
0.552178 0.920714 0.438941
0.598047 0.920500 0.434791
0.647700 0.920256 0.429694
0.699672 0.920104 0.423194
0.753353 0.920012 0.415290
0.807980 0.920043 0.405554
0.863279 0.920165 0.393561
0.919127 0.920409 0.378790
0.975463 0.920714 0.360174
1.000000 0.916228 0.340246
1.000000 0.897520 0.326268
0.000000 0.053010 0.135195
0.061646 0.050843 0.133364
0.142611 0.049775 0.129702
0.221805 0.049714 0.124544
0.285649 0.059205 0.113619
0.343877 0.082490 0.108583
0.403449 0.107424 0.104372
0.470283 0.130007 0.096071
0.550652 0.147616 0.077882
0.641840 0.162814 0.049897
0.733150 0.176791 0.005005
0.813931 0.191348 0.000000
0.884428 0.207370 0.000000
0.946227 0.224338 0.000000
1.000000 0.240909 0.000000
1.000000 0.255833 0.000000
0.000000 0.089235 0.138430
0.072267 0.089021 0.136660
0.145052 0.089296 0.133791
0.217197 0.091951 0.128573
0.280735 0.100404 0.122499
0.340124 0.115145 0.118074
0.401678 0.131472 0.110933
0.470192 0.148074 0.098695
0.550805 0.164187 0.080629
0.642481 0.178134 0.052552
0.733364 0.191104 0.008270
0.814054 0.204318 0.000000
0.884428 0.219059 0.000000
0.946227 0.234531 0.000000
1.000000 0.249821 0.000000
1.000000 0.264469 0.000000
0.009644 0.132113 0.144686
0.080934 0.132143 0.142641
0.148135 0.133394 0.140108
0.214481 0.136355 0.136446
0.277440 0.142153 0.131594
0.338140 0.150912 0.124971
0.400855 0.162844 0.115602
0.470039 0.177005 0.103212
0.551537 0.191287 0.085389
0.643244 0.203861 0.058106
0.733730 0.215122 0.014435
0.814298 0.226444 0.000000
0.884550 0.239078 0.000000
0.946166 0.252445 0.000000
1.000000 0.265568 0.000000
1.000000 0.278416 0.000000
0.036164 0.179690 0.152560
0.092103 0.180758 0.151553
0.150851 0.182406 0.148531
0.214237 0.184665 0.144228
0.276188 0.188174 0.139315
0.336400 0.195041 0.132540
0.399542 0.204898 0.122957
0.469795 0.217075 0.110689
0.552453 0.229068 0.093111
0.644770 0.239811 0.066957
0.734432 0.249180 0.024872
0.814725 0.258274 0.000000
0.884581 0.268345 0.000000
0.946166 0.278691 0.000000
1.000000 0.289311 0.000000
1.000000 0.299809 0.000000
0.053803 0.233158 0.165225
0.096559 0.234104 0.162722
0.151217 0.235264 0.159182
0.211826 0.237308 0.155215
0.272435 0.241489 0.149142
0.333989 0.246860 0.142153
0.397620 0.253819 0.133120
0.469642 0.263920 0.120546
0.554040 0.274357 0.103334
0.646723 0.283421 0.078706
0.735683 0.290593 0.042145
0.815366 0.297368 0.000000
0.884764 0.304540 0.000000
0.946197 0.312016 0.000000
1.000000 0.319921 0.000000
1.000000 0.327916 0.000000
0.042939 0.290043 0.176638
0.088899 0.290745 0.174136
0.146059 0.291875 0.171786
0.206119 0.293828 0.168063
0.266270 0.296818 0.162509
0.328893 0.302800 0.154452
0.396704 0.309972 0.144869
0.471015 0.316899 0.133120
0.556634 0.324071 0.116854
0.649622 0.331456 0.094148
0.737453 0.336675 0.063569
0.816342 0.341039 0.015412
0.885161 0.345617 0.000000
0.946227 0.350652 0.000000
1.000000 0.356023 0.000000
1.000000 0.361700 0.000000
0.005829 0.349706 0.189548
0.069642 0.350286 0.188296
0.132296 0.351385 0.186130
0.195743 0.353185 0.182620
0.258610 0.355962 0.177310
0.322881 0.359533 0.170169
0.393713 0.366735 0.159945
0.475624 0.374273 0.147433
0.563500 0.379126 0.131838
0.654108 0.382513 0.112398
0.740169 0.384894 0.087770
0.817807 0.387427 0.051453
0.885710 0.390143 0.000000
0.946288 0.393042 0.000000
1.000000 0.396490 0.000000
1.000000 0.400336 0.000000
0.000000 0.411505 0.204990
0.014130 0.411994 0.203861
0.105837 0.413001 0.201785
0.179843 0.414557 0.198581
0.249577 0.416907 0.193790
0.319463 0.419745 0.187106
0.392920 0.422950 0.178103
0.478614 0.429847 0.165560
0.573632 0.435554 0.149844
0.662837 0.436652 0.132692
0.745846 0.436347 0.112215
0.819760 0.435645 0.086305
0.886442 0.436927 0.045624
0.946380 0.438422 0.000000
1.000000 0.440467 0.000000
1.000000 0.442939 0.000000
0.000000 0.474037 0.221653
0.000000 0.474403 0.220706
0.063447 0.475166 0.218936
0.161196 0.476417 0.215885
0.241764 0.478096 0.211490
0.319829 0.480262 0.205325
0.400763 0.482368 0.197238
0.485451 0.484260 0.186648
0.581048 0.489876 0.171633
0.673365 0.492042 0.155276
0.753292 0.490486 0.138125
0.824277 0.488594 0.117464
0.887907 0.486946 0.090364
0.946258 0.486519 0.045960
1.000000 0.487587 0.000000
1.000000 0.489143 0.000000
0.000000 0.539086 0.239780
0.000000 0.539452 0.238895
0.000000 0.540093 0.237156
0.142245 0.541161 0.234348
0.238712 0.542535 0.230106
0.327398 0.543969 0.224460
0.416022 0.545373 0.216770
0.505455 0.546502 0.207126
0.594507 0.547417 0.194491
0.683742 0.549523 0.179538
0.760525 0.547143 0.164706
0.828428 0.544213 0.148043
0.889982 0.541588 0.127077
0.946685 0.539483 0.098543
0.999878 0.538293 0.049805
1.000000 0.539055 0.000000
0.000000 0.607721 0.259953
0.000000 0.607935 0.259037
0.000000 0.608331 0.257511
0.130709 0.608972 0.254795
0.243778 0.609705 0.251011
0.340826 0.610346 0.245487
0.433753 0.610956 0.238529
0.524376 0.611353 0.229435
0.612390 0.611749 0.218173
0.696071 0.612421 0.204044
0.769619 0.610376 0.190463
0.831449 0.603815 0.177981
0.890776 0.599969 0.161379
0.946227 0.597070 0.139437
0.998749 0.594995 0.107729
1.000000 0.593744 0.048249
0.000000 0.676661 0.283696
0.000000 0.676783 0.282872
0.000000 0.676967 0.281407
0.140932 0.677180 0.278965
0.257786 0.677485 0.275334
0.356786 0.677638 0.270268
0.449683 0.677729 0.263828
0.538781 0.677699 0.255497
0.623865 0.677790 0.245151
0.703487 0.678279 0.232456
0.777890 0.679316 0.216800
0.838804 0.672663 0.205173
0.891020 0.662409 0.194247
0.944366 0.657343 0.177829
0.996399 0.654353 0.154086
1.000000 0.652094 0.117464
0.000000 0.744045 0.312993
0.000000 0.744076 0.312169
0.033417 0.744076 0.310857
0.185672 0.744045 0.308507
0.287297 0.743954 0.305211
0.379767 0.743801 0.300694
0.467659 0.743557 0.294591
0.552026 0.743252 0.287022
0.631983 0.743130 0.277775
0.707454 0.743374 0.266209
0.778805 0.743984 0.252354
0.846372 0.744991 0.235264
0.898100 0.733913 0.225376
0.943877 0.720790 0.215000
0.993072 0.714473 0.198123
1.000000 0.711238 0.172030
0.062776 0.808072 0.349462
0.121981 0.808011 0.348791
0.189548 0.807889 0.347631
0.263249 0.807736 0.345495
0.340154 0.807462 0.342412
0.417700 0.807034 0.338262
0.494728 0.806638 0.332952
0.570031 0.806210 0.326238
0.642786 0.805966 0.317876
0.712886 0.805905 0.307683
0.780423 0.806058 0.295232
0.845518 0.806546 0.280247
0.907164 0.806027 0.262669
0.952728 0.792386 0.252445
0.993652 0.777279 0.241245
1.000000 0.769100 0.223819
0.274968 0.866941 0.396704
0.292668 0.866850 0.396094
0.322576 0.866728 0.394934
0.365393 0.866484 0.393133
0.417548 0.866148 0.390387
0.475593 0.865751 0.386755
0.536889 0.865354 0.381933
0.599786 0.864958 0.375921
0.662989 0.864591 0.368444
0.725826 0.864347 0.359411
0.787930 0.864225 0.348363
0.849058 0.864286 0.334874
0.909361 0.864469 0.318486
0.965911 0.862119 0.300267
1.000000 0.846525 0.288670
1.000000 0.829587 0.275822
0.428412 0.921386 0.459388
0.437720 0.921324 0.458930
0.454292 0.921233 0.458015
0.479805 0.921111 0.456489
0.513329 0.920928 0.454322
0.553582 0.920714 0.451270
0.598932 0.920531 0.447333
0.648005 0.920348 0.442359
0.699611 0.920195 0.436255
0.752834 0.920165 0.428595
0.807187 0.920195 0.419287
0.862211 0.920348 0.407843
0.917815 0.920592 0.393866
0.973938 0.920989 0.376287
1.000000 0.916777 0.357153
1.000000 0.898283 0.343694
0.000000 0.076204 0.193423
0.006714 0.070558 0.192203
0.118135 0.069734 0.189639
0.201022 0.072267 0.185733
0.277623 0.076753 0.182193
0.338964 0.090059 0.172244
0.400732 0.106386 0.162905
0.467933 0.128176 0.156435
0.547204 0.148104 0.148653
0.637537 0.165347 0.138643
0.729061 0.178408 0.121187
0.810941 0.191562 0.096315
0.882231 0.207004 0.059327
0.944793 0.222995 0.000000
1.000000 0.238560 0.000000
1.000000 0.252842 0.000000
0.000000 0.109102 0.195224
0.037751 0.106722 0.194217
0.125399 0.105074 0.192172
0.201663 0.107271 0.188602
0.273777 0.111269 0.184634
0.335546 0.120546 0.176455
0.397925 0.134401 0.168734
0.466041 0.151675 0.162142
0.546136 0.168460 0.154177
0.637629 0.182162 0.142031
0.729274 0.192935 0.122835
0.811063 0.205051 0.098360
0.882322 0.219028 0.062165
0.944701 0.233829 0.000122
1.000000 0.247929 0.000000
1.000000 0.261295 0.000000
0.000000 0.145937 0.199496
0.061494 0.146090 0.198184
0.133669 0.146883 0.196170
0.202914 0.147951 0.193271
0.269749 0.152071 0.188937
0.331304 0.160098 0.182986
0.394446 0.171328 0.177188
0.463722 0.185306 0.170474
0.545861 0.197238 0.159731
0.638544 0.207614 0.145022
0.729732 0.217380 0.126253
0.811368 0.227665 0.102205
0.882322 0.239475 0.067536
0.944701 0.252110 0.006775
1.000000 0.264500 0.000000
1.000000 0.275914 0.000000
0.000000 0.190799 0.206088
0.067567 0.191287 0.204868
0.136599 0.192142 0.202853
0.203555 0.194949 0.200504
0.266178 0.198459 0.196292
0.327916 0.204776 0.191196
0.392157 0.213565 0.184543
0.463569 0.224063 0.176059
0.547112 0.234379 0.164797
0.640192 0.243442 0.150118
0.730587 0.251804 0.131960
0.811826 0.260014 0.108522
0.882444 0.269444 0.075807
0.944610 0.279271 0.019684
1.000000 0.289097 0.000000
1.000000 0.298405 0.000000
0.011383 0.240848 0.213870
0.074250 0.241764 0.213199
0.137240 0.243503 0.211704
0.200778 0.246067 0.208591
0.263279 0.249332 0.203922
0.325322 0.253483 0.198734
0.390539 0.260685 0.192050
0.463813 0.269780 0.183322
0.549187 0.278874 0.171878
0.642542 0.286778 0.157412
0.732082 0.293248 0.139773
0.812528 0.299504 0.117617
0.882597 0.306218 0.088289
0.944549 0.313329 0.039673
1.000000 0.320592 0.000000
1.000000 0.327642 0.000000
0.010834 0.296635 0.225742
0.071717 0.297490 0.224979
0.131533 0.299016 0.222599
0.194186 0.301091 0.218662
0.257450 0.303929 0.214115
0.321386 0.308751 0.208103
0.389654 0.314519 0.201083
0.464912 0.320836 0.192386
0.552087 0.328099 0.181186
0.645686 0.334752 0.167086
0.734035 0.339330 0.150546
0.813657 0.343389 0.130251
0.882963 0.347784 0.103700
0.944549 0.352453 0.064576
1.000000 0.357427 0.000000
1.000000 0.362463 0.000000
0.000000 0.355657 0.238773
0.039155 0.356329 0.237095
0.111482 0.357702 0.233738
0.181643 0.359533 0.230289
0.249088 0.362066 0.226139
0.315831 0.365454 0.220401
0.387945 0.371374 0.212802
0.469825 0.377508 0.203494
0.558343 0.381781 0.192660
0.649714 0.384649 0.179324
0.737118 0.387457 0.163973
0.815244 0.389807 0.145602
0.883574 0.392340 0.122530
