luts/Milton ● 16.cube
# Created by Adobe Lightroom plugin Export LUT (1.16.0)
# www.johnrellis.com/lightroom/exportlut.htm
# Preset: Milton ●
# Color profile: C:\Program Files (x86)\Common Files\Adobe\Color\Profiles\Recommended\sRGB Color Space Profile.icm
LUT_3D_SIZE 6
DOMAIN_MIN 0.0 0.0 0.0
DOMAIN_MAX 1.0 1.0 1.0
0.021332 0.018982 0.023896
0.232853 0.031495 0.018769
0.416144 0.084840 0.000000
0.651545 0.149844 0.000000
0.888060 0.197116 0.000000
1.000000 0.238773 0.000000
0.047456 0.167239 0.063142
0.225193 0.174380 0.045686
0.409522 0.197665 0.000458
0.651331 0.238376 0.000000
0.886931 0.269749 0.000000
1.000000 0.293217 0.000000
0.040894 0.343023 0.127687
0.205783 0.346715 0.117983
0.399237 0.362371 0.082277
0.659174 0.380835 0.000000
0.887816 0.388495 0.000000
1.000000 0.400153 0.000000
0.000000 0.534936 0.195193
0.163607 0.537133 0.188510
0.420844 0.541833 0.166110
0.686366 0.547204 0.113313
0.892180 0.539818 0.006317
1.000000 0.537041 0.000000
0.000000 0.742519 0.279698
0.197086 0.742519 0.274723
0.472236 0.742061 0.258854
0.710719 0.741939 0.225864
0.900450 0.732265 0.176028
1.000000 0.709102 0.103334
0.423133 0.921447 0.440589
0.475929 0.921141 0.437537
0.597589 0.920470 0.427710
0.753597 0.919951 0.407721
0.919829 0.920287 0.370245
1.000000 0.897124 0.316320
0.000000 0.076204 0.193423
0.201022 0.072267 0.185733
0.400732 0.106386 0.162905
0.637537 0.165347 0.138643
0.882231 0.207004 0.059327
1.000000 0.252842 0.000000
0.000000 0.190799 0.206088
0.203555 0.194949 0.200504
0.392157 0.213565 0.184543
0.640192 0.243442 0.150118
0.882444 0.269444 0.075807
1.000000 0.298405 0.000000
0.000000 0.355657 0.238773
0.181643 0.359533 0.230289
0.387945 0.371374 0.212802
0.649714 0.384649 0.179324
0.883574 0.392340 0.122530
1.000000 0.401770 0.000000
0.000000 0.543389 0.278660
0.113680 0.545281 0.273899
0.410559 0.549065 0.259190
0.680995 0.551995 0.229221
0.887724 0.543572 0.190005
1.000000 0.541436 0.103212
0.000000 0.745571 0.343664
0.175723 0.745541 0.339727
0.463539 0.745022 0.327337
0.704097 0.744808 0.302403
0.895537 0.735744 0.266972
1.000000 0.713588 0.222232
0.432959 0.921324 0.477790
0.483009 0.921080 0.475044
0.599939 0.920592 0.466407
0.751980 0.920348 0.448829
0.915648 0.920958 0.416480
1.000000 0.899504 0.369879
0.000000 0.157107 0.380194
0.078950 0.148775 0.376654
0.360052 0.170657 0.366247
0.631098 0.179171 0.354101
0.876249 0.211643 0.319371
1.000000 0.271977 0.284092
0.000000 0.246921 0.384985
0.113954 0.245487 0.381872
0.357458 0.253330 0.373327
0.630335 0.260441 0.358434
0.873533 0.285191 0.330816
1.000000 0.314611 0.287449
0.000000 0.388922 0.402197
0.052522 0.390875 0.399176
0.355322 0.400519 0.392767
0.634974 0.405158 0.375433
0.873167 0.410193 0.350652
1.000000 0.417243 0.305272
0.000000 0.562707 0.433112
0.000000 0.565087 0.429328
0.375616 0.568811 0.417639
0.666163 0.567651 0.401038
0.875212 0.558099 0.378180
1.000000 0.558343 0.338842
0.000000 0.754452 0.459876
0.108431 0.753506 0.461677
0.453895 0.752010 0.459876
0.688319 0.752285 0.443610
0.881315 0.746700 0.419928
1.000000 0.728969 0.389014
0.421118 0.922698 0.555169
0.484077 0.921813 0.558526
0.595666 0.921630 0.551873
0.742947 0.921843 0.538445
0.903258 0.923064 0.514214
1.000000 0.906035 0.479225
0.000000 0.260533 0.562341
0.000000 0.250889 0.560784
0.288457 0.254459 0.555352
0.596979 0.261112 0.544579
0.864012 0.280125 0.523919
1.000000 0.390478 0.516564
0.000000 0.329656 0.563653
0.000000 0.324041 0.562219
0.286564 0.319768 0.557794
0.601740 0.322148 0.547539
0.860929 0.341619 0.527092
1.000000 0.435554 0.526116
0.000000 0.449439 0.571008
0.000000 0.449256 0.569238
0.293095 0.449287 0.564630
0.617060 0.448005 0.555840
0.854520 0.468452 0.540276
1.000000 0.511254 0.534478
0.000000 0.592889 0.584833
0.000000 0.593683 0.583185
0.327672 0.595758 0.578454
0.643885 0.600244 0.571038
0.855894 0.601770 0.553338
1.000000 0.605982 0.526604
0.000000 0.771817 0.603479
0.000000 0.771054 0.600885
0.376196 0.767727 0.595392
0.665675 0.765103 0.594232
0.857694 0.766171 0.578302
1.000000 0.759030 0.554681
0.000000 0.942962 0.600153
0.000000 0.940673 0.599542
0.478859 0.930144 0.634394
0.717281 0.925383 0.656092
0.878935 0.927153 0.639490
1.000000 0.916503 0.614588
0.000000 0.368505 0.737301
0.000000 0.367071 0.736385
0.109468 0.374029 0.733211
0.555352 0.385046 0.726741
0.835935 0.399908 0.716793
1.000000 0.474220 0.687129
0.000000 0.414710 0.737911
0.000000 0.414221 0.737026
0.153201 0.422522 0.733700
0.566430 0.430457 0.727443
0.835080 0.444007 0.717647
0.998199 0.509209 0.691585
0.000000 0.504417 0.742214
0.000000 0.505241 0.741024
0.213779 0.514458 0.737087
0.598627 0.530968 0.729976
0.833066 0.540459 0.720851
0.991669 0.589868 0.702693
0.000000 0.625330 0.750942
0.000000 0.626184 0.749874
0.230564 0.629908 0.746151
0.617945 0.647089 0.737850
0.829465 0.659907 0.728725
0.986175 0.695644 0.719631
0.000000 0.777432 0.763058
0.000000 0.778317 0.761990
0.315068 0.780606 0.758694
0.621210 0.785519 0.752956
0.825742 0.794553 0.745632
0.992737 0.798337 0.727596
0.000000 0.956512 0.795743
0.000000 0.954345 0.793332
0.000000 0.948333 0.786954
0.571069 0.940490 0.776791
0.837980 0.934081 0.786160
1.000000 0.930877 0.768978
0.000000 0.489601 0.924681
0.000000 0.502892 0.923339
0.322118 0.554711 0.917723
0.632593 0.593774 0.911894
0.818173 0.619196 0.906584
0.976654 0.650721 0.899779
0.000000 0.512352 0.925780
0.000000 0.524895 0.924437
0.330480 0.573602 0.918791
0.643763 0.619806 0.912230
0.819364 0.641566 0.907256
0.974792 0.668910 0.900755
0.000000 0.557061 0.930694
0.000000 0.567987 0.929290
0.274022 0.611719 0.923644
0.660578 0.679133 0.914488
0.819883 0.693904 0.910094
0.970733 0.712917 0.904204
0.000000 0.638605 0.939361
0.000000 0.639307 0.938903
0.000000 0.646632 0.936614
0.605676 0.723690 0.924804
0.815610 0.764340 0.917174
0.965759 0.777218 0.911620
0.000000 0.777676 0.948150
0.000000 0.779507 0.947570
0.000000 0.787503 0.945068
0.472084 0.804868 0.939696
0.793179 0.839567 0.930968
0.961761 0.856443 0.924346
0.000000 0.929320 0.957946
0.000000 0.930205 0.957488
0.000000 0.931579 0.955718
0.384710 0.934356 0.952575
0.748470 0.942229 0.948333
0.960174 0.950042 0.944091
