luts/Moody ● 16.cube
# Created by Adobe Lightroom plugin Export LUT (1.16.0)
# www.johnrellis.com/lightroom/exportlut.htm
# Preset: Moody ●
# Color profile: C:\Program Files (x86)\Common Files\Adobe\Color\Profiles\Recommended\sRGB Color Space Profile.icm
LUT_3D_SIZE 16
DOMAIN_MIN 0.0 0.0 0.0
DOMAIN_MAX 1.0 1.0 1.0
0.003906 0.003906 0.003906
0.066285 0.011566 0.007965
0.134676 0.025940 0.014313
0.209720 0.045686 0.017914
0.292790 0.067811 0.016175
0.384619 0.093080 0.009033
0.477790 0.121248 0.000000
0.570733 0.151919 0.000000
0.654047 0.181521 0.000000
0.729732 0.208957 0.000000
0.798642 0.234348 0.000000
0.861509 0.257847 0.000000
0.922179 0.281621 0.000000
0.981048 0.307134 0.048035
1.000000 0.336004 0.111330
1.000000 0.368353 0.172183
0.005707 0.051118 0.012940
0.066407 0.049348 0.015106
0.125795 0.060609 0.019104
0.200259 0.077424 0.016968
0.284642 0.097230 0.013581
0.376654 0.120790 0.004974
0.473243 0.147646 0.000000
0.566705 0.175906 0.000000
0.650202 0.201877 0.000000
0.726833 0.226383 0.000000
0.796109 0.249119 0.000000
0.859281 0.270359 0.000000
0.920134 0.292027 0.000000
0.979278 0.316167 0.046448
1.000000 0.343694 0.111299
1.000000 0.375433 0.173678
0.004822 0.098451 0.024170
0.068605 0.097444 0.022187
0.125917 0.097841 0.025788
0.195102 0.112062 0.026093
0.276188 0.131624 0.018921
0.369879 0.156863 0.004486
0.465919 0.184421 0.000000
0.559258 0.210544 0.000000
0.644038 0.233097 0.000000
0.722072 0.254185 0.000000
0.791897 0.273289 0.000000
0.855741 0.291295 0.000000
0.916899 0.310277 0.000000
0.976837 0.332158 0.045014
1.000000 0.357580 0.112062
1.000000 0.387854 0.176181
0.000000 0.154421 0.034607
0.062928 0.155673 0.028840
0.132631 0.151431 0.032013
0.197940 0.156649 0.036255
0.279423 0.176089 0.032837
0.364965 0.197421 0.026337
0.459998 0.222232 0.005951
0.553002 0.246403 0.000000
0.638209 0.268162 0.000000
0.715328 0.287785 0.000000
0.784451 0.305150 0.000000
0.848844 0.320317 0.000000
0.911559 0.336217 0.000000
0.971557 0.355016 0.041627
1.000000 0.376989 0.110780
1.000000 0.404211 0.175784
0.000000 0.222568 0.045563
0.040497 0.225101 0.038941
0.138582 0.226322 0.034638
0.212161 0.221195 0.042695
0.287938 0.231144 0.046693
0.377844 0.252964 0.041016
0.464698 0.272465 0.036194
0.554345 0.293339 0.021515
0.638972 0.311498 0.002686
0.716030 0.327672 0.000000
0.785214 0.341955 0.000000
0.849912 0.356054 0.000000
0.912840 0.371801 0.000000
0.973388 0.388708 0.051301
1.000000 0.408392 0.122103
1.000000 0.432227 0.187015
0.000000 0.302647 0.055055
0.000000 0.305760 0.047913
0.127108 0.309270 0.033936
0.226169 0.305882 0.039734
0.301732 0.299809 0.051331
0.384039 0.310887 0.057221
0.474922 0.330175 0.055329
0.558007 0.345373 0.058656
0.635065 0.358892 0.065492
0.711604 0.371862 0.057862
0.780606 0.382971 0.056031
0.846250 0.394965 0.061311
0.909422 0.408423 0.073243
0.969451 0.423926 0.092622
1.000000 0.441230 0.129732
1.000000 0.462715 0.196597
0.000000 0.386267 0.066773
0.000000 0.388739 0.060273
0.096864 0.391669 0.045563
0.223789 0.391791 0.036042
0.318761 0.386267 0.050263
0.396185 0.380377 0.066102
0.481178 0.390417 0.078126
0.566583 0.403388 0.085451
0.639460 0.411017 0.097871
0.707820 0.419471 0.113436
0.775143 0.428504 0.121340
0.841550 0.438575 0.126741
0.905119 0.450172 0.136751
0.965057 0.463874 0.152468
1.000000 0.479286 0.173922
1.000000 0.497292 0.209415
0.000000 0.464698 0.089937
0.000000 0.467048 0.084474
0.041535 0.469764 0.072877
0.209323 0.471595 0.052338
0.322026 0.467475 0.061555
0.412146 0.460761 0.077394
0.487373 0.453376 0.095491
0.566674 0.458106 0.114107
0.643153 0.464912 0.127993
0.710079 0.469368 0.144137
0.773281 0.475593 0.163546
0.835264 0.484565 0.183963
0.899077 0.494820 0.193362
0.958648 0.506798 0.207370
1.000000 0.520592 0.226688
1.000000 0.537133 0.253483
0.000000 0.529473 0.122683
0.000000 0.530236 0.118227
0.000000 0.532097 0.110262
0.192111 0.533867 0.095521
0.311284 0.533501 0.088350
0.411292 0.528374 0.102632
0.496529 0.522606 0.119051
0.570001 0.516594 0.139651
0.644617 0.519097 0.161501
0.715969 0.523735 0.179568
0.779294 0.527489 0.199863
0.840360 0.534478 0.222446
0.898589 0.544549 0.247929
0.955749 0.556176 0.267552
1.000000 0.569055 0.286931
1.000000 0.583429 0.311589
0.000000 0.593378 0.166598
0.000000 0.593469 0.162722
0.000000 0.594354 0.156222
0.186007 0.595636 0.144930
0.302007 0.596490 0.129641
0.407965 0.593164 0.138155
0.499550 0.588281 0.152560
0.579980 0.582879 0.168917
0.650690 0.577417 0.191409
0.718593 0.576959 0.214755
0.782345 0.578820 0.235050
0.842313 0.583154 0.256840
0.899351 0.590753 0.281651
0.952544 0.601953 0.310918
1.000000 0.615961 0.342992
1.000000 0.629480 0.367590
0.000000 0.655299 0.214817
0.000000 0.655421 0.211887
0.028840 0.655848 0.206729
0.195895 0.656641 0.197971
0.304662 0.657374 0.185672
0.405768 0.656550 0.180301
0.500816 0.651881 0.192721
0.585351 0.646784 0.207370
0.661280 0.641596 0.224125
0.726925 0.635218 0.248722
0.788113 0.633021 0.272007
0.844968 0.633448 0.293126
0.900633 0.638788 0.317510
0.952392 0.647608 0.346197
0.998260 0.659327 0.379400
1.000000 0.673610 0.417273
0.000000 0.714809 0.268009
0.000000 0.714839 0.265354
0.117494 0.715145 0.260960
0.223941 0.715663 0.253696
0.317113 0.716365 0.242802
0.407782 0.716396 0.230014
0.502739 0.713191 0.237613
0.589197 0.708492 0.250431
0.668177 0.703639 0.265476
0.739223 0.698695 0.282353
0.799252 0.692042 0.309209
0.853880 0.689021 0.332280
0.903227 0.688167 0.354650
0.951965 0.693446 0.381811
0.996277 0.702449 0.414069
1.000000 0.714565 0.452094
0.049744 0.770657 0.319219
0.114656 0.770962 0.317388
0.186007 0.771786 0.314549
0.262242 0.772793 0.309117
0.341375 0.774228 0.301152
0.422980 0.775113 0.290929
0.510094 0.775021 0.287633
0.597864 0.771450 0.300328
0.678920 0.767788 0.315587
0.752560 0.764004 0.332158
0.819333 0.760708 0.350713
0.872251 0.753811 0.380957
0.918791 0.749722 0.405249
0.958373 0.746670 0.428656
0.996887 0.749752 0.457343
1.000000 0.757107 0.491310
0.207156 0.833066 0.385168
0.225711 0.831449 0.380682
0.262730 0.831022 0.376440
0.316228 0.831296 0.371344
0.379828 0.832212 0.364477
0.449744 0.832944 0.355261
0.524285 0.833219 0.345068
0.608667 0.830869 0.353429
0.688624 0.827512 0.367468
0.761685 0.823789 0.382513
0.828367 0.820432 0.399664
0.887877 0.817288 0.417792
0.930877 0.808194 0.450446
0.967224 0.800992 0.474067
0.997620 0.795499 0.497932
1.000000 0.797452 0.528649
0.312230 0.887297 0.451270
0.322179 0.886076 0.447089
0.345281 0.885496 0.442908
0.382849 0.885466 0.438056
0.431556 0.885771 0.432074
0.488197 0.886137 0.423804
0.552148 0.886137 0.415106
0.623438 0.885161 0.411963
0.699458 0.881773 0.424933
0.769924 0.878141 0.439460
0.834470 0.874754 0.455787
0.892668 0.871702 0.473640
0.944915 0.869352 0.493538
0.977722 0.857816 0.528161
1.000000 0.849454 0.552789
1.000000 0.843076 0.576074
0.425635 0.935363 0.528588
0.430610 0.934508 0.524712
0.444892 0.934081 0.521172
0.469886 0.933959 0.517052
0.504387 0.934081 0.511833
0.546715 0.934234 0.504845
0.596429 0.934264 0.496895
0.651637 0.933898 0.488167
0.718654 0.931731 0.497108
0.783749 0.928832 0.512108
0.843992 0.926116 0.528923
0.899046 0.923766 0.547173
0.949248 0.922118 0.567742
0.993988 0.920775 0.589746
1.000000 0.909270 0.629328
1.000000 0.902892 0.660090
0.000000 0.022614 0.053315
0.064271 0.023285 0.056153
0.139498 0.029664 0.048371
0.210330 0.051057 0.044160
0.287694 0.079408 0.044587
0.376745 0.107179 0.034699
0.470283 0.138582 0.018494
0.562554 0.170504 0.000000
0.645838 0.200107 0.000000
0.722133 0.227543 0.000000
0.792111 0.251530 0.000000
0.856016 0.271824 0.000000
0.917479 0.292424 0.000000
0.977081 0.315435 0.043610
1.000000 0.341833 0.108919
1.000000 0.372442 0.170840
0.000000 0.060975 0.062043
0.062593 0.063569 0.059663
0.128817 0.071473 0.058259
0.201816 0.085145 0.056153
0.284215 0.104097 0.051118
0.374853 0.128695 0.040894
0.469856 0.157382 0.024720
0.562158 0.186862 0.004059
0.645411 0.213993 0.000000
0.722255 0.239780 0.000000
0.791531 0.263188 0.000000
0.854856 0.283238 0.000000
0.916228 0.302220 0.000000
0.975891 0.324102 0.043000
1.000000 0.349279 0.109071
1.000000 0.379156 0.172061
0.000000 0.107912 0.073304
0.058656 0.111482 0.066499
0.127749 0.109926 0.067292
0.196262 0.121431 0.068788
0.280858 0.139467 0.063050
0.373877 0.162051 0.053010
0.469093 0.187655 0.037263
0.560937 0.213748 0.016632
0.645228 0.238041 0.000000
0.721553 0.260899 0.000000
0.789853 0.281346 0.000000
0.852476 0.300603 0.000000
0.913756 0.318914 0.000000
0.973907 0.339086 0.041779
1.000000 0.362524 0.110170
1.000000 0.390845 0.174166
0.000000 0.165133 0.084871
0.045686 0.167422 0.074891
0.133577 0.166049 0.071809
0.201663 0.166995 0.076265
0.281865 0.183810 0.076356
0.369848 0.204379 0.071595
0.464759 0.227573 0.058167
0.557366 0.250645 0.040131
0.641474 0.271794 0.021241
0.717556 0.290806 0.006470
0.785946 0.308141 0.000000
0.849058 0.324987 0.000000
0.911101 0.343023 0.000000
0.970825 0.361639 0.041749
1.000000 0.382238 0.111360
1.000000 0.407752 0.175662
0.000000 0.231083 0.090974
0.007782 0.233494 0.082979
0.128237 0.236362 0.074586
0.212741 0.230472 0.079713
0.286900 0.235935 0.084535
0.374731 0.255131 0.083467
0.461402 0.274327 0.082887
0.552453 0.294926 0.072663
0.636408 0.312779 0.060822
0.713069 0.328893 0.051026
0.782284 0.343450 0.046174
0.847196 0.358007 0.048737
0.910307 0.374212 0.058381
0.970459 0.391943 0.076020
1.000000 0.411322 0.120089
1.000000 0.434516 0.185855
0.000000 0.309361 0.096254
0.000000 0.311254 0.091341
0.109102 0.314397 0.081361
0.220157 0.312474 0.080049
0.301732 0.306157 0.088167
0.383032 0.314305 0.094759
0.471992 0.331701 0.095521
0.554467 0.346532 0.099580
0.632227 0.360296 0.103700
0.708400 0.373236 0.099702
0.777798 0.384802 0.099397
0.843626 0.397131 0.103365
0.906859 0.410925 0.112276
0.966827 0.426368 0.126619
1.000000 0.443610 0.146914
1.000000 0.464271 0.195224
0.000000 0.391669 0.108370
0.000000 0.393561 0.103487
0.068208 0.395850 0.093599
0.213565 0.397436 0.081361
0.315984 0.391211 0.090517
0.395911 0.384710 0.102235
0.479072 0.392218 0.113008
0.562860 0.404181 0.119814
0.636103 0.412329 0.130190
0.704494 0.421149 0.143679
0.772274 0.430304 0.148714
0.838590 0.440345 0.153628
0.902159 0.452125 0.162112
0.962127 0.465858 0.175570
1.000000 0.481422 0.194400
1.000000 0.499184 0.220096
0.000000 0.467720 0.127901
0.000000 0.469368 0.123629
0.000000 0.471046 0.115206
0.197391 0.472694 0.100191
0.315221 0.469581 0.100740
0.408667 0.462959 0.112856
0.485969 0.455909 0.126894
0.564569 0.459663 0.143160
0.640436 0.466102 0.155184
0.707179 0.470741 0.169741
0.770260 0.477180 0.186709
0.832578 0.486366 0.203799
0.896574 0.496773 0.212375
0.956176 0.508812 0.225071
1.000000 0.522637 0.242710
1.000000 0.539086 0.267613
0.000000 0.533227 0.156252
0.000000 0.533745 0.152560
0.000000 0.534905 0.145632
0.182223 0.536431 0.133303
0.305089 0.536522 0.123049
0.408392 0.531060 0.134249
0.495277 0.525200 0.148165
0.569177 0.518883 0.165164
0.643061 0.520836 0.185214
0.713802 0.525231 0.201511
0.776944 0.529229 0.220005
0.837949 0.536400 0.241001
0.896086 0.546654 0.264714
0.953887 0.558465 0.282475
1.000000 0.571710 0.300999
1.000000 0.586542 0.325139
0.000000 0.595361 0.193942
0.000000 0.595575 0.190677
0.000000 0.596216 0.185000
0.180667 0.597467 0.175296
0.298497 0.598413 0.161959
0.405188 0.595666 0.165438
0.497780 0.590326 0.177584
0.578820 0.584680 0.192172
0.649439 0.578820 0.212131
0.716640 0.578149 0.233555
0.779904 0.579950 0.252323
0.839933 0.584558 0.272862
0.897185 0.592584 0.296483
0.950652 0.604089 0.324498
0.999329 0.618219 0.354528
1.000000 0.632074 0.378668
0.000000 0.656611 0.238193
0.000000 0.656916 0.235599
0.029328 0.657343 0.230747
0.194980 0.658015 0.222599
0.302647 0.658717 0.211093
0.402930 0.658198 0.202823
0.498848 0.653162 0.213901
0.583612 0.647883 0.227054
0.659693 0.642634 0.242435
0.725277 0.636194 0.264988
0.786069 0.633936 0.287053
0.842802 0.634485 0.306798
0.898650 0.640101 0.330236
0.950561 0.649134 0.357794
0.996674 0.661036 0.389715
1.000000 0.675563 0.426490
0.000000 0.715358 0.286900
0.000000 0.715511 0.284611
0.121920 0.715694 0.280369
0.224735 0.716213 0.273411
0.316930 0.716976 0.263188
0.406867 0.717098 0.251041
0.500908 0.714412 0.255436
0.588037 0.709560 0.267399
0.666865 0.704524 0.281498
0.737881 0.699428 0.297124
0.797604 0.692805 0.322026
0.851987 0.689693 0.343877
0.901152 0.688808 0.365118
0.949981 0.694148 0.390936
0.994385 0.703182 0.421790
1.000000 0.715358 0.458564
0.067597 0.771817 0.336004
0.124269 0.772091 0.334234
0.191196 0.772793 0.331365
0.264958 0.773678 0.326055
0.342779 0.774929 0.318303
0.423163 0.775906 0.308415
0.508965 0.776150 0.302770
0.597131 0.772519 0.314916
0.678035 0.768795 0.329229
0.751644 0.764889 0.345006
0.818143 0.761501 0.362646
0.871153 0.754788 0.391241
0.917693 0.750759 0.414862
0.957244 0.747860 0.437598
0.995911 0.751247 0.465705
1.000000 0.758785 0.498970
0.212070 0.833677 0.398199
0.230198 0.832212 0.394018
0.266545 0.831754 0.389990
0.319036 0.832059 0.384924
0.381506 0.832883 0.378363
0.450233 0.833616 0.369238
0.524224 0.833799 0.359197
0.607568 0.831693 0.364904
0.687617 0.828183 0.378332
0.760708 0.824369 0.392737
0.827298 0.820951 0.409186
0.886717 0.817807 0.426734
0.929931 0.808957 0.458442
0.966247 0.801907 0.481605
0.996704 0.796597 0.504936
1.000000 0.798795 0.535149
0.315679 0.887572 0.461646
0.325444 0.886442 0.457588
0.348302 0.885954 0.453742
0.385290 0.885893 0.449073
0.433326 0.886198 0.443122
0.489296 0.886534 0.435035
0.552392 0.886534 0.426215
0.622400 0.885740 0.421057
0.698421 0.882261 0.433509
0.768856 0.878569 0.447456
0.833402 0.875120 0.463325
0.891600 0.872099 0.480842
0.943847 0.869718 0.500084
0.976867 0.858427 0.533806
1.000000 0.850187 0.558099
1.000000 0.843961 0.581109
0.427710 0.935454 0.536309
0.432837 0.934630 0.532677
0.446845 0.934234 0.529107
0.471656 0.934142 0.525170
0.505852 0.934264 0.520165
0.547784 0.934478 0.513359
0.596826 0.934508 0.505272
0.651575 0.934173 0.496590
0.717617 0.932128 0.503471
0.782803 0.929168 0.518029
0.843015 0.926421 0.534356
0.898100 0.924010 0.552148
0.948272 0.922240 0.572137
0.993317 0.921111 0.593622
1.000000 0.909606 0.632654
1.000000 0.903258 0.663050
0.000000 0.054994 0.112245
0.032746 0.048310 0.114260
0.126650 0.039643 0.111025
0.219425 0.038087 0.101686
0.297856 0.062440 0.090028
0.381781 0.098695 0.087312
0.472267 0.134829 0.085237
0.562310 0.169192 0.079286
0.645106 0.199771 0.067659
0.721462 0.228519 0.056336
0.790555 0.254917 0.047425
0.853330 0.279088 0.043183
0.913970 0.302647 0.044404
0.973632 0.327092 0.055421
1.000000 0.351629 0.108064
1.000000 0.379889 0.171298
0.000000 0.084108 0.115663
0.044587 0.084169 0.113100
0.124971 0.078737 0.113039
0.208316 0.086061 0.104463
0.288457 0.104952 0.100801
0.377417 0.129854 0.098817
0.470741 0.158083 0.093446
0.561944 0.186862 0.084077
0.645411 0.214817 0.073213
0.721736 0.241520 0.063630
0.790372 0.266087 0.055909
0.852873 0.288640 0.053346
0.913451 0.311009 0.055116
0.972869 0.334630 0.066011
1.000000 0.358434 0.108614
1.000000 0.386145 0.172366
0.000000 0.121889 0.122164
0.043427 0.122774 0.119997
0.123018 0.125765 0.117494
0.198550 0.134218 0.116152
0.283848 0.148226 0.113619
0.376135 0.167483 0.109224
0.470558 0.190738 0.102052
0.561456 0.215518 0.092866
0.645563 0.240269 0.083680
0.721126 0.263523 0.075959
0.788785 0.284794 0.070588
0.851072 0.305089 0.069032
0.911925 0.325689 0.072206
0.971313 0.347814 0.082826
1.000000 0.370886 0.109682
1.000000 0.397223 0.174441
0.000000 0.173404 0.134676
0.030121 0.176547 0.132967
0.117342 0.181643 0.124086
0.200992 0.180270 0.125063
0.280797 0.193881 0.126680
0.372564 0.212436 0.122316
0.466926 0.232914 0.115297
0.558923 0.254948 0.107515
0.641932 0.275456 0.100160
0.717250 0.294530 0.094270
0.785061 0.312322 0.091157
0.847715 0.329839 0.091524
0.909819 0.348760 0.096376
0.968933 0.368505 0.106874
1.000000 0.389319 0.122591
1.000000 0.413214 0.175662
0.000000 0.239414 0.149752
0.000000 0.242649 0.144045
0.101167 0.247440 0.131167
0.209140 0.246128 0.127718
0.287877 0.246647 0.133028
0.374060 0.262882 0.134554
0.461860 0.281254 0.135012
0.553277 0.300481 0.128511
0.636500 0.317601 0.123201
0.712337 0.333593 0.119905
0.781064 0.348486 0.118776
0.845945 0.363653 0.121645
0.908995 0.380194 0.128206
0.968933 0.398535 0.139895
1.000000 0.418128 0.156741
1.000000 0.439429 0.186526
0.000000 0.316960 0.161746
0.000000 0.319982 0.153323
0.064851 0.323613 0.140383
0.206119 0.325994 0.130983
0.302129 0.319036 0.137118
0.383612 0.323064 0.144442
0.470985 0.338201 0.147250
0.553185 0.352514 0.152346
0.632197 0.366247 0.153750
0.707637 0.378729 0.151797
0.776791 0.390448 0.152560
0.842344 0.402960 0.156466
0.905425 0.417060 0.163729
0.965179 0.432898 0.175082
1.000000 0.450507 0.191440
1.000000 0.469886 0.213718
0.000000 0.398016 0.172366
0.000000 0.400885 0.162081
0.000000 0.403082 0.153292
0.193179 0.405921 0.141207
0.309911 0.401801 0.142855
0.397101 0.394812 0.151736
0.479316 0.399268 0.161929
0.561608 0.409644 0.168612
0.634363 0.417731 0.177554
0.702419 0.426917 0.188754
0.771145 0.436103 0.190890
0.837095 0.446326 0.195438
0.900542 0.458259 0.202762
0.960296 0.472145 0.214359
1.000000 0.487984 0.230686
1.000000 0.506035 0.253178
0.000000 0.472908 0.185641
0.000000 0.474952 0.178317
0.000000 0.476539 0.171786
0.177462 0.478645 0.160586
0.305516 0.477638 0.153536
0.406226 0.470558 0.162417
0.486763 0.463294 0.173465
0.563989 0.465248 0.187472
0.638727 0.470954 0.197940
0.705287 0.475807 0.210330
0.768063 0.482795 0.225315
0.831144 0.492103 0.237888
0.894865 0.502647 0.245731
0.954284 0.514763 0.257145
1.000000 0.528710 0.272923
1.000000 0.545251 0.295079
0.000000 0.537285 0.205020
0.000000 0.537804 0.202029
0.000000 0.538842 0.196445
0.167269 0.540368 0.187045
0.294194 0.541436 0.173739
0.403937 0.536858 0.181064
0.493874 0.530877 0.192294
0.568933 0.524315 0.206119
0.642084 0.525475 0.223850
0.711910 0.529625 0.238254
0.774777 0.534051 0.254856
0.835538 0.541680 0.273503
0.893553 0.552300 0.295018
0.952026 0.564050 0.309209
1.000000 0.577417 0.326390
1.000000 0.592279 0.348547
0.000000 0.598260 0.237308
0.000000 0.598566 0.234623
0.000000 0.599237 0.229709
0.172854 0.600488 0.221683
0.293004 0.601892 0.210239
0.400488 0.600336 0.207431
0.495705 0.594842 0.217807
0.577752 0.589166 0.230289
0.648707 0.583246 0.247166
0.715267 0.582208 0.266606
0.777829 0.584009 0.283238
0.837766 0.588952 0.301884
0.894865 0.597345 0.323430
0.948241 0.609186 0.349401
0.997467 0.623072 0.375494
1.000000 0.636835 0.397803
0.000000 0.658595 0.275761
0.000000 0.658930 0.273716
0.034638 0.659388 0.269596
0.194339 0.660151 0.262394
0.300420 0.661128 0.251957
0.398535 0.661189 0.240726
0.496376 0.656641 0.249577
0.582238 0.651270 0.261143
0.658564 0.645960 0.274723
0.724117 0.639582 0.294621
0.784390 0.637293 0.314549
0.840726 0.637995 0.332708
0.896544 0.644007 0.354162
0.948455 0.653254 0.379522
0.994537 0.665217 0.409186
1.000000 0.679774 0.443641
0.000000 0.716640 0.319097
0.000000 0.716793 0.317082
0.130648 0.717006 0.313146
0.228122 0.717586 0.306920
0.317906 0.718379 0.297978
0.406012 0.718898 0.286503
0.498726 0.717006 0.286107
0.586419 0.712123 0.296941
0.665583 0.707057 0.309483
0.736446 0.702022 0.323705
0.796170 0.695491 0.346105
0.850309 0.692500 0.366339
0.899229 0.691737 0.385687
0.948150 0.697353 0.409766
0.992493 0.706447 0.438453
1.000000 0.718654 0.473365
0.088899 0.772885 0.363195
0.137362 0.773159 0.361700
0.198337 0.773831 0.358923
0.269291 0.774716 0.354162
0.344671 0.775998 0.346990
0.423621 0.777157 0.337621
0.506584 0.777859 0.329259
0.595239 0.774472 0.339635
0.676600 0.770718 0.352880
0.750271 0.766842 0.367315
0.816648 0.763485 0.383703
0.869780 0.757015 0.409979
0.916075 0.753109 0.432349
0.955444 0.750332 0.453773
0.994202 0.753964 0.480446
1.000000 0.761624 0.512108
0.219089 0.834226 0.419989
0.236393 0.832792 0.415991
0.271519 0.832425 0.412268
0.322179 0.832731 0.407630
0.383429 0.833555 0.401404
0.450813 0.834379 0.392554
0.523827 0.834653 0.383032
0.605402 0.833097 0.385016
0.685786 0.829587 0.397406
0.759030 0.825772 0.411048
0.825681 0.822324 0.426459
0.884977 0.819150 0.443244
0.928405 0.810636 0.472999
0.964660 0.803738 0.495186
0.995087 0.798520 0.517266
1.000000 0.800961 0.546197
0.320256 0.887755 0.479103
0.329656 0.886656 0.475257
0.351904 0.886198 0.471504
0.388037 0.886168 0.467140
0.435035 0.886503 0.461463
0.490059 0.886870 0.453773
0.552148 0.887022 0.444984
0.620233 0.886534 0.437415
0.696345 0.883116 0.448554
0.766995 0.879423 0.461860
0.831662 0.876005 0.477150
0.889891 0.872923 0.493874
0.942077 0.870573 0.512322
0.975494 0.859617 0.544335
1.000000 0.851530 0.567651
1.000000 0.845457 0.589807
0.430365 0.935454 0.549371
0.435187 0.934661 0.545800
0.449073 0.934264 0.542443
0.473396 0.934203 0.538659
0.507195 0.934386 0.533898
0.548577 0.934569 0.527398
0.596674 0.934752 0.519249
0.650935 0.934417 0.510796
0.715419 0.932708 0.514427
0.780850 0.929717 0.528435
0.841306 0.926970 0.544152
0.896483 0.924529 0.561334
0.946654 0.922759 0.580652
0.991730 0.921630 0.601587
1.000000 0.910460 0.639429
1.000000 0.904173 0.669154
0.000000 0.089601 0.175235
0.000000 0.081605 0.176669
0.089479 0.068238 0.177096
0.196597 0.059052 0.172610
0.307103 0.048707 0.167361
0.395117 0.071015 0.150454
0.483589 0.114809 0.143709
0.569818 0.157656 0.141024
0.649165 0.196445 0.140352
0.722530 0.232029 0.142397
0.790036 0.261631 0.142611
0.852079 0.287541 0.143465
0.912596 0.312596 0.146578
0.971984 0.338262 0.154086
1.000000 0.364019 0.166140
1.000000 0.390082 0.182986
0.000000 0.115602 0.178164
0.000000 0.111666 0.175051
0.092714 0.103517 0.177127
0.195834 0.096529 0.174472
0.299962 0.095918 0.166995
0.390814 0.114199 0.155184
0.480385 0.148684 0.151980
0.567315 0.182712 0.149294
0.648188 0.216403 0.148928
0.722255 0.247227 0.148867
0.789609 0.273198 0.147555
0.851499 0.297520 0.148531
0.912047 0.321202 0.151827
0.971099 0.345739 0.159274
1.000000 0.370642 0.171084
1.000000 0.396399 0.188540
0.000000 0.148165 0.182650
0.001801 0.147433 0.180362
0.104311 0.147646 0.178073
0.196597 0.142763 0.179385
0.293736 0.150546 0.171328
0.384375 0.170199 0.167910
0.476143 0.193515 0.165103
0.564843 0.220188 0.162905
0.646845 0.245792 0.159701
0.721187 0.270176 0.157168
0.787778 0.292821 0.156130
0.849485 0.314275 0.157015
0.910307 0.336156 0.160830
0.969482 0.358923 0.168460
1.000000 0.382727 0.180514
1.000000 0.407477 0.198032
0.000000 0.193088 0.192203
0.000000 0.193179 0.190402
0.098726 0.194949 0.188327
0.195102 0.200198 0.185977
0.284215 0.210086 0.184360
0.377020 0.224521 0.181918
0.470863 0.242435 0.178439
0.561364 0.262852 0.174929
0.642847 0.282933 0.171725
0.716976 0.302495 0.169802
0.783780 0.321263 0.169253
0.846220 0.339696 0.170809
0.908110 0.359319 0.175631
0.966888 0.379736 0.183291
1.000000 0.401007 0.194644
1.000000 0.423560 0.210849
0.000000 0.248600 0.204013
0.000000 0.252171 0.204074
0.073701 0.257877 0.202121
0.187137 0.265110 0.192447
0.285435 0.263279 0.193729
0.371893 0.276860 0.196567
0.464820 0.293370 0.194522
0.555230 0.310674 0.191226
0.636988 0.326818 0.188907
0.711910 0.342779 0.187961
0.779721 0.357885 0.188724
0.844358 0.373999 0.192081
0.907103 0.391211 0.198001
0.966705 0.409949 0.207218
1.000000 0.429938 0.220279
1.000000 0.450904 0.237461
0.000000 0.326146 0.225406
0.000000 0.329290 0.223301
0.011231 0.333684 0.217044
0.175204 0.339513 0.202579
0.296269 0.337438 0.198795
0.382422 0.336919 0.205722
0.469337 0.349523 0.209567
0.550866 0.363439 0.214908
0.632074 0.376349 0.213230
0.706905 0.388556 0.212833
0.775235 0.400458 0.214450
0.840391 0.413458 0.218418
0.903227 0.427832 0.224552
0.962707 0.444129 0.234073
1.000000 0.461952 0.247379
1.000000 0.481666 0.265660
0.000000 0.405493 0.242557
0.000000 0.408118 0.238987
0.000000 0.411658 0.230472
0.158999 0.415839 0.215946
0.294682 0.416999 0.206668
0.395697 0.409430 0.213657
0.478065 0.410529 0.222660
0.558862 0.419074 0.229038
0.631189 0.427253 0.237064
0.700832 0.436713 0.243442
0.769284 0.445899 0.245212
0.834958 0.456397 0.249454
0.898070 0.468574 0.255955
