luts/Moody ● 16.cube
# Created by Adobe Lightroom plugin Export LUT (1.16.0)
# www.johnrellis.com/lightroom/exportlut.htm
# Preset: Moody ●
# Color profile: C:\Program Files (x86)\Common Files\Adobe\Color\Profiles\Recommended\sRGB Color Space Profile.icm
LUT_3D_SIZE 6
DOMAIN_MIN 0.0 0.0 0.0
DOMAIN_MAX 1.0 1.0 1.0
0.003906 0.003906 0.003906
0.209720 0.045686 0.017914
0.477790 0.121248 0.000000
0.729732 0.208957 0.000000
0.922179 0.281621 0.000000
1.000000 0.368353 0.172183
0.000000 0.154421 0.034607
0.197940 0.156649 0.036255
0.459998 0.222232 0.005951
0.715328 0.287785 0.000000
0.911559 0.336217 0.000000
1.000000 0.404211 0.175784
0.000000 0.386267 0.066773
0.223789 0.391791 0.036042
0.481178 0.390417 0.078126
0.707820 0.419471 0.113436
0.905119 0.450172 0.136751
1.000000 0.497292 0.209415
0.000000 0.593378 0.166598
0.186007 0.595636 0.144930
0.499550 0.588281 0.152560
0.718593 0.576959 0.214755
0.899351 0.590753 0.281651
1.000000 0.629480 0.367590
0.049744 0.770657 0.319219
0.262242 0.772793 0.309117
0.510094 0.775021 0.287633
0.752560 0.764004 0.332158
0.918791 0.749722 0.405249
1.000000 0.757107 0.491310
0.425635 0.935363 0.528588
0.469886 0.933959 0.517052
0.596429 0.934264 0.496895
0.783749 0.928832 0.512108
0.949248 0.922118 0.567742
1.000000 0.902892 0.660090
0.000000 0.089601 0.175235
0.196597 0.059052 0.172610
0.483589 0.114809 0.143709
0.722530 0.232029 0.142397
0.912596 0.312596 0.146578
1.000000 0.390082 0.182986
0.000000 0.193088 0.192203
0.195102 0.200198 0.185977
0.470863 0.242435 0.178439
0.716976 0.302495 0.169802
0.908110 0.359319 0.175631
1.000000 0.423560 0.210849
0.000000 0.405493 0.242557
0.158999 0.415839 0.215946
0.478065 0.410529 0.222660
0.700832 0.436713 0.243442
0.898070 0.468574 0.255955
1.000000 0.516991 0.298589
0.000000 0.601801 0.299199
0.166110 0.604822 0.282933
0.491676 0.601770 0.271641
0.712703 0.588708 0.313024
0.891325 0.605097 0.362554
1.000000 0.644038 0.425727
0.113832 0.774380 0.402045
0.274815 0.776059 0.393835
0.503990 0.779812 0.369482
0.747799 0.769863 0.399847
0.913512 0.756832 0.458625
1.000000 0.766018 0.531945
0.433936 0.935454 0.569146
0.475715 0.934264 0.559106
0.596307 0.934966 0.540642
0.777462 0.930663 0.544305
0.944060 0.923644 0.594018
1.000000 0.905699 0.678706
0.000000 0.216709 0.401709
0.000000 0.186191 0.407446
0.459663 0.152010 0.406317
0.736965 0.242161 0.363104
0.906889 0.374884 0.374914
1.000000 0.463691 0.407172
0.000000 0.297307 0.414557
0.030701 0.292576 0.409644
0.461830 0.275578 0.417182
0.719814 0.346227 0.385992
0.898131 0.424323 0.396674
1.000000 0.488075 0.415930
0.000000 0.443854 0.442390
0.000000 0.449958 0.442237
0.459205 0.467536 0.439368
0.690852 0.491646 0.438331
0.885405 0.523125 0.443732
1.000000 0.567285 0.462989
0.000000 0.618280 0.487007
0.158663 0.621393 0.486366
0.465736 0.629633 0.476020
0.697749 0.621057 0.486336
0.874662 0.642390 0.512444
1.000000 0.676997 0.540154
0.000000 0.782467 0.537560
0.254154 0.783841 0.539879
0.495796 0.788510 0.535058
0.730404 0.785641 0.531518
0.900237 0.774960 0.569604
1.000000 0.786618 0.617487
0.369329 0.938506 0.636530
0.464332 0.935393 0.645106
0.590845 0.935668 0.637690
0.753048 0.936095 0.616632
0.929107 0.928252 0.656703
1.000000 0.913420 0.725063
0.000000 0.338476 0.606073
0.000000 0.332982 0.608362
0.308232 0.324987 0.617823
0.679835 0.320134 0.618128
0.909239 0.410864 0.573907
1.000000 0.572473 0.618555
0.000000 0.397589 0.615015
0.000000 0.397864 0.611139
0.339971 0.401770 0.619837
0.676997 0.394659 0.621210
0.898772 0.464851 0.584588
1.000000 0.590204 0.622858
0.000000 0.500786 0.625208
0.000000 0.507225 0.624811
0.407416 0.527092 0.621729
0.673640 0.527855 0.631128
0.878965 0.575982 0.616266
1.000000 0.640101 0.638636
0.000000 0.635889 0.651057
0.053132 0.639429 0.650935
0.431434 0.649500 0.651118
0.678614 0.666712 0.652705
0.869810 0.685817 0.653132
1.000000 0.714076 0.661891
0.000000 0.797604 0.694514
0.000000 0.798978 0.693568
0.419593 0.802213 0.689906
0.687739 0.808347 0.683986
0.880583 0.801358 0.696468
0.997925 0.817288 0.725216
0.000000 0.955047 0.697749
0.000000 0.952453 0.692744
0.441016 0.944396 0.719112
0.730037 0.939483 0.745205
0.901152 0.936645 0.745815
1.000000 0.926146 0.793271
0.000000 0.467964 0.789181
0.000000 0.475105 0.788846
0.260624 0.498329 0.791836
0.578241 0.499092 0.798154
0.867247 0.503288 0.798215
1.000000 0.582513 0.756344
0.000000 0.505913 0.792813
0.000000 0.513390 0.790097
0.306310 0.535088 0.792203
0.590692 0.538628 0.798428
0.864073 0.538506 0.798489
1.000000 0.607568 0.759579
0.000000 0.577905 0.797971
0.000000 0.584558 0.796628
0.364172 0.606043 0.792599
0.617151 0.621485 0.799527
0.860380 0.617578 0.803189
1.000000 0.678462 0.776913
0.000000 0.680568 0.811765
0.000000 0.683955 0.811124
0.357092 0.692836 0.808621
0.639185 0.713497 0.804746
0.858152 0.720516 0.814328
0.994079 0.773129 0.806943
0.000000 0.802701 0.832731
0.000000 0.804868 0.832578
0.382177 0.811093 0.832212
0.648737 0.822019 0.831785
0.858000 0.839597 0.833921
0.986053 0.854154 0.834257
0.000000 0.965728 0.872251
0.000000 0.963531 0.868437
0.000000 0.959808 0.861204
0.582086 0.953063 0.851133
0.859251 0.948119 0.858396
0.992981 0.943664 0.874357
0.000000 0.643275 0.947906
0.202121 0.657527 0.946166
0.481605 0.687739 0.943786
0.683101 0.721309 0.942138
0.825895 0.717037 0.944671
0.991852 0.730770 0.942626
0.000000 0.657465 0.948974
0.214542 0.671107 0.946929
0.489448 0.700771 0.943603
0.692744 0.736629 0.941222
0.826169 0.729549 0.943206
0.988861 0.738674 0.940856
0.000000 0.681605 0.952911
0.033814 0.694697 0.951232
0.482429 0.728969 0.946105
0.704646 0.769253 0.942718
0.833860 0.771084 0.944335
0.985382 0.775967 0.943389
0.000000 0.731533 0.960693
0.000000 0.735683 0.959777
0.264439 0.748226 0.956909
0.676387 0.800351 0.948119
0.843381 0.827543 0.947387
0.980682 0.828580 0.947875
0.000000 0.822110 0.968994
0.000000 0.825132 0.968261
0.206821 0.834134 0.966094
0.593744 0.850553 0.961944
0.840360 0.883574 0.954559
0.976349 0.892882 0.955901
0.000000 0.928069 0.978363
0.000000 0.929473 0.977600
0.000000 0.934905 0.975616
0.514488 0.944244 0.972076
0.798184 0.956237 0.968292
0.971954 0.968383 0.967529
