luts/Napanee ● 16.cube
# Created by Adobe Lightroom plugin Export LUT (1.16.0)
# www.johnrellis.com/lightroom/exportlut.htm
# Preset: Napanee ●
# Color profile: C:\Program Files (x86)\Common Files\Adobe\Color\Profiles\Recommended\sRGB Color Space Profile.icm
LUT_3D_SIZE 16
DOMAIN_MIN 0.0 0.0 0.0
DOMAIN_MAX 1.0 1.0 1.0
0.048829 0.026886 0.065003
0.141604 0.028138 0.093843
0.255436 0.013642 0.122683
0.363378 0.000000 0.131136
0.459144 0.000000 0.126802
0.549462 0.000000 0.120577
0.637018 0.000000 0.130220
0.723354 0.000000 0.142794
0.807462 0.000000 0.155459
0.882780 0.000000 0.169619
0.948211 0.000000 0.185458
1.000000 0.000000 0.202884
1.000000 0.000000 0.223056
1.000000 0.000000 0.245029
1.000000 0.083131 0.267765
1.000000 0.147463 0.290684
0.072602 0.065156 0.098695
0.151369 0.062928 0.097169
0.255558 0.058289 0.120943
0.360296 0.029786 0.128298
0.456123 0.000000 0.123690
0.546410 0.000000 0.117067
0.634211 0.000000 0.126680
0.720546 0.000000 0.139223
0.804898 0.000000 0.151827
0.880400 0.000000 0.166201
0.946380 0.000000 0.182559
1.000000 0.000000 0.200595
1.000000 0.000000 0.221073
1.000000 0.054780 0.243412
1.000000 0.115602 0.266514
1.000000 0.166781 0.289708
0.101808 0.107179 0.139193
0.160525 0.104555 0.129580
0.250950 0.106722 0.117983
0.355657 0.101381 0.123323
0.450385 0.081880 0.117403
0.541100 0.051301 0.109957
0.628931 0.023255 0.119509
0.715877 0.004150 0.131930
0.800809 0.000000 0.145357
0.876890 0.004456 0.160281
0.943236 0.024994 0.177310
1.000000 0.058381 0.196231
1.000000 0.092134 0.217594
1.000000 0.124575 0.240604
1.000000 0.158999 0.264439
1.000000 0.196689 0.288060
0.129519 0.153994 0.179446
0.177462 0.153048 0.172122
0.241367 0.151186 0.158236
0.339940 0.159579 0.133455
0.442542 0.161837 0.106447
0.532982 0.154849 0.096773
0.621454 0.150027 0.106813
0.708919 0.148623 0.119905
0.794461 0.149752 0.133761
0.871336 0.152285 0.150149
0.938354 0.156619 0.168368
0.998718 0.164614 0.188907
1.000000 0.175418 0.211734
1.000000 0.191135 0.236088
1.000000 0.211307 0.260777
1.000000 0.237278 0.285283
0.155947 0.208591 0.218875
0.194186 0.208225 0.213321
0.250156 0.207797 0.202792
0.321050 0.207309 0.183169
0.420111 0.220981 0.147555
0.525444 0.232944 0.075837
0.613092 0.234195 0.086336
0.700862 0.237095 0.101045
0.786923 0.240452 0.116579
0.864256 0.241947 0.134768
0.932128 0.242466 0.155306
0.993866 0.244236 0.178347
1.000000 0.248356 0.203464
1.000000 0.255467 0.229557
1.000000 0.266789 0.255711
1.000000 0.284123 0.281437
0.176516 0.269322 0.253025
0.209445 0.269322 0.248600
0.258946 0.269535 0.239567
0.323674 0.270359 0.224643
0.396826 0.270848 0.199771
0.499184 0.290288 0.155276
0.603845 0.308110 0.079805
0.692592 0.314305 0.070985
0.778408 0.318456 0.090028
0.856046 0.319066 0.112490
0.924926 0.317723 0.137423
0.988128 0.316533 0.163973
1.000000 0.316625 0.192081
1.000000 0.318700 0.220737
1.000000 0.323949 0.249058
1.000000 0.334356 0.276310
0.193790 0.333837 0.281163
0.222477 0.334234 0.277623
0.266361 0.334966 0.271122
0.326329 0.336309 0.259373
0.396033 0.338384 0.241001
0.474372 0.342718 0.211490
0.577295 0.364996 0.168826
0.682216 0.383703 0.082673
0.770321 0.390356 0.044800
0.847135 0.389899 0.078584
0.917144 0.387427 0.111818
0.981628 0.384588 0.144808
1.000000 0.381781 0.177646
1.000000 0.380255 0.209903
1.000000 0.381353 0.240635
1.000000 0.386328 0.269871
0.212894 0.401984 0.305150
0.237369 0.402380 0.302586
0.277134 0.403540 0.297673
0.331487 0.404944 0.289220
0.396826 0.406867 0.276005
0.470039 0.409705 0.255039
0.552789 0.417975 0.225071
0.656245 0.439155 0.177493
0.758633 0.456001 0.078279
0.839017 0.457252 0.017304
0.909178 0.453498 0.073426
0.975006 0.449500 0.118807
1.000000 0.444831 0.158968
1.000000 0.440681 0.196139
1.000000 0.438209 0.230442
1.000000 0.439277 0.262364
0.232212 0.470893 0.322728
0.253513 0.471382 0.320836
0.289555 0.472084 0.317113
0.340032 0.473304 0.310796
0.401221 0.475196 0.300816
0.470436 0.477546 0.286015
0.545251 0.480934 0.263554
0.632136 0.491859 0.232883
0.733639 0.510185 0.181033
0.827512 0.519829 0.071748
0.902922 0.518120 0.004242
0.968353 0.512261 0.081025
1.000000 0.506065 0.134920
1.000000 0.499672 0.179446
1.000000 0.494636 0.218387
1.000000 0.492409 0.253391
0.250431 0.541985 0.334752
0.270054 0.542504 0.333104
0.303593 0.543175 0.329961
0.351415 0.544366 0.324804
0.409461 0.546441 0.316777
0.476448 0.548577 0.305241
0.549218 0.551598 0.288518
0.626917 0.555566 0.263645
0.716365 0.566796 0.230137
0.809628 0.577020 0.174624
0.894255 0.579644 0.034943
0.963043 0.574212 0.016266
1.000000 0.565881 0.103090
1.000000 0.557519 0.158968
1.000000 0.550164 0.204135
1.000000 0.545220 0.243320
0.267918 0.619165 0.342718
0.286595 0.619501 0.341161
0.319005 0.620020 0.338476
0.365332 0.621088 0.333654
0.422400 0.622644 0.326390
0.487709 0.624292 0.316594
0.558923 0.626337 0.302708
0.634699 0.628901 0.283268
0.714260 0.632013 0.254307
0.800473 0.637903 0.217960
0.884092 0.639612 0.153506
0.958343 0.634577 0.000000
1.000000 0.624872 0.057374
1.000000 0.614374 0.134554
1.000000 0.604761 0.187686
1.000000 0.597528 0.231937
0.293950 0.695430 0.351110
0.311254 0.695705 0.349767
0.341497 0.696071 0.346899
0.385229 0.696803 0.342199
0.439796 0.697749 0.335119
0.502770 0.699001 0.325536
0.572107 0.700130 0.312474
0.645655 0.701656 0.294804
0.723079 0.703395 0.270390
0.800107 0.702266 0.235721
0.882017 0.703395 0.191623
0.954864 0.696407 0.101534
1.000000 0.683223 0.000000
1.000000 0.670436 0.104860
1.000000 0.658900 0.169894
1.000000 0.649195 0.219669
0.333501 0.769162 0.365270
0.348516 0.769314 0.363592
0.374975 0.769589 0.360662
0.414221 0.769955 0.355596
0.464607 0.770565 0.348058
0.523339 0.771298 0.337621
0.588922 0.771969 0.323857
0.659632 0.772549 0.305821
0.734310 0.773220 0.281926
0.811917 0.773953 0.248783
0.887510 0.770596 0.202518
0.958251 0.761746 0.136934
1.000000 0.746120 0.000000
1.000000 0.727077 0.067353
1.000000 0.712215 0.150149
1.000000 0.700587 0.207767
0.390936 0.838590 0.389868
0.402930 0.838621 0.388159
0.424201 0.838773 0.384771
0.456916 0.838987 0.379156
0.500023 0.839261 0.370703
0.551995 0.839597 0.359136
0.611414 0.839902 0.343755
0.676936 0.839872 0.323583
0.747097 0.839658 0.297246
0.820920 0.839384 0.261601
0.897642 0.838987 0.210361
0.967590 0.830228 0.133944
1.000000 0.811704 0.000000
1.000000 0.789425 0.029908
1.000000 0.767514 0.133242
1.000000 0.751339 0.196262
0.468910 0.901061 0.431403
0.477607 0.901091 0.429389
0.493202 0.901152 0.425544
0.517754 0.901274 0.419226
0.551110 0.901396 0.409613
0.592767 0.901549 0.396216
0.642267 0.901610 0.378393
0.698756 0.901427 0.354559
0.761440 0.900908 0.323796
0.829313 0.900114 0.282536
0.901488 0.898924 0.223789
0.977386 0.897368 0.118410
1.000000 0.880766 0.000000
1.000000 0.854765 0.006317
1.000000 0.829404 0.134310
1.000000 0.805844 0.196658
0.558618 0.957610 0.491798
0.564446 0.957671 0.489693
0.574945 0.957763 0.485542
0.592126 0.957916 0.478492
0.616022 0.958129 0.467903
0.646998 0.958343 0.452949
0.684871 0.958526 0.432441
0.729580 0.958648 0.404761
0.781064 0.958465 0.366827
0.839475 0.957977 0.314580
0.904936 0.956939 0.238193
0.977234 0.955230 0.085512
1.000000 0.951995 0.000000
1.000000 0.926390 0.048829
1.000000 0.896727 0.171878
1.000000 0.869688 0.246494
0.034668 0.059754 0.171542
0.119081 0.044343 0.157107
0.235630 0.033204 0.160220
0.349096 0.009705 0.141451
0.443549 0.000000 0.124514
0.534783 0.000000 0.116396
0.623438 0.000000 0.123690
0.711482 0.000000 0.136294
0.797574 0.000000 0.149355
0.874846 0.000000 0.164096
0.942260 0.000000 0.180331
1.000000 0.000000 0.198856
1.000000 0.000000 0.219944
1.000000 0.061341 0.242588
1.000000 0.115114 0.265995
1.000000 0.164248 0.289433
0.035706 0.083955 0.181003
0.127535 0.072999 0.167727
0.226871 0.073213 0.173465
0.333654 0.065675 0.164279
0.439307 0.046296 0.128908
0.532555 0.010712 0.112886
0.621607 0.000000 0.120241
0.709529 0.000000 0.132784
0.795712 0.000000 0.145998
0.873320 0.000000 0.160952
0.940734 0.000000 0.177707
1.000000 0.014649 0.196597
1.000000 0.059693 0.217990
1.000000 0.100893 0.241062
1.000000 0.139986 0.264866
1.000000 0.180911 0.288518
0.089082 0.115450 0.196811
0.148745 0.112520 0.194949
0.223758 0.110658 0.188693
0.325383 0.111574 0.181308
0.428717 0.107271 0.152529
0.528862 0.099672 0.106111
0.618067 0.090486 0.113649
0.706233 0.085176 0.126314
0.792691 0.084535 0.139986
0.870390 0.089143 0.155123
0.938079 0.097871 0.172732
0.998779 0.110903 0.192569
1.000000 0.128725 0.214572
1.000000 0.150759 0.238346
1.000000 0.176974 0.262730
1.000000 0.208377 0.286961
0.123995 0.160678 0.225559
0.170901 0.158145 0.224308
0.229587 0.155367 0.215091
0.313970 0.158846 0.204257
0.415503 0.164279 0.180972
0.517906 0.167727 0.131685
0.613062 0.172244 0.101869
0.701411 0.173281 0.114931
0.787961 0.176638 0.128847
0.865843 0.179232 0.145510
0.934051 0.182040 0.164553
0.995422 0.187655 0.185519
1.000000 0.195407 0.209079
1.000000 0.207034 0.233951
1.000000 0.223575 0.259251
1.000000 0.246128 0.284245
0.148165 0.213535 0.251316
0.191073 0.211368 0.252598
0.242893 0.210300 0.244480
0.309331 0.208743 0.231113
0.399176 0.218448 0.211948
0.502281 0.229618 0.174136
0.602472 0.241184 0.120211
0.695308 0.249393 0.096681
0.781918 0.253941 0.111971
0.859983 0.255924 0.130587
0.928496 0.256901 0.151827
0.991028 0.257847 0.175418
1.000000 0.260838 0.200778
1.000000 0.266300 0.227512
1.000000 0.275608 0.254337
1.000000 0.290623 0.280400
0.169955 0.272190 0.276677
0.208438 0.270787 0.277531
0.254734 0.270787 0.270878
0.315831 0.270909 0.259525
0.386816 0.271458 0.240818
0.482826 0.287266 0.214359
0.586267 0.304265 0.173831
0.685756 0.318669 0.101778
0.774624 0.326055 0.085847
0.852628 0.327520 0.108492
0.922057 0.326360 0.133944
0.985718 0.325200 0.161135
1.000000 0.324620 0.189914
1.000000 0.325750 0.219150
1.000000 0.329839 0.247929
1.000000 0.338964 0.275517
0.197391 0.334813 0.301671
0.223789 0.334997 0.298955
0.265049 0.335576 0.293675
0.321813 0.336492 0.284672
0.388952 0.337804 0.270359
0.463508 0.340490 0.248753
0.564691 0.362585 0.220493
0.668574 0.381018 0.170779
0.765774 0.393957 0.075288
0.844419 0.395239 0.074250
0.914855 0.393164 0.108583
0.979736 0.390356 0.142092
1.000000 0.387366 0.175631
1.000000 0.385412 0.208316
1.000000 0.385595 0.239658
1.000000 0.389929 0.269169
0.216678 0.402625 0.319768
0.239689 0.403052 0.317601
0.277440 0.403784 0.313787
0.329900 0.404944 0.306615
0.393042 0.406714 0.295750
0.463661 0.409094 0.279484
0.543664 0.416144 0.256718
0.646021 0.437354 0.223087
0.748501 0.454292 0.163699
0.836271 0.460426 0.037171
0.907408 0.457404 0.069398
0.973388 0.453559 0.116304
1.000000 0.448859 0.157259
1.000000 0.444373 0.194858
1.000000 0.441321 0.229496
1.000000 0.441901 0.261753
0.235904 0.471290 0.333623
0.256474 0.471595 0.331945
0.291234 0.472236 0.328649
0.339818 0.473304 0.323064
0.399298 0.475074 0.314672
0.466621 0.477089 0.302220
0.539971 0.479957 0.283879
0.624750 0.490303 0.259556
0.725551 0.509148 0.221469
0.819760 0.519310 0.156008
0.901549 0.520958 0.000000
0.967163 0.515282 0.078004
1.000000 0.508965 0.133150
1.000000 0.502495 0.178164
1.000000 0.496986 0.217533
1.000000 0.494392 0.252934
0.254063 0.542229 0.343389
0.273198 0.542657 0.341833
0.305516 0.543328 0.339147
0.351904 0.544488 0.334386
0.408789 0.546319 0.327092
0.474189 0.548333 0.316960
0.545678 0.551080 0.302525
0.622126 0.554681 0.281651
0.710445 0.565911 0.254032
0.803464 0.576623 0.212772
0.888304 0.579736 0.137606
0.962127 0.576501 0.011414
1.000000 0.568170 0.101167
1.000000 0.559686 0.157656
1.000000 0.551995 0.203525
1.000000 0.546715 0.242893
0.270939 0.619257 0.350347
0.289403 0.619501 0.349065
0.321111 0.620081 0.346349
0.366247 0.621088 0.342046
0.422309 0.622461 0.335271
0.486458 0.624109 0.326085
0.556847 0.626062 0.313329
0.631464 0.628351 0.295995
0.710201 0.631373 0.270665
0.795834 0.637507 0.240513
0.879454 0.639826 0.193118
0.954070 0.635187 0.089967
1.000000 0.626642 0.054566
1.000000 0.616052 0.133516
1.000000 0.606226 0.187076
1.000000 0.598657 0.231662
0.296880 0.695399 0.358862
0.314366 0.695583 0.357549
0.343603 0.696040 0.354681
0.386389 0.696651 0.350286
0.439918 0.697658 0.343389
0.502129 0.698848 0.334203
0.570397 0.700069 0.321782
0.643427 0.701350 0.305577
0.720150 0.702998 0.283330
0.797696 0.702876 0.252079
0.878477 0.703487 0.215915
0.951415 0.697108 0.152773
1.000000 0.684596 0.000000
1.000000 0.671809 0.103639
1.000000 0.659998 0.169436
1.000000 0.650141 0.219516
0.336461 0.769070 0.373297
0.351598 0.769192 0.371771
0.377417 0.769406 0.368780
0.415991 0.769863 0.363989
0.465095 0.770413 0.356695
0.523095 0.771176 0.346624
0.588098 0.771847 0.333318
0.658259 0.772396 0.315923
0.732235 0.773068 0.293095
0.809354 0.773739 0.262486
0.884672 0.770565 0.221439
0.955474 0.762295 0.170077
1.000000 0.747097 0.021363
1.000000 0.728115 0.065553
1.000000 0.713161 0.149691
1.000000 0.701350 0.207523
0.395148 0.838346 0.398444
0.406867 0.838437 0.396857
0.427649 0.838560 0.393591
0.459632 0.838773 0.388006
0.501793 0.839078 0.379889
0.552850 0.839414 0.368505
0.611383 0.839750 0.353643
0.676143 0.839780 0.333989
0.745754 0.839567 0.308629
0.819028 0.839322 0.274693
0.895323 0.838865 0.227390
0.965393 0.830625 0.162966
1.000000 0.812528 0.016083
1.000000 0.790219 0.028656
1.000000 0.768215 0.132692
1.000000 0.752041 0.196262
0.473335 0.900786 0.440101
0.481727 0.900847 0.438270
0.496742 0.900938 0.434516
0.520806 0.901030 0.428321
0.553674 0.901183 0.419013
0.594842 0.901305 0.406317
0.643336 0.901427 0.388647
0.698970 0.901305 0.365423
0.760861 0.900847 0.335515
0.828092 0.900053 0.296178
0.899779 0.898955 0.240635
0.975280 0.897459 0.149081
1.000000 0.881437 0.000000
1.000000 0.855497 0.004700
1.000000 0.830014 0.133669
1.000000 0.806332 0.196536
0.562280 0.957397 0.500267
0.567926 0.957458 0.498116
0.578271 0.957549 0.494118
0.595087 0.957702 0.487282
0.618616 0.957885 0.476875
0.649042 0.958160 0.462348
0.686305 0.958373 0.442542
0.730373 0.958526 0.415503
0.781338 0.958373 0.379126
0.839017 0.957916 0.328527
0.903868 0.956970 0.255863
0.975647 0.955352 0.124910
1.000000 0.952300 0.000000
1.000000 0.927031 0.046509
1.000000 0.897276 0.171511
1.000000 0.870054 0.246525
0.000000 0.098970 0.270024
0.096071 0.086030 0.255253
0.190890 0.062593 0.239750
0.310246 0.045075 0.238254
0.409339 0.020172 0.216770
0.506584 0.001648 0.192355
0.603449 0.005951 0.161959
0.698421 0.026154 0.128603
0.786587 0.023133 0.142092
0.865690 0.032990 0.157137
0.934783 0.049470 0.174075
0.996124 0.071962 0.193240
1.000000 0.095583 0.215335
1.000000 0.121584 0.239017
1.000000 0.152102 0.263310
1.000000 0.186221 0.287694
0.000000 0.117220 0.268559
0.117403 0.106874 0.255314
0.194766 0.090822 0.243778
0.297734 0.087617 0.243351
0.395666 0.078431 0.232975
0.494148 0.069368 0.212711
0.595880 0.068544 0.180179
0.697414 0.080629 0.125429
0.785245 0.081941 0.138857
0.864530 0.087861 0.154208
0.933623 0.096956 0.171481
0.995148 0.110231 0.191135
1.000000 0.126009 0.213687
1.000000 0.146181 0.237583
1.000000 0.170748 0.262303
1.000000 0.200778 0.286839
0.046571 0.141939 0.270176
0.132418 0.132845 0.260838
0.206668 0.126711 0.256504
0.291936 0.125460 0.253422
0.386206 0.124544 0.246799
0.486854 0.120943 0.226078
0.590326 0.124056 0.192569
0.692927 0.135286 0.137240
0.783169 0.142061 0.132906
0.862333 0.146487 0.148836
0.931426 0.152316 0.166567
0.993439 0.159548 0.187167
1.000000 0.169619 0.210269
1.000000 0.182803 0.235050
1.000000 0.200534 0.260258
1.000000 0.224857 0.285191
0.109560 0.170535 0.273289
0.159304 0.169131 0.272465
0.220951 0.169009 0.272892
0.291417 0.166506 0.264500
0.382025 0.170535 0.257053
0.480171 0.174350 0.239139
0.582483 0.182132 0.210758
0.684840 0.194430 0.162692
0.779599 0.206699 0.122225
0.858762 0.210361 0.139162
0.928038 0.213260 0.158572
0.990570 0.217136 0.180514
1.000000 0.221714 0.205051
1.000000 0.229526 0.230808
1.000000 0.241520 0.256901
1.000000 0.259190 0.282719
0.146365 0.222049 0.292821
0.181735 0.220645 0.291295
0.236912 0.219211 0.290684
0.297581 0.216617 0.281102
0.376226 0.220676 0.271214
0.471992 0.230289 0.255619
0.571954 0.242069 0.231876
0.673640 0.255375 0.192294
0.773648 0.270970 0.119448
0.853819 0.275364 0.124453
0.923308 0.276463 0.146029
0.986816 0.277287 0.170504
1.000000 0.278691 0.197086
1.000000 0.281926 0.224704
1.000000 0.288701 0.252293
1.000000 0.300694 0.278996
0.165652 0.279728 0.308110
0.198062 0.278355 0.306706
0.251255 0.276280 0.307134
0.307591 0.275395 0.299351
0.373571 0.274754 0.287358
0.461158 0.286503 0.273594
0.560906 0.302892 0.253971
0.660639 0.317021 0.221836
0.760403 0.331456 0.166567
0.847532 0.340093 0.102174
0.917662 0.339666 0.128328
0.982177 0.338323 0.156832
1.000000 0.337133 0.186526
1.000000 0.337102 0.216526
1.000000 0.339696 0.245823
1.000000 0.346685 0.274266
0.182071 0.342138 0.321660
0.212619 0.340520 0.320714
0.264561 0.338781 0.322057
0.317205 0.339178 0.315404
0.380133 0.339696 0.305486
0.449012 0.339605 0.290959
0.546014 0.360815 0.275792
0.647700 0.378790 0.249821
0.746090 0.392340 0.207980
0.835782 0.400916 0.134798
0.911223 0.402319 0.102602
0.976715 0.399725 0.137575
1.000000 0.396490 0.172091
1.000000 0.393683 0.205814
1.000000 0.392920 0.237858
1.000000 0.395850 0.268009
0.199588 0.408362 0.334112
0.235447 0.406439 0.335790
0.279179 0.405798 0.335332
0.328099 0.406653 0.329992
0.387793 0.407965 0.321904
0.455299 0.409522 0.310216
0.530602 0.414069 0.294560
0.630182 0.435462 0.274235
0.731655 0.452796 0.241306
0.820890 0.460090 0.192447
0.903410 0.463569 0.090242
0.970886 0.460395 0.111330
1.000000 0.455695 0.153719
1.000000 0.450629 0.192477
1.000000 0.446967 0.228000
1.000000 0.446540 0.260746
0.219669 0.475166 0.344579
0.262242 0.472969 0.348363
0.294102 0.473548 0.345739
0.340002 0.474403 0.341314
0.396490 0.475868 0.334295
0.461463 0.477394 0.324559
0.532036 0.479622 0.311040
0.612970 0.488258 0.293828
0.712825 0.507683 0.268864
0.806729 0.519036 0.231571
0.890501 0.522332 0.170108
0.965240 0.520531 0.072511
1.000000 0.514183 0.129671
1.000000 0.507286 0.176028
1.000000 0.501274 0.216068
1.000000 0.497902 0.252079
0.256687 0.543725 0.356451
0.278538 0.543481 0.355962
0.308995 0.544152 0.353582
0.352911 0.545251 0.349462
0.407935 0.546654 0.343267
0.471168 0.548547 0.334691
0.540459 0.550774 0.322881
0.614740 0.554040 0.306279
0.700496 0.564538 0.286198
0.793271 0.576287 0.258030
0.878386 0.580560 0.215213
0.956542 0.579278 0.127138
1.000000 0.572198 0.097688
1.000000 0.563317 0.155673
1.000000 0.555322 0.202090
1.000000 0.549432 0.242222
0.276555 0.619776 0.363500
0.294102 0.620050 0.362127
0.324468 0.620447 0.359777
0.367712 0.621393 0.355840
0.422034 0.622583 0.349706
0.484199 0.624353 0.341375
0.553063 0.625879 0.330480
0.626368 0.628016 0.315465
0.703273 0.630640 0.295140
0.787991 0.636988 0.272160
0.871672 0.640375 0.239414
0.946380 0.636805 0.185824
1.000000 0.629755 0.050202
1.000000 0.619074 0.131411
1.000000 0.608850 0.185946
1.000000 0.600824 0.231144
0.302129 0.695552 0.372412
0.318456 0.695796 0.370947
0.346899 0.696162 0.368353
0.388190 0.696773 0.364172
0.440528 0.697597 0.357977
0.500847 0.698848 0.349004
0.568048 0.699916 0.337652
0.639887 0.701076 0.322850
0.715267 0.702663 0.303288
0.793790 0.704341 0.276432
0.872404 0.703761 0.249546
0.945586 0.698360 0.207279
1.000000 0.686763 0.124788
1.000000 0.674189 0.101503
1.000000 0.662226 0.168399
1.000000 0.651820 0.218997
0.342718 0.768978 0.387549
0.356817 0.769100 0.386084
0.381598 0.769345 0.383276
0.418891 0.769711 0.378637
0.466682 0.770230 0.371862
0.523156 0.770962 0.362371
0.586694 0.771725 0.349676
0.655604 0.772274 0.333471
0.728664 0.772854 0.312352
0.804868 0.773526 0.284581
0.879698 0.770565 0.249882
0.950866 0.763272 0.211887
1.000000 0.748898 0.142763
1.000000 0.729976 0.062593
1.000000 0.714961 0.148806
1.000000 0.702785 0.207340
0.402930 0.837980 0.413886
0.413855 0.838102 0.412146
0.433753 0.838254 0.409094
0.464149 0.838499 0.403693
0.504784 0.838834 0.395941
0.554406 0.839139 0.385107
0.611383 0.839567 0.370703
0.674830 0.839597 0.352300
0.743282 0.839506 0.328435
0.815610 0.839231 0.297154
0.891325 0.838804 0.254307
0.961578 0.831357 0.201633
1.000000 0.813993 0.129397
1.000000 0.791745 0.024964
1.000000 0.769558 0.131716
1.000000 0.753231 0.196109
0.480629 0.900389 0.455634
0.488685 0.900420 0.453834
0.503197 0.900542 0.450263
0.526482 0.900664 0.444526
0.558099 0.900816 0.435676
0.597955 0.900999 0.423499
0.645167 0.901152 0.406928
0.699306 0.901152 0.384955
0.759945 0.900694 0.356298
0.825925 0.900053 0.318944
0.896727 0.899016 0.268070
0.971649 0.897551 0.191287
1.000000 0.882628 0.049317
1.000000 0.856748 0.000916
1.000000 0.831083 0.132662
1.000000 0.807187 0.196262
0.568597 0.956970 0.515312
0.573999 0.957031 0.513176
0.584039 0.957122 0.509300
0.600366 0.957275 0.502770
0.623194 0.957519 0.493111
0.652735 0.957794 0.479225
0.689052 0.958068 0.460365
0.731960 0.958282 0.434821
0.781888 0.958190 0.400793
0.838193 0.957885 0.353002
0.901823 0.957031 0.285771
0.972686 0.955566 0.177279
1.000000 0.952941 0.000000
1.000000 0.928252 0.041993
1.000000 0.898192 0.170779
1.000000 0.870726 0.246494
0.000000 0.140627 0.339879
0.010834 0.129244 0.329778
0.150362 0.105287 0.318822
0.262730 0.086183 0.304601
0.376135 0.074189 0.303929
0.468330 0.061402 0.286198
0.567987 0.056031 0.271855
0.667659 0.067994 0.250462
0.765957 0.093233 0.216861
0.855039 0.126589 0.164614
0.926513 0.140932 0.166354
0.989349 0.149966 0.186282
1.000000 0.159945 0.209567
1.000000 0.171847 0.234531
1.000000 0.188968 0.260044
1.000000 0.211948 0.285435
0.000000 0.155245 0.333928
0.084901 0.146242 0.325750
0.181338 0.132296 0.316289
0.264347 0.113558 0.305608
0.367285 0.109316 0.304936
0.460700 0.102480 0.292821
0.560632 0.101839 0.280034
0.661006 0.112032 0.260899
0.760189 0.130617 0.229496
0.851835 0.153262 0.175418
0.925414 0.164096 0.163790
0.988525 0.171420 0.184390
1.000000 0.179446 0.207767
1.000000 0.189425 0.233188
1.000000 0.203677 0.259068
1.000000 0.224338 0.284550
0.005371 0.176181 0.331487
0.122011 0.168460 0.324468
0.199985 0.160067 0.316747
0.270665 0.146975 0.310887
0.360815 0.147585 0.308659
0.452430 0.146365 0.300725
0.551110 0.151492 0.290562
0.651850 0.162203 0.274266
0.753994 0.174563 0.241886
0.848203 0.189853 0.186343
0.923491 0.200473 0.158846
0.986999 0.205295 0.180331
1.000000 0.210666 0.204715
1.000000 0.217655 0.230686
1.000000 0.228519 0.257084
1.000000 0.245182 0.283146
0.063294 0.205905 0.331884
0.137545 0.199161 0.326909
0.207889 0.191501 0.321355
0.285039 0.192020 0.321996
0.358709 0.187991 0.314000
0.446693 0.191684 0.308080
0.544579 0.200046 0.299138
0.646174 0.211460 0.282200
0.748135 0.224277 0.252750
0.842161 0.237675 0.202335
0.920623 0.247410 0.150576
0.984588 0.250034 0.173892
1.000000 0.252384 0.199405
1.000000 0.256321 0.226719
1.000000 0.263432 0.253941
1.000000 0.276219 0.280644
0.122194 0.234562 0.329808
0.167056 0.233188 0.328740
0.224094 0.232761 0.327764
0.292790 0.236362 0.329137
0.358862 0.233036 0.320775
0.443671 0.239353 0.314153
0.539239 0.251530 0.306004
0.639185 0.265385 0.290990
0.740383 0.279301 0.264927
0.834043 0.291203 0.221866
0.915984 0.300389 0.146761
0.981292 0.301274 0.164065
1.000000 0.301335 0.191836
1.000000 0.302434 0.220645
1.000000 0.305821 0.249302
1.000000 0.314214 0.277043
0.154482 0.290929 0.340093
0.191257 0.289525 0.339513
0.240452 0.288334 0.338262
0.303349 0.288579 0.338201
0.363500 0.285924 0.329900
0.439673 0.291478 0.322240
0.532982 0.306645 0.313939
0.630610 0.321660 0.300298
0.730526 0.336706 0.278080
0.823667 0.347967 0.242313
0.906462 0.354742 0.183108
0.977203 0.356207 0.149996
1.000000 0.354314 0.181216
1.000000 0.352758 0.212619
1.000000 0.353094 0.243168
1.000000 0.357580 0.272404
0.179782 0.352117 0.349493
0.209598 0.350683 0.348669
0.254093 0.349157 0.347326
0.315007 0.347906 0.347326
0.372686 0.347417 0.340520
0.437812 0.346990 0.331090
0.524651 0.362097 0.323033
0.621942 0.379706 0.310430
0.719570 0.394720 0.290623
0.811612 0.405097 0.261540
0.895598 0.411139 0.215213
0.972412 0.413092 0.130800
1.000000 0.409491 0.167086
