luts/Napanee ● 16.cube
# Created by Adobe Lightroom plugin Export LUT (1.16.0)
# www.johnrellis.com/lightroom/exportlut.htm
# Preset: Napanee ●
# Color profile: C:\Program Files (x86)\Common Files\Adobe\Color\Profiles\Recommended\sRGB Color Space Profile.icm
LUT_3D_SIZE 6
DOMAIN_MIN 0.0 0.0 0.0
DOMAIN_MAX 1.0 1.0 1.0
0.048829 0.026886 0.065003
0.363378 0.000000 0.131136
0.637018 0.000000 0.130220
0.882780 0.000000 0.169619
1.000000 0.000000 0.223056
1.000000 0.147463 0.290684
0.129519 0.153994 0.179446
0.339940 0.159579 0.133455
0.621454 0.150027 0.106813
0.871336 0.152285 0.150149
1.000000 0.175418 0.211734
1.000000 0.237278 0.285283
0.193790 0.333837 0.281163
0.326329 0.336309 0.259373
0.577295 0.364996 0.168826
0.847135 0.389899 0.078584
1.000000 0.381781 0.177646
1.000000 0.386328 0.269871
0.250431 0.541985 0.334752
0.351415 0.544366 0.324804
0.549218 0.551598 0.288518
0.809628 0.577020 0.174624
1.000000 0.565881 0.103090
1.000000 0.545220 0.243320
0.333501 0.769162 0.365270
0.414221 0.769955 0.355596
0.588922 0.771969 0.323857
0.811917 0.773953 0.248783
1.000000 0.746120 0.000000
1.000000 0.700587 0.207767
0.558618 0.957610 0.491798
0.592126 0.957916 0.478492
0.684871 0.958526 0.432441
0.839475 0.957977 0.314580
1.000000 0.951995 0.000000
1.000000 0.869688 0.246494
0.000000 0.140627 0.339879
0.262730 0.086183 0.304601
0.567987 0.056031 0.271855
0.855039 0.126589 0.164614
1.000000 0.159945 0.209567
1.000000 0.211948 0.285435
0.063294 0.205905 0.331884
0.285039 0.192020 0.321996
0.544579 0.200046 0.299138
0.842161 0.237675 0.202335
1.000000 0.252384 0.199405
1.000000 0.276219 0.280644
0.179782 0.352117 0.349493
0.315007 0.347906 0.347326
0.524651 0.362097 0.323033
0.811612 0.405097 0.261540
1.000000 0.409491 0.167086
1.000000 0.404150 0.266392
0.232914 0.551537 0.369085
0.355718 0.547723 0.369604
0.533989 0.552148 0.347814
0.778988 0.576562 0.302159
1.000000 0.578241 0.153536
1.000000 0.553429 0.241276
0.334600 0.770565 0.404211
0.424140 0.769772 0.401251
0.584833 0.771817 0.374151
0.797971 0.773373 0.315801
1.000000 0.751949 0.216709
1.000000 0.704952 0.207034
0.577905 0.956359 0.538231
0.607935 0.956725 0.526635
0.692897 0.957610 0.487434
0.837156 0.957763 0.390051
1.000000 0.953643 0.001892
1.000000 0.871824 0.246525
0.000000 0.297215 0.468818
0.221103 0.270665 0.445197
0.481605 0.213321 0.418555
0.768338 0.258885 0.406561
1.000000 0.305577 0.367071
1.000000 0.287785 0.277867
0.000000 0.347967 0.453223
0.271916 0.328832 0.437476
0.480232 0.284947 0.417548
0.753201 0.323735 0.406409
0.995483 0.365545 0.372198
1.000000 0.330358 0.274235
0.054780 0.449042 0.446815
0.285527 0.430091 0.435584
0.502647 0.427161 0.427619
0.733150 0.446021 0.410437
0.983246 0.478035 0.376745
1.000000 0.434089 0.261845
0.203220 0.587304 0.448432
0.328435 0.582513 0.444923
0.520226 0.579950 0.439673
0.727352 0.588739 0.415595
0.971893 0.613794 0.379736
1.000000 0.568994 0.238865
0.202701 0.792020 0.478798
0.358709 0.786526 0.479316
0.582269 0.776181 0.486122
0.767117 0.777462 0.445228
0.974823 0.769619 0.389441
1.000000 0.716304 0.225467
0.374945 0.970611 0.548455
0.518151 0.964843 0.572198
0.706355 0.956329 0.607507
0.828580 0.957946 0.542992
1.000000 0.956573 0.376806
1.000000 0.877714 0.246891
0.000000 0.477668 0.628656
0.000000 0.470436 0.610101
0.449439 0.428779 0.576898
0.696712 0.385260 0.538293
0.941039 0.458350 0.528313
1.000000 0.554955 0.519310
0.000000 0.516075 0.616602
0.148898 0.507927 0.601831
0.482918 0.484810 0.569177
0.691859 0.429541 0.536400
0.931395 0.498970 0.530968
1.000000 0.573938 0.521141
0.000000 0.591028 0.608453
0.231632 0.582452 0.595422
0.499092 0.563592 0.566003
0.687495 0.525017 0.537438
0.915740 0.583703 0.539208
1.000000 0.611261 0.514977
0.000000 0.690181 0.607019
0.248905 0.681361 0.597070
0.493568 0.660304 0.573480
0.701045 0.649897 0.555810
0.923003 0.671595 0.542687
1.000000 0.667628 0.488930
0.000000 0.825864 0.625055
0.124208 0.821042 0.619501
0.487587 0.809354 0.606806
0.733852 0.796811 0.600977
0.927031 0.797757 0.567834
1.000000 0.782315 0.496803
0.000000 1.000000 0.578882
0.000000 1.000000 0.577600
0.442725 0.979248 0.645930
0.815885 0.959899 0.720394
0.965881 0.961700 0.638819
1.000000 0.905303 0.429206
0.000000 0.628382 0.819913
0.000000 0.635309 0.810971
0.463966 0.654688 0.787350
0.681239 0.633600 0.763943
0.888182 0.604700 0.725338
1.000000 0.682368 0.715877
0.000000 0.655085 0.816709
0.000000 0.660334 0.808530
0.484718 0.677119 0.785763
0.690242 0.658625 0.762112
0.884794 0.628382 0.725002
1.000000 0.701198 0.720912
0.000000 0.709407 0.816464
0.000000 0.712245 0.809262
0.498970 0.722499 0.788388
0.717830 0.719539 0.760281
0.878843 0.682002 0.726894
1.000000 0.746120 0.734920
0.000000 0.786191 0.821958
0.000000 0.785977 0.816464
0.465553 0.785336 0.800839
0.718929 0.782528 0.772091
0.875303 0.752071 0.735744
1.000000 0.808804 0.758572
0.000000 0.880247 0.835508
0.000000 0.878111 0.831113
0.432441 0.871672 0.817960
0.701411 0.859586 0.794064
0.877012 0.839689 0.757473
1.000000 0.862547 0.759670
0.000000 1.000000 0.863218
0.000000 1.000000 0.854368
0.000000 1.000000 0.833524
0.566827 0.990051 0.824369
0.918547 0.971221 0.854490
1.000000 0.959899 0.788144
0.000000 0.764858 0.991058
0.000000 0.775509 0.988678
0.596399 0.824063 0.977874
0.812345 0.865049 0.966705
0.894591 0.853178 0.961028
1.000000 0.840543 0.945464
0.000000 0.774105 0.992004
0.000000 0.783780 0.989776
0.591760 0.830014 0.979278
0.812284 0.870359 0.968048
0.897154 0.861540 0.962097
1.000000 0.848295 0.946838
0.000000 0.795956 0.995605
0.000000 0.797330 0.994934
0.534356 0.839353 0.985168
0.804685 0.882719 0.972778
0.902983 0.882506 0.965881
1.000000 0.868070 0.951507
0.000000 0.836545 1.000000
0.000000 0.835538 1.000000
0.000000 0.832456 1.000000
0.748775 0.894163 0.984527
0.913298 0.915312 0.973968
1.000000 0.899413 0.960784
0.000000 0.900572 1.000000
0.000000 0.900511 1.000000
0.000000 0.899992 1.000000
0.562097 0.917510 1.000000
0.898772 0.947112 0.988739
1.000000 0.941833 0.975463
0.000000 1.000000 1.000000
0.000000 1.000000 1.000000
0.000000 1.000000 1.000000
0.000000 1.000000 1.000000
0.789364 1.000000 0.996612
1.000000 0.995178 0.996033
