luts/Natural Pop .CUBE
#Created by: Adobe Photoshop Export Color Lookup Plugin
#Copyright: (C) Copyright 2017 rafyA
TITLE "Natural Pop.jpg"
#LUT size
LUT_3D_SIZE 32
#data domain
DOMAIN_MIN 0.0 0.0 0.0
DOMAIN_MAX 1.0 1.0 1.0
#LUT data points
0.000000 0.000000 0.000000
0.028442 0.002441 0.005707
0.057404 0.004883 0.011322
0.086884 0.007263 0.016937
0.116882 0.009460 0.022400
0.147400 0.011444 0.027771
0.178406 0.013458 0.032959
0.209930 0.015289 0.038025
0.241943 0.017059 0.043274
0.274506 0.018982 0.048645
0.307465 0.020996 0.054108
0.341003 0.023071 0.059662
0.375092 0.025055 0.065216
0.409637 0.027130 0.070831
0.444763 0.029083 0.076447
0.480377 0.031006 0.082092
0.516510 0.033051 0.087616
0.552429 0.035126 0.093323
0.587891 0.037415 0.098969
0.622955 0.039612 0.104553
0.657562 0.041840 0.110138
0.691681 0.044128 0.115723
0.725403 0.046448 0.121429
0.758728 0.048615 0.127106
0.791565 0.050903 0.132782
0.823975 0.053223 0.138336
0.855896 0.055450 0.143890
0.887390 0.057800 0.149628
0.918457 0.060089 0.155273
0.949097 0.062408 0.160950
0.979187 0.064758 0.166595
1.000000 0.075470 0.178741
0.005768 0.028809 0.000000
0.028809 0.025452 0.000000
0.063538 0.027924 0.000000
0.089905 0.032043 0.008698
0.117401 0.035919 0.016632
0.147888 0.037872 0.021790
0.178955 0.039398 0.026733
0.210480 0.040863 0.031250
0.242462 0.042084 0.035797
0.274963 0.043304 0.040833
0.307922 0.045197 0.046326
0.341370 0.047394 0.052185
0.375397 0.049530 0.058014
0.409912 0.051636 0.063904
0.444977 0.053833 0.069824
0.480499 0.056000 0.075562
0.516663 0.058289 0.081421
0.552490 0.060516 0.087311
0.587952 0.062714 0.093048
0.622955 0.064850 0.098816
0.657501 0.067108 0.104401
0.691650 0.069366 0.110107
0.725342 0.071564 0.115753
0.758636 0.073761 0.121399
0.791443 0.075989 0.127045
0.823822 0.078125 0.132751
0.855743 0.080414 0.138489
0.887207 0.082703 0.144135
0.918274 0.084900 0.149811
0.948883 0.087158 0.155365
0.979004 0.089478 0.161194
1.000000 0.099884 0.173645
0.011597 0.058136 0.000000
0.038025 0.058136 0.000000
0.058136 0.051331 0.000000
0.093353 0.053802 0.000000
0.129059 0.056122 0.000000
0.159393 0.058502 0.005463
0.183990 0.064026 0.016632
0.211029 0.069183 0.025696
0.242981 0.070831 0.030212
0.275482 0.072571 0.034912
0.308441 0.074371 0.040314
0.341919 0.076080 0.045685
0.375854 0.077881 0.051086
0.410339 0.079773 0.056366
0.445435 0.081390 0.061768
0.480957 0.083160 0.067261
0.516998 0.084839 0.072632
0.552826 0.086456 0.077942
0.588196 0.088226 0.083466
0.623199 0.089844 0.088867
0.657654 0.091919 0.094788
0.691742 0.094086 0.100647
0.725403 0.096252 0.106598
0.758606 0.098480 0.112610
0.791412 0.100739 0.118530
0.823730 0.103027 0.124512
0.855652 0.105225 0.130432
0.887115 0.107513 0.136414
0.918121 0.109833 0.142303
0.948639 0.112091 0.148285
0.978729 0.114349 0.154205
1.000000 0.124573 0.167267
0.017578 0.087891 0.000000
0.045166 0.087891 0.000000
0.069611 0.087891 0.000000
0.087891 0.077637 0.000000
0.123596 0.079285 0.000000
0.159851 0.082733 0.000000
0.196564 0.084656 0.000000
0.230377 0.086304 0.002930
0.255676 0.090759 0.013763
0.281891 0.096588 0.024200
0.308960 0.103149 0.034424
0.342377 0.104950 0.039825
0.376343 0.106873 0.045166
0.410828 0.108765 0.050598
0.445831 0.110626 0.055908
0.481384 0.112488 0.061340
0.517426 0.114227 0.066833
0.553223 0.116119 0.072235
0.588562 0.117737 0.077545
0.623505 0.119415 0.083069
0.657959 0.121277 0.088470
0.691986 0.122864 0.093994
0.725616 0.124725 0.099365
0.758759 0.126434 0.104828
0.791504 0.128143 0.110382
0.823822 0.129700 0.115753
0.855652 0.131531 0.121216
0.886993 0.133118 0.126740
0.917969 0.134888 0.132141
0.948456 0.136597 0.137909
0.978516 0.138855 0.143982
1.000000 0.148865 0.157654
0.023621 0.118103 0.000000
0.052429 0.118103 0.000000
0.076904 0.118103 0.000000
0.101685 0.118103 0.000000
0.118103 0.104340 0.000000
0.154327 0.106445 0.000000
0.191071 0.109070 0.000000
0.228302 0.111816 0.000000
0.266022 0.113525 0.000000
0.303223 0.114685 0.000916
0.329712 0.118652 0.011261
0.356049 0.124207 0.022491
0.383118 0.130798 0.033386
0.411316 0.137695 0.044739
0.446320 0.139496 0.050201
0.481812 0.141449 0.055511
0.517822 0.143311 0.060944
0.553619 0.145142 0.066406
0.588898 0.147034 0.071838
0.623810 0.148743 0.077209
0.658264 0.150604 0.082733
0.692261 0.152313 0.088165
0.725830 0.154114 0.093658
0.759003 0.155884 0.099060
0.791748 0.157806 0.104492
0.823975 0.159332 0.110077
0.855774 0.161194 0.115509
0.887177 0.163055 0.120972
0.918121 0.164642 0.126526
0.948578 0.166321 0.131989
0.978546 0.168060 0.137512
1.000000 0.177002 0.150787
0.029755 0.148834 0.000000
0.058563 0.148834 0.000000
0.084229 0.148834 0.000000
0.109131 0.148834 0.000000
0.135498 0.148834 0.000000
0.148834 0.131470 0.000000
0.185547 0.133911 0.000000
0.222809 0.135223 0.000000
0.260498 0.138763 0.000000
0.298706 0.141113 0.000000
0.337524 0.142639 0.000000
0.376740 0.143585 0.000000
0.405457 0.147003 0.009277
0.432648 0.152191 0.020569
0.460266 0.158508 0.031647
0.488678 0.165497 0.043549
0.518250 0.172333 0.055084
0.553986 0.174194 0.060577
0.589264 0.176086 0.066010
0.624115 0.177948 0.071503
0.658508 0.179779 0.076904
0.692535 0.181641 0.082367
0.726105 0.183502 0.087891
0.759247 0.185364 0.093353
0.791962 0.187164 0.098785
0.824188 0.188843 0.104248
0.855927 0.190643 0.109802
0.887299 0.192413 0.115295
0.918182 0.194244 0.120758
0.948669 0.195984 0.126312
0.978638 0.197540 0.131775
1.000000 0.206116 0.145142
0.035950 0.180023 0.000000
0.064789 0.180023 0.000000
0.091827 0.180023 0.000000
0.116638 0.180023 0.000000
0.141815 0.180023 0.000000
0.169830 0.180023 0.000000
0.180023 0.159027 0.000000
0.217255 0.161621 0.000000
0.254913 0.161682 0.000000
0.293182 0.165619 0.000000
0.331909 0.168457 0.000000
0.371185 0.170654 0.000000
0.410950 0.171967 0.000000
0.451202 0.172943 0.000000
0.483093 0.175873 0.007507
0.511414 0.180603 0.018555
0.538849 0.187012 0.030609
0.568390 0.193146 0.041473
0.596527 0.200256 0.053650
0.624481 0.207428 0.065704
0.658844 0.209106 0.071228
0.692871 0.211029 0.076630
0.726379 0.212921 0.082092
0.759460 0.214722 0.087555
0.792145 0.216614 0.093079
0.824310 0.218384 0.098541
0.856079 0.220001 0.104004
0.887421 0.221924 0.109589
0.918304 0.223755 0.115051
0.948761 0.225403 0.120544
0.978699 0.227203 0.126099
1.000000 0.234924 0.139465
0.042297 0.211670 0.000000
0.071106 0.211670 0.000000
0.099365 0.211670 0.000000
0.124298 0.211670 0.000000
0.149445 0.211670 0.000000
0.175018 0.211670 0.000000
0.204742 0.211670 0.000000
0.211670 0.186981 0.000000
0.249390 0.189728 0.000000
0.287598 0.189789 0.000000
0.326385 0.192688 0.000000
0.365570 0.195984 0.000000
0.405334 0.198517 0.000000
0.445587 0.200378 0.000000
0.486389 0.201752 0.000000
0.527679 0.202637 0.000000
0.562744 0.204865 0.005646
0.590820 0.209625 0.017059
0.619080 0.214996 0.027832
0.645996 0.221588 0.039917
0.673615 0.228149 0.051544
0.700165 0.235199 0.064209
0.726654 0.242584 0.076355
0.759674 0.244476 0.081787
0.792358 0.246155 0.087280
0.824524 0.247986 0.092804
0.856262 0.249878 0.098267
0.887604 0.251709 0.103790
0.918427 0.253418 0.109375
0.948853 0.255096 0.114838
0.978790 0.256897 0.120331
1.000000 0.264130 0.133820
0.048737 0.243835 0.000000
0.077576 0.243835 0.000000
0.106812 0.243835 0.000000
0.131927 0.243835 0.000000
0.157227 0.243835 0.000000
0.182770 0.243835 0.000000
0.208832 0.243835 0.000000
0.240143 0.243835 0.000000
0.243835 0.215393 0.000000
0.282043 0.218079 0.000000
0.320740 0.218475 0.000000
0.359985 0.219879 0.000000
0.399719 0.223572 0.000000
0.439972 0.226440 0.000000
0.480743 0.228638 0.000000
0.522064 0.230438 0.000000
0.563812 0.231659 0.000031
0.605316 0.232452 0.000031
0.642212 0.234283 0.003479
0.669159 0.238770 0.015076
0.696716 0.243805 0.025726
0.721741 0.250061 0.038422
0.747864 0.256622 0.050751
0.775360 0.262695 0.061462
0.800568 0.269775 0.073975
0.826111 0.277069 0.085754
0.856415 0.279877 0.092529
0.887726 0.281525 0.098053
0.918518 0.283325 0.103638
0.948944 0.285004 0.109131
0.978851 0.286713 0.114624
1.000000 0.293518 0.128113
0.055237 0.276428 0.000000
0.084045 0.276428 0.000000
0.113373 0.276428 0.000000
0.139832 0.276428 0.000000
0.165070 0.276428 0.000000
0.190643 0.276428 0.000000
0.216705 0.276428 0.000000
0.243896 0.276428 0.000000
0.276093 0.276428 0.000000
0.276428 0.244171 0.000000
0.315186 0.246918 0.000000
0.354370 0.247437 0.000000
0.394104 0.247467 0.000000
0.434326 0.251404 0.000000
0.475067 0.254578 0.000000
0.516357 0.257172 0.000000
0.558167 0.259186 0.000000
0.599609 0.260712 0.000031
0.640686 0.261841 0.000031
0.681305 0.262634 0.000031
0.720245 0.263641 0.001038
0.746216 0.267944 0.012604
0.773285 0.272705 0.022949
0.799133 0.278046 0.033844
0.823792 0.284241 0.046631
0.848694 0.290619 0.058838
0.873993 0.296783 0.070465
0.898376 0.303528 0.082458
0.921783 0.311096 0.094940
0.949005 0.315430 0.103394
0.978943 0.317047 0.108917
1.000000 0.323120 0.122375
0.061920 0.309509 0.000000
0.090668 0.309509 0.000000
0.119995 0.309509 0.000000
0.147797 0.309509 0.000000
0.173035 0.309509 0.000000
0.198669 0.309509 0.000000
0.224579 0.309509 0.000000
0.250946 0.309509 0.000000
0.279968 0.309509 0.000000
0.309509 0.306488 0.000000
0.309509 0.273376 0.000000
0.348724 0.276093 0.000000
0.388428 0.276825 0.000000
0.428650 0.275848 0.000000
0.469452 0.279541 0.000000
0.510681 0.283020 0.000000
0.552429 0.285797 0.000000
0.593872 0.288086 0.000031
0.634918 0.289856 0.000031
0.675476 0.291412 0.000031
0.715668 0.292480 0.000031
0.755463 0.293457 0.000031
0.794769 0.293976 0.000031
0.822083 0.297455 0.009552
0.847473 0.301971 0.020691
0.873169 0.306763 0.030914
0.896240 0.312744 0.043976
0.921265 0.318359 0.055267
0.945313 0.324524 0.067230
0.970032 0.330444 0.077881
0.992249 0.337341 0.090759
1.000000 0.351074 0.116760
0.068604 0.343079 0.000000
0.097382 0.343079 0.000000
0.126740 0.343079 0.000000
0.155884 0.343079 0.000000
0.181091 0.343079 0.000000
0.206726 0.343079 0.000000
0.232697 0.343079 0.000000
0.259064 0.343079 0.000000
0.285858 0.343079 0.000000
0.316437 0.343079 0.000000
0.343079 0.336639 0.000000
0.343079 0.303040 0.000000
0.382813 0.305695 0.000000
0.422943 0.306458 0.000000
0.463715 0.305664 0.000000
0.505005 0.307739 0.000000
0.546692 0.311523 0.000000
0.588104 0.314575 0.000000
0.629120 0.317169 0.000031
0.669647 0.319122 0.000031
0.709839 0.320953 0.000031
0.749634 0.322296 0.000031
0.788879 0.323364 0.000031
0.827759 0.324158 0.000031
0.866211 0.324829 0.000061
0.898010 0.326813 0.005219
0.921906 0.331177 0.016754
0.946045 0.335724 0.027588
0.969238 0.341187 0.039307
0.992950 0.346527 0.050903
1.000000 0.358276 0.077698
1.000000 0.373444 0.111145
0.075409 0.377136 0.000000
0.104218 0.377136 0.000000
0.133514 0.377136 0.000000
0.163330 0.377136 0.000000
0.189301 0.377136 0.000000
0.214905 0.377136 0.000000
0.240875 0.377136 0.000000
0.267303 0.377136 0.000000
0.294098 0.377136 0.000000
0.321259 0.377136 0.000000
0.353577 0.377136 0.000000
0.377136 0.367188 0.000000
0.377136 0.333130 0.000000
0.417328 0.335724 0.000000
0.458008 0.336456 0.000000
0.499268 0.335815 0.000000
0.540985 0.336395 0.000000
0.582336 0.340363 0.000000
0.623322 0.343628 0.000000
0.663879 0.346527 0.000031
0.704010 0.348724 0.000031
0.743744 0.350616 0.000031
0.783051 0.352142 0.000031
0.821869 0.353546 0.000031
0.860291 0.354523 0.000031
0.898346 0.355072 0.000061
0.935913 0.355988 0.000061
0.969788 0.356934 0.002747
0.993500 0.360901 0.013550
1.000000 0.370331 0.038879
1.000000 0.382629 0.072144
1.000000 0.395935 0.105408
0.082275 0.411652 0.000000
0.111145 0.411652 0.000000
0.140411 0.411652 0.000000
0.170258 0.411652 0.000000
0.197571 0.411652 0.000000
0.223206 0.411652 0.000000
0.249146 0.411652 0.000000
0.275665 0.411652 0.000000
0.302399 0.411652 0.000000
0.329651 0.411652 0.000000
0.357574 0.411652 0.000000
0.391144 0.411652 0.000000
0.411652 0.398071 0.000000
0.411652 0.363617 0.000000
0.452332 0.366089 0.000000
0.493500 0.367004 0.000000
0.535217 0.366394 0.000000
0.576569 0.365417 0.000000
0.617554 0.369385 0.000000
0.658051 0.372894 0.000000
0.698181 0.375854 0.000031
0.737885 0.378479 0.000031
0.777130 0.380585 0.000031
0.815979 0.382477 0.000031
0.854370 0.383789 0.000031
0.892395 0.384979 0.000061
0.929932 0.385956 0.000061
0.967041 0.386719 0.000061
1.000000 0.388000 0.003143
1.000000 0.397247 0.033356
1.000000 0.407745 0.066559
1.000000 0.419098 0.099640
0.089294 0.446625 0.000000
0.118073 0.446625 0.000000
0.147430 0.446625 0.000000
0.177185 0.446625 0.000000
0.206085 0.446625 0.000000
0.231598 0.446625 0.000000
0.257660 0.446625 0.000000
0.284058 0.446625 0.000000
0.310883 0.446625 0.000000
0.338013 0.446625 0.000000
0.365601 0.446625 0.000000
0.395172 0.446625 0.000000
0.429291 0.446625 0.000000
0.446625 0.429504 0.000000
0.446625 0.394501 0.000000
0.487854 0.396973 0.000000
0.529449 0.397736 0.000000
0.570801 0.397430 0.000000
0.611725 0.396057 0.000000
0.652222 0.398895 0.000000
0.692291 0.402435 0.000031
0.731995 0.405670 0.000031
0.771240 0.408417 0.000031
0.810059 0.410767 0.000031
0.848419 0.412598 0.000031
0.886383 0.414398 0.000031
0.923950 0.415497 0.000061
0.961090 0.416718 0.000061
0.997711 0.417511 0.000061
1.000000 0.424286 0.028412
1.000000 0.432983 0.060822
1.000000 0.442780 0.093994
0.096405 0.482086 0.000000
0.125244 0.482086 0.000000
0.154541 0.482086 0.000000
0.184326 0.482086 0.000000
0.214569 0.482086 0.000000
0.240326 0.482086 0.000000
0.266235 0.482086 0.000000
0.292480 0.482086 0.000000
0.319305 0.482086 0.000000
0.346619 0.482086 0.000000
0.374146 0.482086 0.000000
0.402039 0.482086 0.000000
0.433350 0.482086 0.000000
0.467957 0.482086 0.000000
0.482086 0.461243 0.000000
0.482086 0.425842 0.000000
0.523712 0.428192 0.000000
0.565002 0.429138 0.000000
0.605927 0.428864 0.000000
0.646393 0.427826 0.000000
0.686401 0.428497 0.000000
0.726044 0.432495 0.000031
0.765289 0.435699 0.000031
0.804108 0.438568 0.000031
0.842468 0.441193 0.000031
0.880432 0.443237 0.000031
0.917938 0.444855 0.000031
0.955078 0.446533 0.000061
0.991699 0.447906 0.000061
1.000000 0.451904 0.023346
1.000000 0.458557 0.055206
1.000000 0.466614 0.088287
0.103516 0.517914 0.000000
0.132385 0.517914 0.000000
0.161713 0.517914 0.000000
0.191437 0.517914 0.000000
0.221649 0.517914 0.000000
0.248840 0.517914 0.000000
0.274902 0.517914 0.000000
0.301178 0.517914 0.000000
0.328003 0.517914 0.000000
0.355194 0.517914 0.000000
0.382751 0.517914 0.000000
0.410675 0.517914 0.000000
0.439148 0.517914 0.000000
0.472137 0.517914 0.000000
0.507050 0.517914 0.000000
0.517914 0.493256 0.000000
0.517914 0.457458 0.000000
0.559204 0.459808 0.000000
0.600037 0.460876 0.000000
0.640503 0.460815 0.000000
0.680542 0.459900 0.000000
0.720123 0.458344 0.000000
0.759338 0.462341 0.000031
0.798096 0.465881 0.000031
0.836456 0.468658 0.000031
0.874420 0.471161 0.000031
0.911957 0.473572 0.000031
0.949005 0.475433 0.000031
0.985657 0.477173 0.000061
1.000000 0.479645 0.018311
1.000000 0.484406 0.049622
1.000000 0.490479 0.082581
0.110657 0.553375 0.000000
0.139435 0.553375 0.000000
0.168732 0.553375 0.000000
0.198608 0.553375 0.000000
0.228729 0.553375 0.000000
0.257355 0.553375 0.000000
0.283447 0.553375 0.000000
0.309784 0.553375 0.000000
0.336548 0.553375 0.000000
0.363678 0.553375 0.000000
0.391266 0.553375 0.000000
0.419220 0.553375 0.000000
0.447723 0.553375 0.000000
0.476379 0.553375 0.000000
0.511230 0.553375 0.000000
0.546631 0.553375 0.000000
0.553375 0.524200 0.000000
0.553375 0.488800 0.000000
0.594238 0.491089 0.000000
0.634613 0.492218 0.000000
0.674652 0.492310 0.000000
0.714233 0.491547 0.000000
0.753387 0.489990 0.000000
0.792175 0.491821 0.000031
0.830505 0.495331 0.000031
0.868408 0.498444 0.000031
0.905914 0.500946 0.000031
0.942963 0.503479 0.000031
0.979614 0.505585 0.000061
1.000000 0.507019 0.013214
1.000000 0.509918 0.043854
1.000000 0.514282 0.076782
0.117645 0.588348 0.000000
0.146515 0.588348 0.000000
0.175812 0.588348 0.000000
0.205536 0.588348 0.000000
0.235718 0.588348 0.000000
0.265747 0.588348 0.000000
0.291718 0.588348 0.000000
0.318176 0.588348 0.000000
0.345032 0.588348 0.000000
0.372040 0.588348 0.000000
0.399750 0.588348 0.000000
0.427612 0.588348 0.000000
0.456207 0.588348 0.000000
0.484924 0.588348 0.000000
0.515228 0.588348 0.000000
0.550720 0.588348 0.000000
0.586639 0.588348 0.000000
0.588348 0.554596 0.000000
0.588348 0.519684 0.000000
0.628754 0.522064 0.000000
0.668732 0.523102 0.000000
0.708344 0.523315 0.000000
0.747437 0.522614 0.000000
0.786163 0.521301 0.000000
0.824493 0.520752 0.000031
0.862396 0.524261 0.000031
0.899872 0.527496 0.000031
0.936890 0.530212 0.000031
0.973480 0.532623 0.000031
1.000000 0.533997 0.008087
1.000000 0.535065 0.038208
1.000000 0.537659 0.071106
0.124542 0.622894 0.000000
0.153290 0.622894 0.000000
0.182648 0.622894 0.000000
0.212433 0.622894 0.000000
0.242706 0.622894 0.000000
0.273438 0.622894 0.000000
0.300201 0.622894 0.000000
0.326508 0.622894 0.000000
0.353271 0.622894 0.000000
0.380493 0.622894 0.000000
0.408020 0.622894 0.000000
0.436005 0.622894 0.000000
0.464447 0.622894 0.000000
0.493164 0.622894 0.000000
0.522369 0.622894 0.000000
0.554779 0.622894 0.000000
0.590668 0.622894 0.000000
0.622894 0.619690 0.000000
0.622894 0.584717 0.000000
0.622894 0.550201 0.000000
0.662872 0.552490 0.000000
0.702362 0.553680 0.000000
0.741486 0.553955 0.000000
0.780182 0.553314 0.000000
0.818481 0.552124 0.000000
0.856384 0.550293 0.000031
0.893799 0.552734 0.000031
0.930817 0.556091 0.000031
0.967407 0.558807 0.000031
1.000000 0.561127 0.002991
1.000000 0.560089 0.032684
1.000000 0.560944 0.065369
0.131348 0.656921 0.000000
0.160217 0.656921 0.000000
0.189423 0.656921 0.000000
0.219238 0.656921 0.000000
0.249542 0.656921 0.000000
0.280182 0.656921 0.000000
0.308258 0.656921 0.000000
0.334717 0.656921 0.000000
0.361328 0.656921 0.000000
0.388611 0.656921 0.000000
0.416351 0.656921 0.000000
0.444244 0.656921 0.000000
0.472656 0.656921 0.000000
0.501343 0.656921 0.000000
0.530701 0.656921 0.000000
0.560059 0.656921 0.000000
0.594543 0.656921 0.000000
0.629974 0.656921 0.000000
0.656921 0.648895 0.000000
0.656921 0.614258 0.000000
0.656921 0.580261 0.000000
0.696411 0.582489 0.000000
0.735565 0.583649 0.000000
0.774200 0.584045 0.000000
0.812500 0.583588 0.000000
0.850311 0.582520 0.000000
0.887756 0.580627 0.000031
0.924744 0.580902 0.000031
0.961273 0.584137 0.000031
0.997437 0.587372 0.000031
1.000000 0.584991 0.027710
1.000000 0.584106 0.059601
0.138031 0.690491 0.000000
0.166901 0.690491 0.000000
0.196228 0.690491 0.000000
0.225891 0.690491 0.000000
0.256226 0.690491 0.000000
0.286926 0.690491 0.000000
0.316406 0.690491 0.000000
0.342896 0.690491 0.000000
0.369507 0.690491 0.000000
0.396667 0.690491 0.000000
0.424316 0.690491 0.000000
0.452301 0.690491 0.000000
0.480774 0.690491 0.000000
0.509430 0.690491 0.000000
0.538605 0.690491 0.000000
0.568115 0.690491 0.000000
0.598450 0.690491 0.000000
0.634003 0.690491 0.000000
0.668915 0.690491 0.000000
0.690491 0.677521 0.000000
0.690491 0.643463 0.000000
0.690491 0.609924 0.000000
0.729523 0.612152 0.000000
0.768219 0.613312 0.000000
0.806458 0.613708 0.000000
0.844299 0.613434 0.000000
0.881683 0.612396 0.000000
0.918610 0.610687 0.000031
0.955170 0.608643 0.000031
0.991333 0.612091 0.000031
1.000000 0.609497 0.022522
1.000000 0.607117 0.053833
0.144684 0.723572 0.000000
0.173462 0.723572 0.000000
0.202789 0.723572 0.000000
0.232666 0.723572 0.000000
0.262848 0.723572 0.000000
0.293610 0.723572 0.000000
0.324524 0.723572 0.000000
0.350647 0.723572 0.000000
0.377502 0.723572 0.000000
0.404724 0.723572 0.000000
0.432281 0.723572 0.000000
0.460175 0.723572 0.000000
0.488617 0.723572 0.000000
0.517426 0.723572 0.000000
0.546570 0.723572 0.000000
0.576080 0.723572 0.000000
0.605927 0.723572 0.000000
0.637909 0.723572 0.000000
0.672882 0.723572 0.000000
0.707306 0.723572 0.000000
0.723572 0.705719 0.000000
0.723572 0.672180 0.000000
0.723572 0.639130 0.000000
0.762207 0.641266 0.000000
0.800385 0.642487 0.000000
0.838257 0.643005 0.000000
0.875610 0.642609 0.000000
0.912567 0.641663 0.000000
0.949066 0.640442 0.000031
0.985138 0.638306 0.000031
1.000000 0.634125 0.017426
1.000000 0.629944 0.048126
0.151184 0.756165 0.000000
0.179993 0.756165 0.000000
0.209351 0.756165 0.000000
0.239075 0.756165 0.000000
0.269348 0.756165 0.000000
0.299988 0.756165 0.000000
0.331177 0.756165 0.000000
0.358704 0.756165 0.000000
0.385468 0.756165 0.000000
0.412598 0.756165 0.000000
0.440308 0.756165 0.000000
0.468170 0.756165 0.000000
0.496613 0.756165 0.000000
0.525391 0.756165 0.000000
0.554382 0.756165 0.000000
0.583923 0.756165 0.000000
0.613647 0.756165 0.000000
0.643555 0.756165 0.000000
0.676605 0.756165 0.000000
0.711121 0.756165 0.000000
0.745087 0.756165 0.000000
0.756165 0.733643 0.000000
0.756165 0.700592 0.000000
0.756165 0.667908 0.000000
0.794373 0.670044 0.000000
0.832123 0.671234 0.000000
0.869507 0.671875 0.000000
0.906464 0.671661 0.000000
0.942932 0.670837 0.000000
0.979004 0.669495 0.000031
1.000000 0.662872 0.012238
1.000000 0.652679 0.042328
0.157623 0.788330 0.000000
0.186493 0.788330 0.000000
0.215759 0.788330 0.000000
0.245575 0.788330 0.000000
0.275787 0.788330 0.000000
0.306396 0.788330 0.000000
0.337585 0.788330 0.000000
0.366455 0.788330 0.000000
0.393188 0.788330 0.000000
0.420349 0.788330 0.000000
0.447876 0.788330 0.000000
0.475952 0.788330 0.000000
0.504242 0.788330 0.000000
0.533112 0.788330 0.000000
0.562195 0.788330 0.000000
0.591827 0.788330 0.000000
0.621643 0.788330 0.000000
0.651093 0.788330 0.000000
0.680359 0.788330 0.000000
0.714813 0.788330 0.000000
0.748871 0.788330 0.000000
0.782562 0.788330 0.000000
0.788330 0.760986 0.000000
0.788330 0.728485 0.000000
0.788330 0.696320 0.000000
0.826080 0.698425 0.000000
0.863403 0.699615 0.000000
0.900299 0.700287 0.000000
0.936798 0.700073 0.000000
0.972839 0.699463 0.000000
1.000000 0.694946 0.007050
1.000000 0.681519 0.036682
0.163940 0.819977 0.000000
0.192780 0.819977 0.000000
0.222015 0.819977 0.000000
0.251831 0.819977 0.000000
0.282074 0.819977 0.000000
0.312683 0.819977 0.000000
0.343933 0.819977 0.000000
0.373962 0.819977 0.000000
0.400787 0.819977 0.000000
0.428009 0.819977 0.000000
0.455444 0.819977 0.000000
0.483459 0.819977 0.000000
0.511871 0.819977 0.000000
0.540497 0.819977 0.000000
0.569946 0.819977 0.000000
0.599365 0.819977 0.000000
0.629395 0.819977 0.000000
0.658813 0.819977 0.000000
0.688049 0.819977 0.000000
0.718689 0.819977 0.000000
0.752502 0.819977 0.000000
0.786133 0.819977 0.000000
0.819183 0.819977 0.000000
0.819977 0.788147 0.000000
0.819977 0.755920 0.000000
0.819977 0.724274 0.000000
0.857269 0.726257 0.000000
0.894196 0.727631 0.000000
0.930634 0.728180 0.000000
0.966675 0.728088 0.000000
1.000000 0.726471 0.001923
1.000000 0.711243 0.031189
0.170197 0.851166 0.000000
0.199066 0.851166 0.000000
0.228363 0.851166 0.000000
0.258087 0.851166 0.000000
0.288239 0.851166 0.000000
0.318970 0.851166 0.000000
0.350159 0.851166 0.000000
0.381744 0.851166 0.000000
0.408142 0.851166 0.000000
0.435547 0.851166 0.000000
0.462982 0.851166 0.000000
0.491028 0.851166 0.000000
0.519501 0.851166 0.000000
0.548187 0.851166 0.000000
0.577271 0.851166 0.000000
0.606781 0.851166 0.000000
0.636719 0.851166 0.000000
0.666443 0.851166 0.000000
0.695526 0.851166 0.000000
0.724396 0.851166 0.000000
0.756195 0.851166 0.000000
0.789856 0.851166 0.000000
0.822906 0.851166 0.000000
0.851166 0.846802 0.000000
0.851166 0.814606 0.000000
0.851166 0.783020 0.000000
0.851166 0.751831 0.000000
0.888000 0.753815 0.000000
0.924500 0.755005 0.000000
0.960510 0.755798 0.000000
0.996063 0.755798 0.000000
1.000000 0.740662 0.026123
0.176331 0.881897 0.000000
0.205200 0.881897 0.000000
0.234467 0.881897 0.000000
0.264191 0.881897 0.000000
0.294525 0.881897 0.000000
0.325104 0.881897 0.000000
0.356323 0.881897 0.000000
0.387970 0.881897 0.000000
0.415771 0.881897 0.000000
0.442657 0.881897 0.000000
0.470459 0.881897 0.000000
0.498230 0.881897 0.000000
0.526855 0.881897 0.000000
0.555481 0.881897 0.000000
0.584564 0.881897 0.000000
0.614258 0.881897 0.000000
