luts/Natural Pop .CUBE
#Created by: Adobe Photoshop Export Color Lookup Plugin
#Copyright: (C) Copyright 2017 rafyA
TITLE "Natural Pop.jpg"
#LUT size
LUT_3D_SIZE 5
#data domain
#LUT data points
DOMAIN_MIN 0.000000 0.000000 0.000000
DOMAIN_MAX 0.903226 0.903226 0.903226
0.000000 0.000000 0.000000
0.209930 0.015289 0.038025
0.444763 0.029083 0.076447
0.691681 0.044128 0.115723
0.918457 0.060089 0.155273
0.042297 0.211670 0.000000
0.211670 0.186981 0.000000
0.486389 0.201752 0.000000
0.700165 0.235199 0.064209
0.918427 0.253418 0.109375
0.089294 0.446625 0.000000
0.284058 0.446625 0.000000
0.446625 0.394501 0.000000
0.731995 0.405670 0.000031
0.997711 0.417511 0.000061
0.138031 0.690491 0.000000
0.342896 0.690491 0.000000
0.538605 0.690491 0.000000
0.690491 0.609924 0.000000
0.955170 0.608643 0.000031
0.182373 0.912109 0.000000
0.394135 0.912109 0.000000
0.592102 0.912109 0.000000
0.796997 0.912109 0.000000
0.912109 0.805664 0.000000
0.000000 0.000000 0.211670
0.211670 0.000000 0.211670
0.445343 0.014923 0.247559
0.692230 0.028442 0.281799
0.917389 0.044281 0.315765
0.000000 0.211670 0.211670
0.211670 0.211670 0.211670
0.447632 0.219604 0.240540
0.692749 0.227539 0.269592
0.917419 0.238770 0.301544
0.000000 0.446625 0.160950
0.184143 0.563751 0.084656
0.531189 0.483673 0.115967
0.763245 0.422577 0.161438
0.938293 0.448059 0.241913
0.000000 0.690491 0.087128
0.180389 0.902161 0.000000
0.584229 0.895294 0.005707
0.860748 0.765045 0.034546
1.000000 0.644501 0.146606
0.000000 0.912109 0.029358
0.294556 1.000000 0.111084
0.578400 1.000000 0.111084
0.833557 1.000000 0.111084
1.000000 0.897491 0.111115
0.000000 0.000000 0.446625
0.211639 0.000000 0.446625
0.446625 0.000000 0.446625
0.690125 0.015411 0.475464
0.914612 0.030060 0.503326
0.000000 0.211639 0.446625
0.197998 0.197998 0.449341
0.449341 0.197998 0.449341
0.691895 0.212067 0.472534
0.915466 0.224670 0.497345
0.000000 0.446625 0.446625
0.197998 0.449341 0.449341
0.446625 0.446625 0.446625
0.692871 0.452606 0.468781
0.916290 0.456024 0.488525
0.000000 0.690491 0.415894
0.074463 0.817810 0.364410
0.409668 0.812988 0.304138
0.779266 0.728973 0.338593
0.993408 0.657593 0.376709
0.000000 0.912109 0.348938
0.111084 1.000000 0.264618
0.472412 1.000000 0.334412
0.789429 1.000000 0.334412
1.000000 0.923920 0.334412
0.000000 0.000000 0.690491
0.211731 0.000000 0.690491
0.446564 0.000000 0.690491
0.690491 0.000000 0.690491
0.911652 0.016693 0.706329
0.000000 0.211731 0.690491
0.194794 0.194794 0.691803
0.442902 0.194794 0.691803
0.691803 0.194794 0.691803
0.912018 0.211334 0.704803
0.000000 0.446564 0.690491
0.194794 0.442902 0.691803
0.429688 0.429688 0.694153
0.694153 0.429688 0.694153
0.914398 0.441101 0.701813
0.000000 0.690491 0.690491
0.194763 0.691803 0.691803
0.429688 0.694153 0.694153
0.690491 0.690491 0.690491
0.914368 0.693054 0.701874
0.000000 0.912109 0.690308
0.144684 0.964172 0.684265
0.334412 1.000000 0.626495
0.666016 1.000000 0.580261
0.991058 0.945007 0.590088
0.000000 0.000000 0.912109
0.211761 0.000000 0.912109
0.446716 0.000000 0.912109
0.690552 0.000000 0.912109
0.912109 0.000000 0.912109
0.000000 0.211761 0.912109
0.193756 0.193756 0.912445
0.440857 0.193756 0.912445
0.688751 0.193756 0.912445
0.912445 0.193756 0.912445
0.000000 0.446716 0.912109
0.193756 0.440857 0.912445
0.422668 0.422668 0.913239
0.683350 0.422668 0.913239
0.913239 0.422668 0.913239
0.000000 0.690552 0.912109
0.193756 0.688751 0.912445
0.422668 0.683350 0.913239
0.677216 0.677216 0.913757
0.913757 0.677216 0.913757
0.000000 0.912109 0.912109
0.193756 0.912445 0.912445
0.422668 0.913239 0.913239
0.677216 0.913757 0.913757
0.912109 0.912109 0.912109
