luts/Natural Pop .CUBE
#Created by: Adobe Photoshop Export Color Lookup Plugin
#Copyright: (C) Copyright 2017 rafyA
TITLE "Natural Pop.jpg"
#LUT size
LUT_3D_SIZE 8
#data domain
#LUT data points
DOMAIN_MIN 0.000000 0.000000 0.000000
DOMAIN_MAX 0.903226 0.903226 0.903226
0.000000 0.000000 0.000000
0.116882 0.009460 0.022400
0.241943 0.017059 0.043274
0.375092 0.025055 0.065216
0.516510 0.033051 0.087616
0.657562 0.041840 0.110138
0.791565 0.050903 0.132782
0.918457 0.060089 0.155273
0.023621 0.118103 0.000000
0.118103 0.104340 0.000000
0.266022 0.113525 0.000000
0.383118 0.130798 0.033386
0.517822 0.143311 0.060944
0.658264 0.150604 0.082733
0.791748 0.157806 0.104492
0.918121 0.164642 0.126526
0.048737 0.243835 0.000000
0.157227 0.243835 0.000000
0.243835 0.215393 0.000000
0.399719 0.223572 0.000000
0.563812 0.231659 0.000031
0.696716 0.243805 0.025726
0.800568 0.269775 0.073975
0.918518 0.283325 0.103638
0.075409 0.377136 0.000000
0.189301 0.377136 0.000000
0.294098 0.377136 0.000000
0.377136 0.333130 0.000000
0.540985 0.336395 0.000000
0.704010 0.348724 0.000031
0.860291 0.354523 0.000031
0.993500 0.360901 0.013550
0.103516 0.517914 0.000000
0.221649 0.517914 0.000000
0.328003 0.517914 0.000000
0.439148 0.517914 0.000000
0.517914 0.457458 0.000000
0.680542 0.459900 0.000000
0.836456 0.468658 0.000031
0.985657 0.477173 0.000061
0.131348 0.656921 0.000000
0.249542 0.656921 0.000000
0.361328 0.656921 0.000000
0.472656 0.656921 0.000000
0.594543 0.656921 0.000000
0.656921 0.580261 0.000000
0.812500 0.583588 0.000000
0.961273 0.584137 0.000031
0.157623 0.788330 0.000000
0.275787 0.788330 0.000000
0.393188 0.788330 0.000000
0.504242 0.788330 0.000000
0.621643 0.788330 0.000000
0.748871 0.788330 0.000000
0.788330 0.696320 0.000000
0.936798 0.700073 0.000000
0.182373 0.912109 0.000000
0.300629 0.912109 0.000000
0.423096 0.912109 0.000000
0.534210 0.912109 0.000000
0.651337 0.912109 0.000000
0.767365 0.912109 0.000000
0.894745 0.912109 0.000000
0.912109 0.805664 0.000000
0.000000 0.000000 0.118103
0.118103 0.000000 0.118103
0.242737 0.008636 0.140015
0.375610 0.016876 0.161072
0.517181 0.024780 0.181793
0.658600 0.032013 0.202148
0.792267 0.040985 0.222870
0.918793 0.050232 0.243622
0.000000 0.118103 0.118103
0.118103 0.118103 0.118103
0.244049 0.124054 0.136749
0.377106 0.128723 0.154602
0.517944 0.134949 0.173767
0.658203 0.142181 0.193848
0.791565 0.149933 0.214294
0.917877 0.158112 0.234955
0.000000 0.243835 0.091431
0.102142 0.306915 0.048340
0.289612 0.264008 0.065247
0.415466 0.233032 0.093109
0.527527 0.250549 0.141510
0.659149 0.262573 0.169159
0.791931 0.268494 0.188812
0.917664 0.274475 0.208710
0.000000 0.377136 0.051086
0.099030 0.495270 0.000000
0.317657 0.488495 0.005707
0.469391 0.417542 0.021820
0.623505 0.362640 0.028473
0.733551 0.354584 0.075623
0.838074 0.366760 0.122559
0.935852 0.388428 0.169647
0.000000 0.517914 0.014526
0.127197 0.636047 0.000000
0.319885 0.636047 0.000000
0.496765 0.636047 0.000000
0.636047 0.561829 0.000000
0.796844 0.502686 0.000031
0.939026 0.486206 0.009796
1.000000 0.485382 0.087494
0.013153 0.656921 0.000000
0.154968 0.775055 0.000000
0.335876 0.775055 0.000000
0.497284 0.775055 0.000000
0.665863 0.775055 0.000000
0.775055 0.684601 0.000000
0.928802 0.639465 0.000000
1.000000 0.606110 0.066528
0.039459 0.788330 0.000000
0.181244 0.906464 0.000000
0.351196 0.906464 0.000000
0.510315 0.906464 0.000000
0.669006 0.906464 0.000000
0.834534 0.906464 0.000000
0.906464 0.800690 0.000000
1.000000 0.741089 0.045349
0.064117 0.912109 0.000000
0.223114 1.000000 0.025238
0.377045 1.000000 0.025238
0.527130 1.000000 0.025238
0.670502 1.000000 0.025238
0.812408 1.000000 0.025238
0.961884 1.000000 0.025238
1.000000 0.886780 0.025238
0.000000 0.000000 0.243835
0.118073 0.000000 0.243835
0.243835 0.000000 0.243835
0.375336 0.009277 0.263855
0.516785 0.017090 0.283813
0.657379 0.025024 0.303040
0.791504 0.032379 0.321594
0.917511 0.041687 0.340576
0.000000 0.118073 0.243835
0.110321 0.110321 0.245819
0.245819 0.110321 0.245819
0.377625 0.118591 0.262634
0.518036 0.125885 0.280396
0.658325 0.133087 0.298340
0.792236 0.140228 0.316162
0.918213 0.148468 0.334564
0.000000 0.243835 0.243835
0.110321 0.245819 0.245819
0.243835 0.243835 0.243835
0.378052 0.249237 0.260712
0.519257 0.252106 0.275421
0.659088 0.256012 0.291107
0.791687 0.261169 0.307800
0.917297 0.267273 0.325439
0.000000 0.377136 0.227051
0.040649 0.447815 0.196838
0.222900 0.445435 0.164490
0.427094 0.399323 0.183350
0.560333 0.362762 0.211853
0.671478 0.377716 0.257721
0.792206 0.390839 0.286316
0.917267 0.395142 0.303284
0.000000 0.517914 0.184357
0.000000 0.636047 0.087250
0.212250 0.654388 0.096466
0.454407 0.636383 0.113647
0.616272 0.560944 0.132935
0.771637 0.501556 0.136414
0.875549 0.488708 0.181915
0.972931 0.496094 0.227234
0.000000 0.656921 0.142273
0.000000 0.775055 0.025909
0.201935 0.861908 0.032349
0.457886 0.852234 0.041107
0.663605 0.813629 0.077057
0.803955 0.721222 0.086182
0.973572 0.653198 0.069397
1.000000 0.616455 0.181091
0.000000 0.788330 0.102386
0.011261 0.906464 0.000000
0.224518 1.000000 0.026825
0.462280 1.000000 0.026825
0.671143 1.000000 0.026855
0.865570 0.981873 0.042603
0.981873 0.873108 0.042633
1.000000 0.749298 0.161591
0.000000 0.912109 0.065033
0.067322 1.000000 0.025238
0.318878 1.000000 0.141144
0.490082 1.000000 0.141144
0.646149 1.000000 0.141144
0.793304 1.000000 0.141144
0.941895 1.000000 0.141144
1.000000 0.901123 0.141144
0.000000 0.000000 0.377136
0.118103 0.000000 0.377136
0.243805 0.000000 0.377136
0.377136 0.000000 0.377136
0.516418 0.009308 0.394867
0.656036 0.017761 0.412476
0.789307 0.025757 0.429871
0.916138 0.033295 0.446533
0.000000 0.118103 0.377136
0.107422 0.107422 0.378632
0.241547 0.107422 0.378632
0.378632 0.107422 0.378632
0.517395 0.117371 0.394226
0.657440 0.124847 0.410797
0.790466 0.132660 0.426941
0.917084 0.140198 0.442963
0.000000 0.243805 0.377136
0.107422 0.241547 0.378632
0.233276 0.233276 0.380493
0.380493 0.233276 0.380493
0.519745 0.241333 0.392883
0.659515 0.246033 0.406891
0.791412 0.252289 0.421722
0.917603 0.257782 0.436493
0.000000 0.377136 0.377136
0.107422 0.378632 0.378632
0.233276 0.380493 0.380493
0.377136 0.377136 0.377136
0.519287 0.381897 0.391907
0.659332 0.384003 0.404175
0.791687 0.386353 0.416748
0.916656 0.389709 0.430206
0.000000 0.517914 0.371124
0.065247 0.562073 0.367981
0.155487 0.593079 0.324860
0.352386 0.590912 0.290253
0.571503 0.541779 0.311005
0.704468 0.500977 0.338013
0.808838 0.511658 0.380707
0.916748 0.527008 0.412231
0.000000 0.656921 0.328796
0.000000 0.775055 0.286682
0.056793 0.835297 0.176819
0.339630 0.796692 0.219666
0.597687 0.776733 0.239227
0.757935 0.700836 0.257935
0.907684 0.638702 0.258911
1.000000 0.621948 0.306580
0.000000 0.788330 0.289276
0.000000 0.906464 0.215759
0.026825 1.000000 0.072266
0.330261 0.992340 0.157257
0.600952 0.981140 0.167847
0.803467 0.942749 0.204346
0.934753 0.851929 0.211975
1.000000 0.754395 0.288879
0.000000 0.912109 0.251617
0.025238 1.000000 0.177795
0.141602 1.000000 0.141144
0.419434 1.000000 0.267273
0.610443 1.000000 0.267273
0.767303 1.000000 0.267273
0.917542 1.000000 0.267273
1.000000 0.916107 0.267273
0.000000 0.000000 0.517914
0.118073 0.000000 0.517914
0.243774 0.000000 0.517914
0.377167 0.000000 0.517914
0.517914 0.000000 0.517914
0.655823 0.009369 0.532562
0.787018 0.018951 0.546722
0.913055 0.027008 0.561035
0.000000 0.118073 0.517914
0.106537 0.106537 0.518860
0.239868 0.106537 0.518860
0.376251 0.106537 0.518860
0.518860 0.106537 0.518860
0.656433 0.116516 0.532166
0.788635 0.125031 0.546082
0.914429 0.133179 0.559479
0.000000 0.243774 0.517914
0.106537 0.239868 0.518860
0.228424 0.228424 0.520691
0.373138 0.228424 0.520691
0.520691 0.228424 0.520691
0.657623 0.237976 0.531372
0.790131 0.244110 0.543640
0.915466 0.250610 0.555756
0.000000 0.377167 0.517914
0.106537 0.376251 0.518860
0.228424 0.373138 0.520691
0.365631 0.365631 0.521912
0.521912 0.365631 0.521912
0.659515 0.373108 0.530304
0.791046 0.377289 0.540649
0.916046 0.381104 0.551117
0.000000 0.517914 0.517914
0.106537 0.518860 0.518860
0.228424 0.520691 0.520691
0.365631 0.521912 0.521912
0.517914 0.517914 0.517914
0.658417 0.521851 0.530029
0.791016 0.523621 0.539825
0.915802 0.524872 0.548981
0.000000 0.656921 0.517883
0.098175 0.665833 0.518005
0.188477 0.696869 0.510040
0.286652 0.729492 0.468353
0.491821 0.729218 0.430603
0.709961 0.680420 0.451874
0.836304 0.638397 0.476776
0.934998 0.645569 0.514160
0.000000 0.788330 0.486176
0.008972 0.895660 0.481415
0.095062 0.925598 0.433594
0.189850 0.957947 0.330658
0.476471 0.923279 0.359802
0.733643 0.902985 0.380554
0.885834 0.830170 0.398315
1.000000 0.763550 0.428589
0.000000 0.912109 0.448700
0.025238 1.000000 0.419250
0.141144 1.000000 0.380341
0.267273 1.000000 0.318085
0.527557 1.000000 0.404480
0.727356 1.000000 0.404480
0.890717 1.000000 0.404480
1.000000 0.931915 0.404480
0.000000 0.000000 0.656921
0.118164 0.000000 0.656921
0.243774 0.000000 0.656921
0.377045 0.000000 0.656921
0.517883 0.000000 0.656921
0.656921 0.000000 0.656921
0.787689 0.009399 0.667084
0.911621 0.019043 0.677155
0.000000 0.118164 0.656921
0.106140 0.106140 0.657501
0.239227 0.106140 0.657501
0.375153 0.106140 0.657501
0.517426 0.106140 0.657501
0.657501 0.106140 0.657501
0.788025 0.116180 0.666931
0.911743 0.126068 0.676361
0.000000 0.243774 0.656921
0.106140 0.239227 0.657501
0.226166 0.226166 0.658783
0.369751 0.226166 0.658783
0.516113 0.226166 0.658783
0.658783 0.226166 0.658783
0.788757 0.235687 0.666290
0.913269 0.243256 0.674835
0.000000 0.377045 0.656921
0.106140 0.375153 0.657501
0.226166 0.369751 0.658783
0.359100 0.359100 0.660309
0.512939 0.359100 0.660309
0.660309 0.359100 0.660309
0.789612 0.368195 0.665344
0.914398 0.373047 0.672485
0.000000 0.517883 0.656921
0.106140 0.517426 0.657501
0.226166 0.516113 0.658783
0.359100 0.512939 0.660309
0.507233 0.507233 0.660736
0.660736 0.507233 0.660736
0.790924 0.513580 0.664764
0.915527 0.515839 0.670471
0.000000 0.656921 0.656921
0.106140 0.657501 0.657501
0.226166 0.658783 0.658783
0.359100 0.660309 0.660309
0.507233 0.660736 0.660736
0.656921 0.656921 0.656921
0.789764 0.659393 0.665070
0.914673 0.660156 0.671326
0.000000 0.788330 0.656891
0.105927 0.788635 0.656677
0.224976 0.789398 0.655762
0.323059 0.822021 0.650421
0.429962 0.855743 0.610626
0.632050 0.855988 0.574829
0.837738 0.809814 0.595428
0.957642 0.768982 0.615265
0.000000 0.912109 0.643097
0.046600 0.975677 0.650391
0.141144 1.000000 0.628937
0.267273 1.000000 0.587677
0.404480 1.000000 0.521942
0.638489 1.000000 0.545380
0.852295 1.000000 0.545380
1.000000 0.947876 0.545380
0.000000 0.000000 0.788330
0.118134 0.000000 0.788330
0.243866 0.000000 0.788330
0.377228 0.000000 0.788330
0.517914 0.000000 0.788330
0.656891 0.000000 0.788330
0.788330 0.000000 0.788330
0.911835 0.009460 0.794434
0.000000 0.118134 0.788330
0.105957 0.105957 0.788635
0.238770 0.105957 0.788635
0.374634 0.105927 0.788635
0.516724 0.105927 0.788635
0.656677 0.105927 0.788635
0.788635 0.105927 0.788635
0.911957 0.115997 0.794189
0.000000 0.243866 0.788330
0.105927 0.238770 0.788635
0.224976 0.224976 0.789398
0.368011 0.224976 0.789398
0.513763 0.224976 0.789398
0.655762 0.224976 0.789398
0.789398 0.224976 0.789398
0.912262 0.234467 0.793610
0.000000 0.377228 0.788330
0.105927 0.374634 0.788635
0.224976 0.368011 0.789398
0.355560 0.355560 0.790497
0.508057 0.355560 0.790497
0.654175 0.355560 0.790497
0.790497 0.355560 0.790497
0.912689 0.364563 0.792664
0.000000 0.517914 0.788330
0.105927 0.516724 0.788635
0.224976 0.513763 0.789398
0.355560 0.508057 0.790497
0.499939 0.499939 0.791382
0.651520 0.499939 0.791382
0.791382 0.499939 0.791382
0.913025 0.507965 0.791718
0.000000 0.656891 0.788330
0.105927 0.656677 0.788635
0.224976 0.655762 0.789398
0.355560 0.654175 0.790497
0.499939 0.651520 0.791382
0.648376 0.648376 0.791199
0.791199 0.648376 0.791199
0.913971 0.652496 0.791901
0.000000 0.788330 0.788330
0.105927 0.788635 0.788635
0.224976 0.789398 0.789398
0.355560 0.790497 0.790497
0.499939 0.791382 0.791382
0.648376 0.791199 0.791199
0.788330 0.788330 0.788330
0.913391 0.789276 0.792694
0.000000 0.912109 0.788300
0.105804 0.912231 0.787964
0.224304 0.912537 0.787323
0.353424 0.912994 0.786072
0.465332 0.941467 0.781006
0.573883 0.973907 0.743286
0.765900 0.974060 0.713104
0.957001 0.931030 0.732666
0.000000 0.000000 0.912109
0.118225 0.000000 0.912109
0.243835 0.000000 0.912109
0.377228 0.000000 0.912109
0.517975 0.000000 0.912109
0.656921 0.000000 0.912109
0.788300 0.000000 0.912109
0.912109 0.000000 0.912109
0.000000 0.118225 0.912109
0.105835 0.105835 0.912231
0.238495 0.105835 0.912231
0.374329 0.105835 0.912231
0.516296 0.105835 0.912231
0.656250 0.105835 0.912231
0.787964 0.105804 0.912231
0.912231 0.105804 0.912231
0.000000 0.243835 0.912109
0.105804 0.238495 0.912231
0.224304 0.224304 0.912537
0.366974 0.224304 0.912537
0.512421 0.224304 0.912537
0.654175 0.224304 0.912537
0.787323 0.224304 0.912537
0.912537 0.224304 0.912537
0.000000 0.377228 0.912109
0.105804 0.374329 0.912231
0.224304 0.366974 0.912537
0.353424 0.353424 0.912994
0.505188 0.353424 0.912994
0.650482 0.353424 0.912994
0.786072 0.353424 0.912994
0.912994 0.353424 0.912994
0.000000 0.517975 0.912109
0.105804 0.516296 0.912231
0.224304 0.512390 0.912537
0.353424 0.505188 0.912994
0.495331 0.495331 0.913513
0.645538 0.495331 0.913513
0.784363 0.495331 0.913513
0.913513 0.495331 0.913513
0.000000 0.656921 0.912109
0.105804 0.656250 0.912231
0.224304 0.654175 0.912537
0.353424 0.650482 0.912994
0.495331 0.645538 0.913513
0.641296 0.641296 0.913757
0.782715 0.641296 0.913757
0.913757 0.641296 0.913757
0.000000 0.788300 0.912109
0.105804 0.787964 0.912231
0.224304 0.787323 0.912537
0.353424 0.786072 0.912994
0.495331 0.784363 0.913513
0.641296 0.782715 0.913757
0.782288 0.782288 0.913483
0.913483 0.782288 0.913483
0.000000 0.912109 0.912109
0.105804 0.912231 0.912231
0.224304 0.912537 0.912537
0.353424 0.912994 0.912994
0.495331 0.913513 0.913513
0.641296 0.913757 0.913757
0.782288 0.913483 0.913483
0.912109 0.912109 0.912109
