luts/Pearce ● 16.cube
# Created by Adobe Lightroom plugin Export LUT (1.16.0)
# www.johnrellis.com/lightroom/exportlut.htm
# Preset: Pearce ●
# Color profile: C:\Program Files (x86)\Common Files\Adobe\Color\Profiles\Recommended\sRGB Color Space Profile.icm
LUT_3D_SIZE 16
DOMAIN_MIN 0.0 0.0 0.0
DOMAIN_MAX 1.0 1.0 1.0
0.000000 0.000000 0.000000
0.131930 0.001190 0.000000
0.261418 0.001740 0.000000
0.357244 0.009033 0.000000
0.431464 0.023529 0.000000
0.500908 0.047150 0.000000
0.566125 0.072297 0.000000
0.635370 0.099702 0.000000
0.702510 0.127230 0.000000
0.767453 0.152956 0.000000
0.826535 0.176730 0.000000
0.881498 0.197848 0.000000
0.934447 0.216831 0.000000
0.988464 0.234440 0.000000
1.000000 0.250370 0.000000
1.000000 0.263188 0.000000
0.018738 0.077302 0.013184
0.137118 0.077424 0.001465
0.249546 0.083497 0.000000
0.345281 0.087617 0.000000
0.422644 0.092226 0.000000
0.492744 0.101656 0.000000
0.562890 0.116915 0.000000
0.632563 0.136172 0.000000
0.699306 0.156191 0.000000
0.765072 0.176822 0.000000
0.824369 0.196231 0.000000
0.879332 0.214237 0.000000
0.932006 0.230350 0.000000
0.986236 0.246372 0.000000
1.000000 0.260929 0.000000
1.000000 0.272984 0.000000
0.041169 0.143130 0.023041
0.141024 0.140078 0.015198
0.234989 0.142458 0.000000
0.331151 0.147036 0.000000
0.410986 0.149996 0.000000
0.486122 0.157992 0.000000
0.557183 0.169741 0.000000
0.626581 0.182742 0.000000
0.694270 0.196506 0.000000
0.761471 0.212497 0.000000
0.820829 0.226902 0.000000
0.875944 0.240574 0.000000
0.928496 0.253513 0.000000
0.983551 0.266941 0.000000
1.000000 0.279393 0.000000
1.000000 0.290196 0.000000
0.073915 0.203677 0.038483
0.151339 0.201328 0.030335
0.230137 0.199619 0.018219
0.317815 0.203464 0.000000
0.401526 0.206943 0.000000
0.475776 0.210208 0.000000
0.546349 0.216342 0.000000
0.616724 0.226047 0.000000
0.687007 0.238621 0.000000
0.753994 0.252445 0.000000
0.813016 0.265141 0.000000
0.868193 0.275639 0.000000
0.922240 0.285191 0.000000
0.976593 0.295262 0.000000
1.000000 0.304295 0.000000
1.000000 0.312810 0.000000
0.110597 0.261082 0.062348
0.168154 0.260990 0.056550
0.237827 0.262119 0.046143
0.313817 0.262058 0.027466
0.394568 0.266148 0.000000
0.473884 0.270176 0.000000
0.546227 0.272953 0.000000
0.618524 0.279179 0.000000
0.689876 0.287907 0.000000
0.757107 0.297795 0.000000
0.816464 0.306859 0.000000
0.872892 0.316960 0.000000
0.928252 0.328191 0.000000
0.983764 0.336980 0.000000
1.000000 0.343481 0.000000
1.000000 0.348089 0.000000
0.144228 0.318853 0.086946
0.187747 0.320226 0.083040
0.246738 0.321263 0.074861
0.315282 0.321324 0.061585
0.386145 0.321019 0.038636
0.462501 0.324773 0.000031
0.540154 0.329717 0.000000
0.613764 0.333837 0.000000
0.685481 0.339483 0.000000
0.752224 0.345281 0.000000
0.811765 0.350408 0.000000
0.869505 0.357427 0.000000
0.925170 0.365667 0.000000
0.980438 0.375280 0.000000
1.000000 0.383124 0.000000
1.000000 0.385992 0.000000
0.172030 0.376440 0.110872
0.206729 0.377813 0.107881
0.256291 0.378698 0.101503
0.318120 0.378943 0.090791
0.385351 0.379309 0.074891
0.455116 0.380438 0.049165
0.531487 0.385840 0.001434
0.609308 0.391669 0.000000
0.679530 0.393896 0.000000
0.745327 0.396246 0.000000
0.806241 0.398688 0.000000
0.865202 0.402747 0.000000
0.921691 0.407721 0.000000
0.977356 0.414282 0.000000
1.000000 0.421637 0.000000
1.000000 0.427527 0.000000
0.194522 0.432563 0.132876
0.223026 0.434974 0.131075
0.266789 0.436805 0.126253
0.323247 0.437659 0.117220
0.386603 0.437964 0.104982
0.453101 0.437781 0.086397
0.520531 0.437507 0.057038
0.595178 0.442481 0.000000
0.670222 0.447547 0.000000
0.736202 0.448127 0.000000
0.798489 0.449042 0.000000
0.858457 0.450935 0.000000
0.915770 0.453162 0.000000
0.971588 0.456489 0.000000
1.000000 0.460426 0.000000
1.000000 0.466377 0.000000
0.209049 0.481849 0.150668
0.232425 0.482399 0.148440
0.270939 0.484199 0.144717
0.322576 0.485756 0.137606
0.382879 0.487556 0.127474
0.447791 0.489418 0.113649
0.515740 0.491707 0.093324
0.585107 0.494362 0.062196
0.661067 0.501549 0.000000
0.732845 0.505547 0.000000
0.797360 0.506096 0.000000
0.858885 0.506767 0.000000
0.917479 0.507317 0.000000
0.974304 0.508110 0.000000
1.000000 0.509331 0.000000
1.000000 0.510552 0.000000
0.221592 0.542107 0.170413
0.242863 0.541802 0.168093
0.278050 0.542473 0.164401
0.326848 0.543450 0.158236
0.384680 0.544976 0.148714
0.448096 0.546868 0.137148
0.515435 0.549615 0.120943
0.584253 0.552361 0.097993
0.654200 0.555596 0.062165
0.724575 0.558709 0.000000
0.790280 0.559197 0.000000
0.851499 0.558221 0.000000
0.910674 0.557336 0.000000
0.969116 0.557244 0.000000
1.000000 0.557244 0.000000
1.000000 0.556695 0.000000
0.230472 0.604608 0.189914
0.250919 0.604456 0.187930
0.284947 0.604547 0.184665
0.331975 0.605066 0.179049
0.388708 0.606104 0.170657
0.451026 0.607294 0.159945
0.516899 0.609003 0.146578
0.584649 0.610834 0.128145
0.653407 0.613214 0.102022
0.720668 0.614313 0.063569
0.785092 0.613123 0.000000
0.844877 0.609918 0.000000
0.904875 0.608423 0.000000
0.964233 0.607599 0.000000
1.000000 0.606622 0.000000
1.000000 0.604700 0.000000
0.242863 0.665858 0.212070
0.261906 0.665583 0.210269
0.293919 0.665583 0.207248
0.339300 0.665675 0.202090
0.393805 0.665888 0.194553
0.454536 0.666346 0.184360
0.518914 0.667109 0.172488
0.585168 0.668208 0.156741
0.652735 0.669673 0.135927
0.720211 0.671199 0.106355
0.784421 0.670100 0.065156
0.844266 0.665583 0.000000
0.900420 0.660090 0.000000
0.959106 0.657801 0.000000
1.000000 0.656458 0.000000
1.000000 0.654658 0.000000
0.254795 0.718898 0.232334
0.272801 0.719234 0.231083
0.303716 0.720455 0.229313
0.347417 0.721706 0.225650
0.400977 0.723568 0.220279
0.460639 0.725277 0.212284
0.524743 0.727504 0.202457
0.590936 0.729610 0.190097
0.658839 0.732418 0.174105
0.727230 0.734981 0.152438
0.796384 0.738155 0.122316
0.859098 0.735561 0.084749
0.916808 0.729244 0.025696
0.969329 0.720516 0.000000
1.000000 0.714565 0.000000
1.000000 0.708186 0.000000
0.289677 0.788846 0.272038
0.300725 0.785092 0.266697
0.326085 0.783688 0.262730
0.365393 0.783810 0.258549
0.415412 0.785061 0.253605
0.472114 0.786374 0.246250
0.533776 0.788022 0.236912
0.597925 0.789883 0.226078
0.664332 0.792325 0.212467
0.731228 0.794186 0.193606
0.799283 0.796506 0.169589
0.867369 0.798428 0.134798
0.926116 0.792111 0.095827
0.978607 0.781186 0.027405
1.000000 0.768582 0.000000
1.000000 0.759304 0.000000
0.330175 0.851896 0.314275
0.337987 0.848661 0.308476
0.358770 0.847013 0.303868
0.392950 0.846677 0.299351
0.437781 0.847349 0.294377
0.490059 0.848295 0.287572
0.548119 0.849821 0.279149
0.609247 0.851164 0.268315
0.673121 0.852842 0.255741
0.738247 0.854276 0.239078
0.804868 0.855985 0.217655
0.872404 0.857664 0.189181
0.941314 0.859800 0.150240
0.995270 0.848966 0.108217
1.000000 0.834714 0.029358
1.000000 0.817685 0.000000
0.387457 0.917205 0.369451
0.392187 0.914488 0.363348
0.408057 0.913146 0.358648
0.436408 0.912902 0.354376
0.474952 0.913420 0.349706
0.521386 0.914244 0.343328
0.574029 0.915496 0.335576
0.631128 0.916899 0.325109
0.691768 0.918700 0.314183
0.754910 0.920653 0.300053
0.820279 0.922850 0.282170
0.887236 0.924926 0.258366
0.956237 0.927611 0.228305
1.000000 0.929625 0.184421
1.000000 0.913848 0.143526
1.000000 0.895567 0.069917
0.000000 0.027131 0.083528
0.127687 0.027131 0.082063
0.257816 0.000000 0.059144
0.349798 0.018280 0.029145
0.419440 0.057343 0.011902
0.488930 0.081575 0.000000
0.557397 0.106264 0.000000
0.626703 0.130739 0.000000
0.694026 0.154330 0.000000
0.760555 0.178836 0.000000
0.820951 0.199863 0.000000
0.876219 0.216434 0.000000
0.929229 0.231388 0.000000
0.983551 0.245823 0.000000
1.000000 0.259068 0.000000
1.000000 0.269871 0.000000
0.000000 0.099153 0.092897
0.127413 0.093599 0.083192
0.241001 0.090455 0.066560
0.335637 0.093751 0.044465
0.413703 0.102419 0.017395
0.485512 0.115846 0.000000
0.556329 0.133211 0.000000
0.625971 0.152590 0.000000
0.693568 0.172671 0.000000
0.761105 0.194430 0.000000
0.820829 0.214542 0.000000
0.875669 0.230777 0.000000
0.928191 0.243809 0.000000
0.982330 0.256870 0.000000
1.000000 0.268925 0.000000
1.000000 0.279149 0.000000
0.028199 0.158755 0.094911
0.136934 0.156588 0.087465
0.233707 0.153750 0.074403
0.327123 0.153323 0.053956
0.407904 0.155459 0.026856
0.483040 0.162387 0.000000
0.554376 0.172580 0.000000
0.624018 0.185946 0.000000
0.693935 0.202152 0.000000
0.760708 0.219852 0.000000
0.819028 0.236027 0.000000
0.873045 0.251743 0.000000
0.925628 0.264683 0.000000
0.980224 0.275944 0.000000
1.000000 0.286229 0.000000
1.000000 0.295140 0.000000
0.071717 0.217777 0.100954
0.151888 0.214969 0.096376
0.232334 0.212161 0.086122
0.317723 0.212131 0.069184
0.399786 0.212741 0.043671
0.475013 0.214878 0.009552
0.546777 0.219944 0.000000
0.618494 0.228794 0.000000
0.689082 0.240391 0.000000
0.755306 0.253391 0.000000
0.813931 0.265751 0.000000
0.868528 0.278660 0.000000
0.923156 0.292393 0.000000
0.977111 0.303899 0.000000
1.000000 0.311315 0.000000
1.000000 0.317754 0.000000
0.104646 0.268894 0.107301
0.168093 0.267948 0.106722
0.235843 0.266758 0.098543
0.310155 0.265476 0.086336
0.387396 0.266667 0.065858
0.465034 0.269017 0.032349
0.537835 0.271672 0.000000
0.610712 0.277470 0.000000
0.682155 0.285344 0.000000
0.749935 0.294743 0.000000
0.810239 0.303868 0.000000
0.867704 0.314000 0.000000
0.923980 0.325719 0.000000
0.979461 0.338170 0.000000
1.000000 0.347173 0.000000
1.000000 0.351385 0.000000
0.145846 0.323430 0.124544
0.187106 0.323522 0.121340
0.243900 0.323156 0.114595
0.311345 0.322667 0.104128
0.382147 0.322301 0.089082
0.457008 0.324956 0.063813
0.532952 0.328435 0.020752
0.605921 0.331823 0.000000
0.677668 0.337163 0.000000
0.744991 0.342840 0.000000
0.805997 0.348302 0.000000
0.864744 0.355291 0.000000
0.921172 0.363226 0.000000
0.976471 0.372595 0.000000
1.000000 0.382300 0.000000
1.000000 0.388037 0.000000
0.172854 0.380285 0.141207
0.206149 0.381140 0.138491
0.254887 0.380957 0.132815
0.315801 0.380682 0.123415
0.382361 0.380346 0.111116
0.451240 0.380774 0.093263
0.525628 0.384497 0.062043
0.601648 0.389227 0.008362
0.672908 0.392065 0.000000
0.739376 0.394690 0.000000
0.800656 0.397040 0.000000
0.859831 0.400916 0.000000
0.916838 0.405646 0.000000
0.972778 0.411780 0.000000
1.000000 0.418708 0.000000
1.000000 0.426520 0.000000
0.192721 0.434455 0.156863
0.220981 0.435859 0.154910
0.263554 0.436164 0.150362
0.319402 0.436225 0.142184
0.382086 0.436255 0.131441
0.448280 0.436378 0.116732
0.516106 0.436713 0.095613
0.590387 0.441382 0.057893
0.665003 0.446204 0.000000
0.731167 0.446845 0.000000
0.793576 0.447639 0.000000
0.853758 0.449622 0.000000
0.911681 0.452033 0.000000
0.967773 0.454994 0.000000
1.000000 0.458625 0.000000
1.000000 0.463874 0.000000
0.207645 0.486427 0.171542
0.231510 0.486580 0.169558
0.269566 0.487160 0.165774
0.320928 0.487739 0.158999
0.380804 0.488808 0.149874
0.445502 0.490303 0.137942
0.513542 0.492470 0.121462
0.582605 0.494728 0.098024
0.657923 0.501366 0.054780
0.729274 0.504967 0.000000
0.793820 0.505547 0.000000
0.855375 0.506279 0.000000
0.914214 0.506798 0.000000
0.971771 0.507897 0.000000
1.000000 0.509300 0.000000
1.000000 0.510735 0.000000
0.218784 0.544579 0.187991
0.240543 0.544518 0.186038
0.276188 0.544762 0.182528
0.324956 0.545495 0.176638
0.383032 0.546868 0.168154
0.446479 0.548425 0.157443
0.513359 0.550347 0.143313
0.581994 0.552575 0.123873
0.651362 0.555291 0.096864
0.721187 0.557977 0.052399
0.786587 0.558190 0.000000
0.848142 0.557427 0.000000
0.907897 0.557061 0.000000
0.966979 0.557336 0.000000
1.000000 0.557671 0.000000
1.000000 0.557336 0.000000
0.227756 0.606409 0.205539
0.248722 0.606622 0.203952
0.282902 0.606683 0.200656
0.330175 0.606989 0.195438
0.386786 0.607507 0.187564
0.449134 0.608148 0.177249
0.514702 0.609155 0.164828
0.582086 0.610651 0.148440
0.650782 0.612757 0.126497
0.717922 0.613642 0.096193
0.782040 0.612268 0.050477
0.841917 0.609094 0.000000
0.902251 0.607935 0.000000
0.961944 0.607416 0.000000
1.000000 0.606714 0.000000
1.000000 0.605035 0.000000
0.239261 0.666560 0.225711
0.259129 0.666438 0.224033
0.291356 0.666224 0.220951
0.336736 0.666224 0.216098
0.391516 0.666468 0.208988
0.452552 0.666896 0.199283
0.517021 0.667689 0.188205
0.583429 0.668605 0.173800
0.650690 0.669734 0.154971
0.718013 0.670893 0.129274
0.782010 0.669520 0.096162
0.841611 0.664820 0.047669
0.897520 0.659083 0.000000
0.956207 0.656794 0.000000
1.000000 0.655390 0.000000
1.000000 0.653834 0.000000
0.253208 0.721187 0.245701
0.271275 0.721462 0.244541
0.302251 0.722377 0.242527
0.345953 0.723354 0.238956
0.399298 0.724819 0.233677
0.459052 0.726406 0.225986
0.523461 0.728573 0.216495
0.589776 0.730617 0.204990
0.657679 0.733150 0.190097
0.725917 0.735531 0.170260
0.794980 0.738491 0.143740
0.857786 0.735958 0.112551
0.915679 0.729671 0.071412
0.968322 0.721065 0.000000
1.000000 0.715450 0.000000
1.000000 0.709285 0.000000
0.288365 0.790249 0.283757
0.299931 0.786770 0.278691
0.325170 0.785397 0.274754
0.364630 0.785458 0.270665
0.414496 0.786587 0.265812
0.471168 0.787655 0.258732
0.532555 0.789090 0.249332
0.596765 0.790707 0.238560
0.663050 0.792905 0.225681
0.729915 0.794553 0.207889
0.797879 0.796719 0.185275
0.866056 0.798672 0.153933
0.925200 0.792660 0.120821
0.977905 0.781827 0.071962
1.000000 0.769436 0.000000
1.000000 0.760433 0.000000
0.329778 0.852811 0.324437
0.337682 0.849821 0.319005
0.358373 0.848356 0.314702
0.392615 0.848081 0.310277
0.437385 0.848692 0.305333
0.489479 0.849546 0.298741
0.547295 0.850858 0.290288
0.608423 0.851987 0.279484
0.671962 0.853391 0.266941
0.736995 0.854704 0.250736
0.803586 0.856291 0.230228
0.871153 0.857939 0.203311
0.940124 0.860044 0.167544
0.994507 0.849454 0.130465
1.000000 0.835386 0.072450
1.000000 0.818540 0.000000
0.386908 0.917876 0.377905
0.391882 0.915312 0.372198
0.407721 0.914031 0.367590
0.436164 0.913787 0.363439
0.474678 0.914366 0.358831
0.521019 0.915190 0.352789
0.573480 0.916411 0.345098
0.630518 0.917693 0.334813
0.690913 0.919341 0.323705
0.753994 0.921141 0.309697
0.819211 0.923186 0.292088
0.886015 0.925139 0.268864
0.954894 0.927611 0.239384
1.000000 0.929870 0.197177
1.000000 0.914061 0.159274
1.000000 0.895842 0.096590
0.000000 0.077516 0.172885
0.091402 0.061097 0.165286
0.226139 0.046967 0.149355
0.336736 0.020569 0.126040
0.413672 0.030854 0.095766
0.480232 0.072206 0.074739
0.547662 0.103792 0.051972
0.616327 0.129427 0.014923
0.685237 0.151034 0.000000
0.754086 0.174929 0.000000
0.815518 0.197543 0.000000
0.871427 0.219120 0.000000
0.925017 0.239445 0.000000
0.980255 0.259861 0.000000
1.000000 0.272740 0.000000
1.000000 0.280797 0.000000
0.000000 0.125704 0.167788
0.100343 0.116091 0.158694
0.220981 0.109438 0.146944
0.322515 0.099733 0.127108
0.401312 0.105806 0.106722
0.474281 0.120333 0.087800
0.545342 0.135744 0.062287
0.616022 0.151827 0.018372
0.686336 0.170199 0.000000
0.755184 0.190890 0.000000
0.815946 0.210849 0.000000
0.871366 0.230076 0.000000
0.924559 0.248966 0.000000
0.979370 0.268132 0.000000
1.000000 0.281590 0.000000
1.000000 0.289342 0.000000
0.000000 0.176425 0.163210
0.118593 0.171511 0.156558
0.219730 0.167178 0.148043
0.312627 0.163973 0.134005
0.395483 0.164462 0.117281
0.472053 0.168673 0.096559
0.544793 0.176120 0.068849
0.615656 0.186496 0.024933
0.687556 0.200961 0.000000
0.755306 0.217136 0.000000
0.814450 0.232822 0.000000
0.869261 0.248600 0.000000
0.922881 0.265019 0.000000
0.977569 0.282567 0.000000
1.000000 0.297551 0.000000
1.000000 0.304295 0.000000
0.072572 0.225925 0.160006
0.146609 0.224582 0.156832
0.224857 0.222751 0.151125
0.308659 0.220951 0.139467
0.390082 0.219486 0.123690
0.466133 0.220340 0.103914
0.538903 0.223911 0.077302
0.612146 0.231296 0.037201
0.683284 0.241032 0.000000
0.750515 0.252354 0.000000
0.809934 0.263859 0.000000
0.865293 0.275914 0.000000
0.920928 0.289830 0.000000
0.975006 0.304204 0.000000
1.000000 0.318242 0.000000
1.000000 0.325353 0.000000
0.115419 0.275731 0.162661
0.161440 0.275914 0.159091
0.230594 0.274662 0.155367
0.304814 0.273259 0.145541
0.381353 0.272709 0.131594
0.457679 0.273442 0.113039
0.531121 0.275425 0.089082
0.604517 0.280247 0.054292
0.676539 0.286961 0.000000
0.744930 0.295354 0.000000
0.806210 0.303471 0.000000
0.864927 0.313176 0.000000
0.922118 0.324041 0.000000
0.978149 0.335943 0.000000
1.000000 0.348211 0.000000
1.000000 0.357916 0.000000
0.137148 0.330053 0.168276
0.176181 0.330419 0.165133
0.240116 0.329534 0.164065
0.307347 0.328862 0.155276
0.378149 0.328283 0.144106
0.452064 0.329747 0.127413
0.527184 0.331914 0.104646
0.600610 0.334813 0.074647
0.672847 0.339544 0.023468
0.740627 0.344488 0.000000
0.802579 0.349584 0.000000
0.862028 0.355993 0.000000
0.919219 0.363165 0.000000
0.975250 0.371466 0.000000
1.000000 0.380438 0.000000
1.000000 0.390082 0.000000
0.156405 0.385840 0.176272
0.203250 0.385992 0.180270
0.251072 0.385962 0.175601
0.312108 0.385687 0.167636
0.378790 0.385443 0.157748
0.448371 0.385687 0.144198
0.521874 0.388434 0.124208
0.597314 0.392065 0.096193
0.668727 0.394476 0.056092
0.735561 0.396826 0.000000
0.797360 0.399054 0.000000
0.857176 0.402502 0.000000
0.914733 0.406775 0.000000
0.971252 0.412055 0.000000
1.000000 0.417945 0.000000
1.000000 0.425025 0.000000
0.186740 0.438697 0.191409
0.217227 0.440101 0.191104
0.259770 0.440497 0.187167
0.315709 0.440528 0.180331
0.378820 0.440497 0.170901
0.445411 0.440436 0.159274
0.513664 0.440650 0.143343
0.587213 0.444495 0.119417
0.661494 0.448524 0.085451
0.727962 0.449165 0.037293
0.790829 0.450019 0.000000
0.851347 0.451698 0.000000
0.909606 0.453834 0.000000
0.966155 0.456275 0.000000
1.000000 0.459083 0.000000
1.000000 0.463111 0.000000
0.203220 0.490150 0.203128
0.227420 0.490364 0.201175
0.265812 0.490791 0.197818
0.317388 0.491463 0.192233
0.377783 0.492409 0.183871
0.442908 0.493874 0.174014
0.511192 0.495918 0.160983
0.580224 0.497902 0.143709
0.655268 0.503899 0.116457
0.726406 0.507134 0.080629
0.791196 0.507774 0.023377
0.853056 0.508476 0.000000
0.912200 0.508934 0.000000
0.970275 0.509880 0.000000
1.000000 0.510948 0.000000
1.000000 0.511620 0.000000
0.213626 0.547906 0.216251
0.235691 0.547906 0.214542
0.271855 0.548180 0.211337
0.321386 0.548974 0.206332
0.379889 0.550408 0.198825
0.443946 0.551751 0.189456
0.511131 0.553491 0.177584
0.580041 0.555596 0.162387
0.649500 0.558007 0.141909
0.719203 0.560327 0.114076
0.784237 0.560113 0.075654
0.846098 0.559350 0.005615
0.906157 0.559045 0.000000
0.965576 0.559411 0.000000
1.000000 0.559594 0.000000
1.000000 0.558923 0.000000
0.221927 0.609094 0.231205
0.243351 0.609400 0.229862
0.278233 0.609522 0.227085
0.326329 0.609827 0.222110
0.383368 0.610254 0.215244
0.446174 0.610864 0.205814
0.512291 0.611841 0.195132
0.580163 0.613214 0.181308
0.648859 0.615106 0.163485
0.716091 0.615839 0.140658
0.780117 0.614130 0.111635
0.839933 0.610834 0.070558
0.900633 0.609827 0.000000
0.960754 0.609369 0.000000
1.000000 0.608637 0.000000
1.000000 0.606836 0.000000
0.233738 0.668544 0.248966
0.253727 0.668452 0.247471
0.286656 0.668238 0.244602
0.332616 0.668269 0.240116
0.388128 0.668544 0.233707
0.449409 0.669032 0.224979
0.514488 0.669825 0.214847
0.581140 0.670588 0.202152
0.648707 0.671595 0.185885
0.716152 0.672663 0.164889
0.780362 0.671290 0.139467
0.840055 0.666499 0.108248
0.895964 0.660731 0.062104
0.955016 0.658503 0.000000
1.000000 0.657008 0.000000
1.000000 0.655329 0.000000
0.248051 0.723262 0.267185
0.266667 0.723476 0.265995
0.297948 0.724269 0.264164
0.342199 0.725216 0.260807
0.396033 0.726650 0.255863
0.456214 0.728176 0.248875
0.520806 0.730282 0.240085
0.587457 0.732235 0.229648
0.655604 0.734768 0.216770
0.724056 0.737148 0.199435
0.793332 0.740078 0.177523
0.856596 0.737728 0.152499
0.914580 0.731441 0.123903
0.967254 0.722805 0.079347
1.000000 0.717250 0.000000
1.000000 0.711025 0.000000
0.284977 0.791501 0.302953
0.296330 0.788174 0.298070
0.322118 0.786954 0.294438
0.361517 0.787015 0.290471
0.411658 0.788052 0.285801
0.468574 0.789090 0.279088
0.530022 0.790494 0.270420
0.594537 0.792111 0.260410
0.661006 0.794247 0.248508
0.728023 0.795926 0.232547
0.796078 0.798032 0.212406
0.864347 0.799924 0.185641
0.923949 0.794156 0.158419
0.976867 0.783352 0.122835
1.000000 0.770901 0.063172
1.000000 0.762081 0.000000
0.327245 0.853666 0.341405
0.335027 0.850767 0.336065
0.355718 0.849424 0.331731
0.390082 0.849149 0.327642
0.434943 0.849729 0.322972
0.487129 0.850584 0.316564
0.545006 0.851957 0.308659
0.606256 0.853086 0.298131
0.669825 0.854429 0.286320
0.734951 0.855650 0.271092
0.801694 0.857267 0.252232
0.869444 0.858885 0.227909
0.938506 0.860990 0.196506
0.993469 0.850767 0.164920
1.000000 0.836728 0.121492
1.000000 0.819883 0.028504
0.384405 0.918517 0.391821
0.389166 0.916014 0.386236
0.405219 0.914733 0.381842
0.433692 0.914549 0.377874
0.472419 0.915190 0.373602
0.518883 0.916014 0.367742
0.571435 0.917205 0.360357
0.628321 0.918486 0.350500
0.688899 0.920073 0.339727
0.752010 0.921904 0.326604
0.817319 0.923949 0.309911
0.884184 0.925872 0.287785
0.953063 0.928283 0.260319
1.000000 0.930541 0.222019
1.000000 0.915129 0.187808
1.000000 0.896910 0.136843
0.000000 0.114626 0.237430
0.000000 0.096925 0.231876
0.183993 0.086427 0.219181
0.301061 0.081483 0.204257
0.396948 0.074769 0.184115
0.472602 0.072450 0.157076
0.542535 0.098177 0.136324
0.611200 0.124086 0.115053
0.679622 0.149325 0.089754
0.747829 0.175448 0.055756
0.809903 0.197024 0.000000
0.867155 0.216495 0.000000
0.922362 0.235294 0.000000
0.978820 0.254704 0.000000
1.000000 0.273747 0.000000
1.000000 0.291325 0.000000
0.000000 0.151675 0.231022
0.045869 0.141482 0.223453
0.190036 0.134096 0.214084
0.296635 0.130404 0.202243
0.388190 0.124575 0.184665
0.467353 0.122164 0.162448
0.538964 0.137575 0.143526
0.608637 0.154086 0.122377
0.679316 0.173739 0.097902
0.748440 0.193729 0.061860
0.810178 0.211185 0.000000
0.866941 0.228550 0.000000
0.922087 0.245457 0.000000
0.977813 0.263432 0.000000
1.000000 0.281010 0.000000
1.000000 0.298283 0.000000
0.000000 0.192752 0.224887
0.095491 0.188083 0.218753
0.199222 0.183261 0.211582
0.295598 0.181796 0.203494
0.383154 0.177401 0.188663
0.461463 0.179049 0.171786
0.534783 0.185306 0.153384
0.606622 0.195529 0.133639
0.679225 0.207218 0.106325
0.748226 0.220645 0.067628
0.808652 0.234379 0.005554
0.864714 0.248295 0.000000
0.920226 0.262913 0.000000
0.976074 0.278477 0.000000
1.000000 0.294316 0.000000
1.000000 0.310216 0.000000
0.008789 0.241459 0.222629
0.119081 0.238529 0.218418
0.208133 0.235721 0.212772
0.294469 0.233982 0.205905
0.376715 0.231571 0.193149
0.454200 0.231418 0.178012
0.529046 0.233829 0.160250
0.603265 0.239414 0.139101
0.675257 0.246983 0.112245
0.743618 0.256535 0.075257
0.804257 0.266606 0.016724
0.861143 0.277348 0.000000
0.918242 0.289464 0.000000
0.973388 0.301701 0.000000
1.000000 0.314031 0.000000
1.000000 0.327184 0.000000
0.094728 0.283207 0.215488
0.152590 0.283360 0.213993
0.220157 0.283513 0.211246
0.294163 0.283421 0.206516
0.370855 0.282322 0.195499
0.447700 0.282017 0.181735
0.522240 0.283146 0.165408
0.596460 0.287114 0.145480
0.669245 0.292729 0.119783
0.738643 0.299870 0.086610
0.800717 0.307347 0.034180
0.861082 0.316350 0.000000
0.919371 0.325811 0.000000
0.976410 0.335790 0.000000
1.000000 0.345678 0.000000
1.000000 0.355596 0.000000
0.135500 0.336889 0.220371
0.176242 0.337621 0.219577
0.229343 0.338140 0.216434
0.298619 0.337346 0.212070
0.370428 0.336706 0.202152
0.444495 0.337194 0.189822
0.519432 0.338201 0.173922
0.593408 0.340673 0.155123
0.666194 0.344701 0.131289
0.734829 0.349310 0.100923
0.797635 0.354070 0.057465
0.858091 0.359991 0.000000
0.916228 0.366217 0.000000
0.973205 0.373083 0.000000
1.000000 0.380011 0.000000
1.000000 0.387335 0.000000
0.157778 0.391882 0.227237
0.189578 0.393042 0.225864
0.236698 0.393286 0.222232
0.304112 0.392676 0.219944
0.371954 0.392432 0.210697
0.442329 0.392645 0.200381
0.515709 0.394446 0.185824
0.590600 0.396918 0.166964
0.662440 0.399023 0.144747
0.729976 0.401282 0.117342
0.792630 0.403479 0.080690
0.853208 0.406775 0.013581
0.911589 0.410529 0.000000
