luts/Pearce ● 16.cube
# Created by Adobe Lightroom plugin Export LUT (1.16.0)
# www.johnrellis.com/lightroom/exportlut.htm
# Preset: Pearce ●
# Color profile: C:\Program Files (x86)\Common Files\Adobe\Color\Profiles\Recommended\sRGB Color Space Profile.icm
LUT_3D_SIZE 6
DOMAIN_MIN 0.0 0.0 0.0
DOMAIN_MAX 1.0 1.0 1.0
0.000000 0.000000 0.000000
0.357244 0.009033 0.000000
0.566125 0.072297 0.000000
0.767453 0.152956 0.000000
0.934447 0.216831 0.000000
1.000000 0.263188 0.000000
0.073915 0.203677 0.038483
0.317815 0.203464 0.000000
0.546349 0.216342 0.000000
0.753994 0.252445 0.000000
0.922240 0.285191 0.000000
1.000000 0.312810 0.000000
0.172030 0.376440 0.110872
0.318120 0.378943 0.090791
0.531487 0.385840 0.001434
0.745327 0.396246 0.000000
0.921691 0.407721 0.000000
1.000000 0.427527 0.000000
0.221592 0.542107 0.170413
0.326848 0.543450 0.158236
0.515435 0.549615 0.120943
0.724575 0.558709 0.000000
0.910674 0.557336 0.000000
1.000000 0.556695 0.000000
0.254795 0.718898 0.232334
0.347417 0.721706 0.225650
0.524743 0.727504 0.202457
0.727230 0.734981 0.152438
0.916808 0.729244 0.025696
1.000000 0.708186 0.000000
0.387457 0.917205 0.369451
0.436408 0.912902 0.354376
0.574029 0.915496 0.335576
0.754910 0.920653 0.300053
0.956237 0.927611 0.228305
1.000000 0.895567 0.069917
0.000000 0.114626 0.237430
0.301061 0.081483 0.204257
0.542535 0.098177 0.136324
0.747829 0.175448 0.055756
0.922362 0.235294 0.000000
1.000000 0.291325 0.000000
0.008789 0.241459 0.222629
0.294469 0.233982 0.205905
0.529046 0.233829 0.160250
0.743618 0.256535 0.075257
0.918242 0.289464 0.000000
1.000000 0.327184 0.000000
0.157778 0.391882 0.227237
0.304112 0.392676 0.219944
0.515709 0.394446 0.185824
0.729976 0.401282 0.117342
0.911589 0.410529 0.000000
1.000000 0.424109 0.000000
0.178561 0.553735 0.245670
0.314488 0.554101 0.246555
0.506981 0.558282 0.222049
0.715755 0.564080 0.174777
0.903624 0.562585 0.068147
1.000000 0.561883 0.000000
0.239414 0.725978 0.298497
0.335576 0.727504 0.292485
0.516320 0.732784 0.274113
0.720882 0.739559 0.239414
0.912718 0.734371 0.180545
1.000000 0.713863 0.000000
0.379461 0.919493 0.412879
0.428901 0.915648 0.399664
0.567254 0.918273 0.383154
0.748592 0.923064 0.351629
0.950103 0.929412 0.291173
1.000000 0.898741 0.185367
0.000000 0.203922 0.394293
0.152956 0.183139 0.380529
0.482826 0.198398 0.353582
0.728054 0.203433 0.309636
0.910613 0.260868 0.254032
1.000000 0.304509 0.162234
0.000000 0.290715 0.388830
0.216220 0.281621 0.376867
0.482734 0.285191 0.359319
0.719478 0.282902 0.315282
0.903227 0.321019 0.264775
1.000000 0.339086 0.159213
0.000000 0.421546 0.387549
0.242374 0.423011 0.383886
0.478645 0.426307 0.370947
0.702419 0.429145 0.334783
0.895506 0.438117 0.283238
1.000000 0.441993 0.178653
0.137423 0.574212 0.396674
0.269993 0.576867 0.394354
0.477974 0.581506 0.385168
0.694820 0.584436 0.356909
0.890227 0.583093 0.310552
1.000000 0.579156 0.214847
0.000000 0.740902 0.410712
0.246006 0.742275 0.411109
0.491585 0.745205 0.418341
0.699947 0.751522 0.393805
0.899779 0.749416 0.358618
1.000000 0.728847 0.269627
0.168826 0.928862 0.468360
0.324468 0.923796 0.473518
0.534356 0.923735 0.483558
0.724453 0.929046 0.459052
0.931487 0.935088 0.416510
1.000000 0.908751 0.347082
0.000000 0.291508 0.544579
0.000000 0.282322 0.539055
0.391638 0.288762 0.526452
0.660731 0.303685 0.510613
0.882444 0.341772 0.475929
1.000000 0.427802 0.456092
0.000000 0.354955 0.548302
0.000000 0.346746 0.539849
0.399176 0.348547 0.529351
0.659358 0.358740 0.513512
0.875425 0.389410 0.479438
1.000000 0.448920 0.453376
0.000000 0.459510 0.543206
0.077974 0.460243 0.541070
0.403967 0.460609 0.532525
0.655177 0.475288 0.521874
0.865110 0.496132 0.493721
1.000000 0.515282 0.455299
0.000000 0.600641 0.554223
0.104524 0.602319 0.552758
0.408270 0.607904 0.548791
0.652857 0.618494 0.540459
0.867643 0.620569 0.507286
1.000000 0.611688 0.444800
0.000000 0.761166 0.570428
0.000000 0.762997 0.568566
0.389227 0.766567 0.564019
0.657954 0.770687 0.563561
0.872618 0.773281 0.537804
1.000000 0.757839 0.476814
0.000000 0.949432 0.551476
0.000000 0.945403 0.541070
0.244877 0.941588 0.565881
0.669276 0.939391 0.601617
0.893065 0.944884 0.567987
1.000000 0.926787 0.519768
0.000000 0.385443 0.708705
0.000000 0.383032 0.705837
0.241245 0.386297 0.699184
0.587488 0.413733 0.687617
0.835477 0.446052 0.678431
1.000000 0.523613 0.649928
0.000000 0.427832 0.711910
0.000000 0.424414 0.706874
0.260349 0.428260 0.700954
0.589593 0.452949 0.688838
0.830747 0.480140 0.677852
1.000000 0.543297 0.649073
0.000000 0.510521 0.710872
0.000000 0.509941 0.708766
0.263523 0.512810 0.701839
0.591302 0.540429 0.691585
0.825193 0.562188 0.683467
1.000000 0.610590 0.664363
0.000000 0.631342 0.720882
0.000000 0.631525 0.719966
0.197635 0.631464 0.715328
0.570275 0.643305 0.705806
0.822934 0.670100 0.699702
1.000000 0.701137 0.685084
0.000000 0.776822 0.743160
0.000000 0.778561 0.742885
0.176791 0.784054 0.741909
0.566064 0.793698 0.738888
0.824643 0.806729 0.732723
1.000000 0.800687 0.687678
0.000000 0.970886 0.791409
0.000000 0.967864 0.783200
0.000000 0.967071 0.771908
0.400214 0.964782 0.752682
0.821103 0.960723 0.761959
1.000000 0.954559 0.721370
0.000000 0.504540 0.945037
0.000000 0.510826 0.943084
0.000000 0.541405 0.937163
0.574487 0.612512 0.926390
0.802029 0.634943 0.918059
1.000000 0.667140 0.912444
0.000000 0.527550 0.947692
0.000000 0.532952 0.945098
0.000000 0.559716 0.937774
0.573632 0.629541 0.924956
0.796139 0.644434 0.913176
1.000000 0.669795 0.904295
0.000000 0.575891 0.954192
0.000000 0.580804 0.953063
0.000000 0.603357 0.947143
0.544610 0.663050 0.935668
0.793729 0.691768 0.923186
1.000000 0.713375 0.915831
0.000000 0.665339 0.970184
0.000000 0.662715 0.969635
0.000000 0.657160 0.967468
0.420203 0.707210 0.955474
0.781003 0.759945 0.941192
1.000000 0.778286 0.933013
0.000000 0.799771 0.990509
0.000000 0.799222 0.990204
0.000000 0.799649 0.989227
0.000000 0.808225 0.985199
0.716579 0.838071 0.973358
1.000000 0.871305 0.960296
0.000000 0.954681 1.000000
0.000000 0.954864 1.000000
0.000000 0.958923 1.000000
0.000000 0.968780 1.000000
0.595117 0.982879 0.998322
0.997040 0.996735 0.995209
