luts/Peele ● 16.cube
# Created by Adobe Lightroom plugin Export LUT (1.16.0)
# www.johnrellis.com/lightroom/exportlut.htm
# Preset: Peele ●
# Color profile: C:\Program Files (x86)\Common Files\Adobe\Color\Profiles\Recommended\sRGB Color Space Profile.icm
LUT_3D_SIZE 6
DOMAIN_MIN 0.0 0.0 0.0
DOMAIN_MAX 1.0 1.0 1.0
0.066529 0.058045 0.047639
0.249210 0.084779 0.055360
0.502861 0.136110 0.043305
0.735805 0.212039 0.004852
0.904540 0.271092 0.026246
1.000000 0.346197 0.177829
0.113558 0.177066 0.089326
0.252262 0.190127 0.076661
0.506981 0.235904 0.032807
0.732784 0.288090 0.000000
0.902068 0.323064 0.000000
1.000000 0.379461 0.175875
0.183322 0.384283 0.171389
0.313024 0.387915 0.162081
0.530327 0.406744 0.126101
0.737545 0.418647 0.077943
0.899046 0.427375 0.085237
1.000000 0.460365 0.174441
0.311009 0.593256 0.332616
0.391669 0.594354 0.328252
0.551995 0.596277 0.307286
0.743313 0.592950 0.277531
0.888914 0.574029 0.265049
0.990112 0.588891 0.316503
0.486854 0.755093 0.527062
0.523522 0.755184 0.525475
0.617304 0.755032 0.519127
0.748074 0.753079 0.496315
0.869017 0.738888 0.481453
0.948882 0.737087 0.508324
0.707851 0.851377 0.721920
0.720729 0.851377 0.721889
0.756161 0.851377 0.721859
0.808774 0.851896 0.718044
0.871489 0.853788 0.711025
0.919615 0.851652 0.727108
0.030091 0.119936 0.175418
0.230076 0.122438 0.173922
0.512322 0.153719 0.165347
0.735103 0.239811 0.155459
0.899626 0.300969 0.149081
1.000000 0.365667 0.184054
0.095888 0.217685 0.201328
0.259678 0.233433 0.207675
0.516625 0.259434 0.193210
0.735775 0.303807 0.173922
0.898619 0.343694 0.170169
1.000000 0.397742 0.208713
0.178531 0.412024 0.288640
0.316930 0.423438 0.289006
0.533989 0.433478 0.264347
0.735988 0.435767 0.232303
0.893980 0.445838 0.234562
1.000000 0.481727 0.279057
0.331273 0.607813 0.417670
0.406104 0.609888 0.417212
0.554681 0.612207 0.402747
0.737819 0.608026 0.374823
0.880522 0.589410 0.354681
0.980652 0.606928 0.390326
0.507195 0.758541 0.571160
0.540215 0.758663 0.569757
0.626307 0.758846 0.565484
0.745907 0.757290 0.545159
0.862089 0.745418 0.527764
0.942046 0.745083 0.545953
0.709834 0.851896 0.734279
0.722225 0.851865 0.734218
0.756405 0.851957 0.734066
0.807645 0.852567 0.730983
0.868742 0.854520 0.723964
0.917418 0.852903 0.737057
0.000000 0.230289 0.413458
0.115328 0.220554 0.423499
0.477546 0.233371 0.416022
0.732357 0.298894 0.402533
0.886229 0.376928 0.397711
0.991180 0.450477 0.420539
0.000000 0.313725 0.437201
0.182559 0.316320 0.444038
0.493629 0.327581 0.441627
0.729671 0.376867 0.428626
0.880919 0.421454 0.418463
0.988434 0.475257 0.430823
0.000000 0.462623 0.480995
0.258824 0.472053 0.485786
0.525933 0.501946 0.499672
0.721553 0.504295 0.475746
0.871519 0.512657 0.458534
0.977600 0.546105 0.467079
0.316381 0.629938 0.546685
0.407355 0.635462 0.553094
0.567071 0.648798 0.566949
0.722560 0.646632 0.546014
0.857542 0.630304 0.514244
0.956512 0.650813 0.528527
0.493416 0.765988 0.635462
0.546532 0.766567 0.643854
0.643397 0.768185 0.655573
0.741634 0.768093 0.644190
0.845670 0.761105 0.624170
0.926635 0.762966 0.625727
0.692775 0.854398 0.752773
0.716579 0.853880 0.758938
0.754330 0.853849 0.762051
0.803708 0.854612 0.760922
0.861570 0.856596 0.753841
0.912200 0.856016 0.760555
0.000000 0.348943 0.631800
0.000000 0.350256 0.635096
0.397620 0.371435 0.636622
0.673182 0.399878 0.627161
0.851682 0.478584 0.603418
0.934813 0.596948 0.641535
0.000000 0.407935 0.641016
0.000000 0.412116 0.643183
0.428382 0.437507 0.646509
0.677516 0.458259 0.637232
0.846036 0.519646 0.617121
0.932341 0.612726 0.647120
0.000000 0.517479 0.659449
0.222843 0.526085 0.661006
0.481727 0.553338 0.665278
0.689631 0.574792 0.662562
0.834318 0.609125 0.651179
0.930144 0.646906 0.654902
0.257237 0.653285 0.684840
0.358709 0.658808 0.685969
0.533867 0.673823 0.689998
0.711269 0.698329 0.700526
0.830381 0.689387 0.674647
0.927276 0.700984 0.665003
0.435248 0.778256 0.721706
0.493660 0.778470 0.723293
0.613214 0.779904 0.728054
0.739498 0.785061 0.739284
0.827909 0.781949 0.723293
0.910399 0.782895 0.710292
0.577325 0.863340 0.767361
0.607874 0.862333 0.768307
0.711757 0.858885 0.783963
0.795071 0.858488 0.798398
0.850736 0.860441 0.794095
0.904570 0.861173 0.793942
0.000000 0.466041 0.785794
0.000000 0.477943 0.785153
0.410712 0.523644 0.782467
0.623194 0.553094 0.776516
0.809415 0.579980 0.768460
0.902983 0.654688 0.754330
0.000000 0.503899 0.786862
0.067689 0.515068 0.786099
0.436500 0.554864 0.783474
0.636896 0.585962 0.778164
0.807828 0.608209 0.770535
0.899657 0.671809 0.758999
0.000000 0.580011 0.790219
0.243565 0.589746 0.789395
0.475288 0.619562 0.786984
0.666163 0.656825 0.783322
0.805661 0.668544 0.776883
0.893736 0.711116 0.770504
0.268223 0.682918 0.795712
0.351141 0.688014 0.795102
0.508995 0.701595 0.793668
0.682185 0.724514 0.792386
0.807370 0.738674 0.789212
0.889952 0.761776 0.786893
0.417914 0.782925 0.804379
0.469642 0.784604 0.804227
0.583062 0.789120 0.804166
0.711208 0.796902 0.805356
0.819821 0.811612 0.812284
0.894255 0.807248 0.796353
0.509270 0.872496 0.832273
0.549798 0.871275 0.831907
0.641932 0.868345 0.831205
0.746395 0.865782 0.831052
0.839078 0.866880 0.838499
0.895079 0.868772 0.834012
0.383154 0.653468 0.876371
0.459266 0.669581 0.874418
0.607111 0.707485 0.869505
0.730007 0.741329 0.864622
0.809140 0.748165 0.861570
0.884306 0.759091 0.857725
0.396490 0.668025 0.876158
0.469093 0.682704 0.874327
0.610956 0.716915 0.869718
0.735195 0.751247 0.864836
0.810361 0.756649 0.861997
0.883513 0.765957 0.858305
0.377111 0.693355 0.877348
0.456672 0.706508 0.875547
0.605066 0.736080 0.871275
0.736904 0.768399 0.866514
0.812711 0.776913 0.863615
0.882078 0.782834 0.860258
0.349798 0.740597 0.878965
0.409033 0.744808 0.878172
0.534966 0.755184 0.876036
0.716976 0.786679 0.870787
0.815091 0.804837 0.867308
0.881102 0.808133 0.864195
0.441566 0.813046 0.879393
0.484810 0.814603 0.878935
0.582696 0.818418 0.877684
0.697475 0.823514 0.876005
0.808591 0.833646 0.873686
0.881468 0.840696 0.870726
0.522698 0.871214 0.882872
0.554894 0.871214 0.882658
0.630243 0.871580 0.881987
0.723873 0.872709 0.880949
0.810605 0.875456 0.880034
0.884154 0.880522 0.880613
