luts/Peele ● 16.cube
# Created by Adobe Lightroom plugin Export LUT (1.16.0)
# www.johnrellis.com/lightroom/exportlut.htm
# Preset: Peele ●
# Color profile: C:\Program Files (x86)\Common Files\Adobe\Color\Profiles\Recommended\sRGB Color Space Profile.icm
LUT_3D_SIZE 16
DOMAIN_MIN 0.0 0.0 0.0
DOMAIN_MAX 1.0 1.0 1.0
0.066529 0.058045 0.047639
0.117311 0.063539 0.049592
0.180911 0.072847 0.052979
0.249210 0.084779 0.055360
0.326238 0.098604 0.055818
0.412970 0.115389 0.052033
0.502861 0.136110 0.043305
0.588830 0.160739 0.030304
0.666743 0.187594 0.015808
0.735805 0.212039 0.004852
0.797360 0.233738 0.000000
0.853971 0.252598 0.004700
0.904540 0.271092 0.026246
0.949035 0.290776 0.068025
0.987304 0.314885 0.117739
1.000000 0.346197 0.177829
0.076875 0.092775 0.057130
0.121859 0.095125 0.054139
0.182315 0.101442 0.051698
0.249546 0.110750 0.050752
0.326360 0.123537 0.050019
0.412848 0.139712 0.045136
0.502464 0.159548 0.034699
0.587884 0.182956 0.020325
0.665797 0.206699 0.006195
0.734859 0.228305 0.000000
0.796506 0.247349 0.000000
0.853300 0.264378 0.000000
0.904051 0.280858 0.019745
0.948608 0.299321 0.064332
0.986938 0.321935 0.116365
1.000000 0.352148 0.177432
0.094636 0.130861 0.072023
0.128145 0.132052 0.069551
0.181064 0.137606 0.065278
0.252110 0.147189 0.058381
0.328954 0.158450 0.050477
0.414130 0.174960 0.038941
0.502037 0.194980 0.021424
0.586603 0.216190 0.003845
0.664363 0.236637 0.000000
0.733455 0.254643 0.000000
0.795254 0.270085 0.000000
0.852354 0.283970 0.000000
0.903227 0.297948 0.008148
0.947967 0.313878 0.057191
0.986297 0.334478 0.113436
1.000000 0.362829 0.176852
0.113558 0.177066 0.089326
0.143709 0.178103 0.087709
0.186648 0.180270 0.083406
0.252262 0.190127 0.076661
0.335241 0.204562 0.066041
0.420478 0.218631 0.051362
0.506981 0.235904 0.032807
0.589563 0.254490 0.011231
0.665217 0.272465 0.000000
0.732784 0.288090 0.000000
0.793698 0.301427 0.000000
0.850889 0.312535 0.000000
0.902068 0.323064 0.000000
0.946899 0.335973 0.044770
0.985290 0.353704 0.108858
1.000000 0.379461 0.175875
0.134981 0.235691 0.110842
0.164096 0.236606 0.109377
0.206546 0.238651 0.105776
0.262669 0.241794 0.099092
0.340429 0.256046 0.088960
0.430365 0.273014 0.072480
0.514458 0.286351 0.052094
0.594293 0.300725 0.028626
0.668025 0.314366 0.007874
0.734005 0.325780 0.000000
0.794369 0.335363 0.000000
0.850645 0.344366 0.000000
0.900908 0.353948 0.000000
0.945586 0.364263 0.024781
0.983948 0.378882 0.102480
1.000000 0.401648 0.175051
0.156558 0.307195 0.136812
0.186252 0.308019 0.135286
0.230594 0.309575 0.132540
0.287724 0.312078 0.126070
0.353246 0.315740 0.116060
0.437751 0.331060 0.102571
0.524590 0.345892 0.083162
0.601068 0.355261 0.062318
0.670954 0.362554 0.039582
0.735592 0.369421 0.025513
0.795285 0.375280 0.017273
0.850736 0.381231 0.015930
0.900206 0.388098 0.025055
0.944091 0.396918 0.048188
0.982269 0.409155 0.094392
1.000000 0.428840 0.174319
0.183322 0.384283 0.171389
0.211765 0.384985 0.170108
0.255863 0.386114 0.167544
0.313024 0.387915 0.162081
0.377844 0.390265 0.152804
0.447364 0.393347 0.139742
0.530327 0.406744 0.126101
0.609247 0.415930 0.108186
0.676356 0.418189 0.092439
0.737545 0.418647 0.077943
0.796017 0.420172 0.071839
0.850401 0.423133 0.074647
0.899046 0.427375 0.085237
0.942077 0.434150 0.103059
0.979553 0.444434 0.129366
1.000000 0.460365 0.174441
0.219547 0.460182 0.217502
0.244419 0.460639 0.216312
0.284611 0.461372 0.214145
0.338628 0.462562 0.210605
0.399603 0.463935 0.202426
0.466011 0.465675 0.190890
0.535027 0.467933 0.175753
0.611566 0.475990 0.165774
0.681147 0.477821 0.152529
0.740841 0.474250 0.140963
0.797421 0.471199 0.131960
0.849332 0.469215 0.128054
0.896941 0.471138 0.138369
0.938964 0.475929 0.155001
0.975494 0.484596 0.179202
1.000000 0.498665 0.212497
0.262913 0.529870 0.272129
0.282902 0.530114 0.271122
0.316960 0.530541 0.269535
0.363775 0.531212 0.266636
0.418952 0.532097 0.261051
0.479591 0.532860 0.251408
0.543999 0.533776 0.238895
0.611902 0.535210 0.225254
0.680140 0.536156 0.217990
0.743465 0.533165 0.207492
0.798489 0.527123 0.199252
0.848478 0.522179 0.195041
0.893675 0.519463 0.195377
0.934386 0.521538 0.207675
0.969757 0.528862 0.230930
0.999237 0.542046 0.263371
0.311009 0.593256 0.332616
0.326543 0.593439 0.331884
0.352972 0.593774 0.330510
0.391669 0.594354 0.328252
0.439612 0.595270 0.325170
0.493202 0.595727 0.317510
0.551995 0.596277 0.307286
0.615259 0.596796 0.294774
0.681788 0.597040 0.283726
0.743313 0.592950 0.277531
0.797238 0.585534 0.269718
0.845396 0.578576 0.265263
0.888914 0.574029 0.265049
0.927916 0.572808 0.270420
0.962066 0.576562 0.284611
0.990112 0.588891 0.316503
0.362219 0.654475 0.396185
0.373816 0.654627 0.395727
0.394476 0.654932 0.394720
0.425483 0.655421 0.393072
0.465644 0.656123 0.390784
0.512383 0.656641 0.385870
0.564355 0.656855 0.377630
0.621820 0.656916 0.367529
0.683680 0.656641 0.355230
0.745083 0.654536 0.347814
0.795651 0.645747 0.342565
0.839963 0.636133 0.336797
0.881468 0.630121 0.335943
0.918791 0.627771 0.340642
0.951354 0.630121 0.352728
0.978515 0.638544 0.374365
0.420508 0.709194 0.461616
0.429145 0.709255 0.461250
0.444800 0.709377 0.460517
0.469123 0.709590 0.459419
0.501396 0.709865 0.457679
0.541192 0.710262 0.455451
0.585138 0.710018 0.448920
0.634577 0.709621 0.440925
0.688319 0.708949 0.431159
0.744625 0.708156 0.419623
0.796262 0.704189 0.415656
0.837125 0.694301 0.410864
0.873075 0.684840 0.406806
0.907622 0.681178 0.410193
0.938384 0.682795 0.421637
0.963928 0.690272 0.442420
0.486854 0.755093 0.527062
0.493172 0.755093 0.526818
0.504997 0.755154 0.526329
0.523522 0.755184 0.525475
0.549126 0.755215 0.524315
0.580987 0.755215 0.522789
0.617304 0.755032 0.519127
0.657374 0.754513 0.512840
0.701411 0.753841 0.505272
0.748074 0.753079 0.496315
0.795987 0.752316 0.485878
0.836698 0.747738 0.485420
0.869017 0.738888 0.481453
0.897490 0.731167 0.479866
0.924895 0.730617 0.488411
0.948882 0.737087 0.508324
0.561669 0.793088 0.593988
0.566339 0.793057 0.593805
0.574823 0.793057 0.593500
0.588464 0.792996 0.592950
0.607446 0.792905 0.592157
0.631434 0.792813 0.591150
0.659846 0.792691 0.589837
0.690150 0.792264 0.584924
0.724025 0.791775 0.579034
0.760494 0.791226 0.572137
0.798703 0.790707 0.564202
0.837247 0.790372 0.555077
0.867430 0.786160 0.558038
0.892210 0.779690 0.555932
0.913939 0.774685 0.557519
0.934569 0.777127 0.572381
0.636744 0.824430 0.659541
0.640009 0.824399 0.659449
0.646021 0.824338 0.659266
0.655665 0.824277 0.659022
0.669032 0.824186 0.658595
0.686213 0.824094 0.658076
0.706844 0.823972 0.657465
0.729610 0.823789 0.655421
0.754360 0.823545 0.651575
0.781399 0.823331 0.647120
0.809995 0.823178 0.641962
0.839292 0.823209 0.636042
0.868498 0.823484 0.629450
0.889738 0.820432 0.635340
0.908263 0.816709 0.637263
0.924254 0.814176 0.642695
0.707851 0.851377 0.721920
0.710109 0.851377 0.721889
0.714137 0.851377 0.721889
0.720729 0.851377 0.721889
0.729946 0.851347 0.721859
0.741817 0.851347 0.721859
0.756161 0.851377 0.721859
0.772580 0.851469 0.721889
0.789853 0.851621 0.720089
0.808774 0.851896 0.718044
0.828946 0.852293 0.715785
0.849973 0.852903 0.713405
0.871489 0.853788 0.711025
0.893187 0.855009 0.708644
0.907256 0.853117 0.718685
0.919615 0.851652 0.727108
0.061799 0.073701 0.083894
0.114412 0.075807 0.082521
0.180240 0.083558 0.081453
0.248264 0.094697 0.078187
0.322606 0.113558 0.078798
0.408911 0.131563 0.072511
0.498238 0.153964 0.061250
0.584009 0.179507 0.044312
0.662043 0.205966 0.022522
0.731228 0.229862 0.001648
0.793332 0.249668 0.000000
0.850889 0.265965 0.000000
0.902434 0.281437 0.017823
0.947509 0.299016 0.062623
0.986267 0.320897 0.115389
1.000000 0.350439 0.176425
0.070832 0.102815 0.088533
0.121584 0.107424 0.089235
0.180392 0.113283 0.088167
0.247959 0.121920 0.086183
0.324681 0.134157 0.082460
0.410956 0.150790 0.075135
0.500237 0.171145 0.064057
0.585290 0.194736 0.047272
0.662898 0.219059 0.025452
0.731655 0.241154 0.005005
0.793149 0.260594 0.000000
0.850492 0.276310 0.000000
0.902037 0.290532 0.011933
0.947173 0.306859 0.059327
0.985962 0.327581 0.113649
1.000000 0.356207 0.176303
0.099886 0.140139 0.099763
0.134310 0.144778 0.100832
0.183200 0.148379 0.097505
0.252079 0.155795 0.093080
0.329290 0.166476 0.088472
0.415137 0.181491 0.080537
0.503410 0.199832 0.069093
0.587427 0.220829 0.052735
0.664210 0.241825 0.031800
0.732326 0.261143 0.012604
0.793454 0.277806 0.000000
0.850187 0.292790 0.000000
0.901427 0.306157 0.000946
0.946654 0.320592 0.051972
0.985382 0.339635 0.111116
1.000000 0.366522 0.175540
0.121584 0.187655 0.117067
0.149935 0.190402 0.116213
0.193027 0.192020 0.112978
0.255589 0.199283 0.107393
0.336767 0.211337 0.099031
0.422065 0.224338 0.088930
0.508659 0.240482 0.076997
0.590936 0.258122 0.062013
0.666316 0.275273 0.043458
0.733303 0.290654 0.025757
0.793942 0.303990 0.011414
0.850340 0.316289 0.003510
0.900877 0.328557 0.003632
0.945769 0.341558 0.039612
0.984497 0.358068 0.106447
1.000000 0.382605 0.174929
0.139223 0.246464 0.136904
0.167819 0.247776 0.135622
0.211490 0.249516 0.133089
0.268193 0.252354 0.126650
0.343816 0.263676 0.118135
0.431952 0.278325 0.105226
0.515801 0.290501 0.090181
0.595636 0.304265 0.075776
0.668788 0.317327 0.061341
0.734615 0.328313 0.047669
0.794614 0.337835 0.037110
0.850523 0.346899 0.032166
0.900450 0.356695 0.036744
0.944701 0.368139 0.052796
0.983246 0.382452 0.100649
1.000000 0.404334 0.174166
0.157107 0.316625 0.162112
0.187655 0.317296 0.160830
0.232792 0.318853 0.158328
0.291173 0.321141 0.152651
0.357427 0.324224 0.143282
0.440314 0.337194 0.132082
0.525658 0.350134 0.116548
0.601923 0.358526 0.100282
0.671656 0.365484 0.085420
0.735866 0.372229 0.077119
0.795315 0.377935 0.071992
0.850523 0.383795 0.071809
0.899718 0.390784 0.078401
0.943328 0.399939 0.092897
0.981415 0.412329 0.116304
1.000000 0.431037 0.173678
0.183536 0.391852 0.196353
0.212589 0.392432 0.195254
0.257237 0.393469 0.192691
0.314885 0.395148 0.188357
0.380133 0.397162 0.179568
0.450172 0.399969 0.167453
0.531762 0.411627 0.155520
0.609491 0.419409 0.140414
0.676509 0.421088 0.126558
0.737362 0.421180 0.114595
0.795834 0.422889 0.110597
0.849943 0.425879 0.112795
0.898314 0.430243 0.120668
0.941161 0.437232 0.135073
0.978485 0.447700 0.157382
1.000000 0.463325 0.188846
0.220188 0.465827 0.240818
0.245823 0.466224 0.239567
0.285954 0.466896 0.237644
0.339910 0.467994 0.234134
0.401129 0.469245 0.226841
0.467140 0.470924 0.216251
0.536217 0.472938 0.202182
0.611780 0.479896 0.192874
0.680751 0.480842 0.180026
0.740414 0.476967 0.169192
0.796841 0.473732 0.160616
0.848631 0.472053 0.157351
0.895995 0.474037 0.165957
0.937865 0.478950 0.180331
0.974212 0.487861 0.201785
1.000000 0.502251 0.232609
0.265568 0.533867 0.292424
0.285618 0.534112 0.291600
0.318883 0.534508 0.290074
0.365362 0.535149 0.287297
0.420203 0.536095 0.282506
0.480201 0.536797 0.273259
0.544457 0.537621 0.261509
0.612085 0.538720 0.248173
0.679744 0.539330 0.240970
0.742641 0.535912 0.230594
0.797604 0.529717 0.222324
0.847349 0.524865 0.217563
0.892485 0.522148 0.216953
0.933104 0.524498 0.228580
0.968383 0.531975 0.249943
0.997681 0.545434 0.280278
0.314946 0.596124 0.349706
0.330022 0.596338 0.349035
0.356176 0.596643 0.347845
0.393896 0.597253 0.345800
0.441230 0.598077 0.342779
0.494118 0.598688 0.335912
0.552331 0.599145 0.326116
0.615198 0.599664 0.314092
0.681392 0.599908 0.303105
0.742458 0.595575 0.296666
0.796017 0.588037 0.288579
0.844053 0.581109 0.283635
0.887510 0.576654 0.282750
0.926452 0.575525 0.287175
0.960571 0.579492 0.300572
0.988464 0.592065 0.330755
0.366735 0.656489 0.410163
0.378210 0.656611 0.409674
0.398047 0.656947 0.408759
0.428504 0.657435 0.407202
0.467903 0.658076 0.404883
0.514031 0.658686 0.400641
0.565240 0.658869 0.392798
0.622004 0.658869 0.382971
0.683192 0.658595 0.371160
0.744228 0.656550 0.363348
0.794461 0.647913 0.357855
0.838590 0.638300 0.351537
0.879973 0.632502 0.350195
0.917235 0.630243 0.354101
0.949798 0.632624 0.365057
0.977020 0.641016 0.385412
0.424842 0.710353 0.472541
0.433478 0.710384 0.472145
0.448615 0.710567 0.471504
0.472358 0.710780 0.470344
0.504051 0.711086 0.468696
0.543145 0.711421 0.466468
0.586542 0.711238 0.460609
0.635340 0.710842 0.452766
0.688228 0.710231 0.443366
0.743801 0.709438 0.431983
0.795132 0.705653 0.427680
0.835782 0.695979 0.422675
0.871641 0.686641 0.418189
0.906157 0.683101 0.420966
0.936889 0.684871 0.431586
0.962493 0.692287 0.451270
0.490455 0.755673 0.535271
0.496742 0.755734 0.534997
0.508293 0.755764 0.534539
0.526543 0.755795 0.533745
0.551629 0.755825 0.532586
0.582971 0.755856 0.531060
0.618952 0.755734 0.527825
0.658320 0.755215 0.521660
0.701595 0.754574 0.514183
0.747616 0.753811 0.505425
0.794980 0.753079 0.495277
0.835569 0.748714 0.494301
0.867765 0.740078 0.490120
0.896178 0.732509 0.488136
0.923613 0.732113 0.496162
0.947631 0.738552 0.515221
0.564446 0.793362 0.600031
0.569085 0.793332 0.599878
0.577356 0.793301 0.599542
0.590845 0.793271 0.599054
0.609461 0.793210 0.598291
0.633021 0.793118 0.597284
0.660975 0.793027 0.596002
0.691066 0.792630 0.591455
0.724361 0.792142 0.585687
0.760311 0.791623 0.578851
0.798032 0.791165 0.570916
0.836271 0.790799 0.561944
0.866423 0.786831 0.564508
0.891142 0.780453 0.562158
0.912902 0.775570 0.563378
0.933532 0.778134 0.577935
0.638087 0.824552 0.663386
0.641321 0.824521 0.663294
0.647272 0.824491 0.663172
0.656764 0.824430 0.662867
0.670039 0.824369 0.662470
0.687037 0.824247 0.661982
0.707424 0.824155 0.661311
0.730068 0.824002 0.659510
0.754543 0.823758 0.655695
0.781308 0.823514 0.651331
0.809628 0.823392 0.646204
0.838651 0.823423 0.640436
0.867674 0.823728 0.633906
0.889006 0.820798 0.639368
0.907530 0.817136 0.641047
0.923522 0.814694 0.646265
0.708309 0.851438 0.724147
0.710475 0.851469 0.724147
0.714534 0.851438 0.724117
0.721035 0.851438 0.724117
0.730220 0.851438 0.724117
0.741970 0.851469 0.724086
0.756191 0.851499 0.724086
0.772580 0.851560 0.724086
0.789792 0.851743 0.722408
0.808621 0.851987 0.720363
0.828641 0.852415 0.718135
0.849607 0.853025 0.715785
0.871000 0.853941 0.713313
0.892668 0.855131 0.710933
0.906828 0.853300 0.720699
0.919188 0.851865 0.728908
0.054810 0.094636 0.125185
0.106752 0.096559 0.125582
0.167605 0.097566 0.122866
0.247684 0.103792 0.122255
0.329778 0.113161 0.117006
0.414527 0.133486 0.114260
0.502251 0.158145 0.111330
0.586847 0.184695 0.105074
0.664363 0.209842 0.093599
0.732601 0.233738 0.082185
0.793698 0.254734 0.071870
0.850065 0.273533 0.064088
0.900755 0.291234 0.061799
0.945617 0.309575 0.067109
0.984863 0.329534 0.111452
1.000000 0.356664 0.174960
0.072511 0.120516 0.129427
0.117403 0.123934 0.131014
0.174685 0.125948 0.129488
0.249393 0.132662 0.128603
0.328527 0.142702 0.125368
0.414801 0.158511 0.122255
0.503471 0.178073 0.116854
0.588128 0.199893 0.107424
0.665034 0.223362 0.095918
0.732937 0.245182 0.085084
0.793851 0.264652 0.075319
0.850095 0.282139 0.068299
0.900633 0.298955 0.066621
0.945434 0.316472 0.072786
0.984619 0.335760 0.110201
1.000000 0.362127 0.174624
0.090608 0.154421 0.136904
0.130220 0.157961 0.137911
0.184024 0.163760 0.139498
0.252537 0.169406 0.137362
0.331518 0.178073 0.134188
0.418585 0.190433 0.128756
0.506767 0.206912 0.120882
0.590295 0.226017 0.111421
0.666377 0.246281 0.100526
0.733639 0.265110 0.090669
0.794064 0.282139 0.082002
0.850217 0.297398 0.076265
0.900542 0.312505 0.076143
0.945098 0.328771 0.083375
0.984161 0.347051 0.107729
1.000000 0.371984 0.174197
0.119417 0.197238 0.150057
0.151522 0.201938 0.152560
0.197818 0.208865 0.154147
0.258610 0.213230 0.149203
0.339452 0.221988 0.142641
0.425422 0.233341 0.136263
0.512016 0.247593 0.128267
0.593774 0.263706 0.118807
0.668208 0.280064 0.108888
0.734463 0.295018 0.100038
0.794461 0.308263 0.093446
0.850248 0.320897 0.089570
0.900206 0.333715 0.090852
0.944488 0.347845 0.098848
0.983246 0.364660 0.115724
1.000000 0.387549 0.173495
0.142336 0.256748 0.174685
0.169192 0.260716 0.174685
0.214176 0.265751 0.173556
0.273350 0.268254 0.168490
0.347967 0.276036 0.161013
0.434455 0.287114 0.150942
0.518486 0.297765 0.139803
0.597925 0.310399 0.130739
0.670466 0.322423 0.122011
0.735439 0.332982 0.115114
0.794949 0.342473 0.109926
0.850187 0.351843 0.108217
0.899596 0.361913 0.111208
0.943420 0.373846 0.120974
0.981750 0.388739 0.138094
1.000000 0.408606 0.173129
0.157717 0.326818 0.202243
0.185977 0.330266 0.201511
0.233158 0.333257 0.199588
0.294316 0.335180 0.195407
0.362219 0.337987 0.187015
0.443183 0.347662 0.177066
0.527092 0.357763 0.164340
0.603143 0.364630 0.151369
0.672816 0.371099 0.141726
0.736385 0.377264 0.136263
0.795315 0.382910 0.133303
0.849851 0.389014 0.133516
0.898589 0.396277 0.138186
0.941802 0.405829 0.148562
0.979492 0.418738 0.166201
1.000000 0.436316 0.192966
0.182803 0.401770 0.236637
0.211612 0.404395 0.235966
0.257420 0.405249 0.233890
0.316991 0.406775 0.230472
0.382818 0.408759 0.222873
0.453498 0.411017 0.211704
0.533227 0.420111 0.201328
0.609644 0.425849 0.188205
0.676387 0.426612 0.175998
0.736904 0.426062 0.165286
0.795346 0.428168 0.163668
0.848966 0.431220 0.165042
0.896880 0.435828 0.170748
0.939300 0.443091 0.182071
0.976287 0.454108 0.199985
1.000000 0.470222 0.226871
0.221897 0.475044 0.278752
0.247318 0.475441 0.277836
0.287175 0.476051 0.276005
0.341131 0.477058 0.273075
0.402808 0.478462 0.267460
0.468635 0.479866 0.257542
0.537835 0.481514 0.244724
0.611780 0.486610 0.235752
0.679774 0.486397 0.223758
0.739406 0.482155 0.213169
0.795621 0.478706 0.204410
0.847227 0.477302 0.202029
0.894163 0.479591 0.208743
0.935698 0.484840 0.220554
0.971801 0.494087 0.238895
1.000000 0.508873 0.265721
0.270420 0.540856 0.326543
0.289982 0.541009 0.325811
0.322454 0.541375 0.324346
0.367926 0.541985 0.321996
0.422370 0.542962 0.318334
0.481300 0.543633 0.309911
0.544823 0.544335 0.299168
0.611872 0.545129 0.286137
0.678889 0.544976 0.279057
0.741085 0.540948 0.268528
0.795682 0.534844 0.259861
0.845274 0.529778 0.254276
0.890227 0.527092 0.252415
0.930663 0.530144 0.263096
0.965667 0.537987 0.281926
0.994751 0.551751 0.308904
0.322606 0.601190 0.378820
0.336858 0.601312 0.378210
0.361639 0.601648 0.377020
0.398352 0.602258 0.375158
0.444282 0.603113 0.372351
0.496193 0.603815 0.366796
0.553063 0.604303 0.357641
0.614923 0.604761 0.346685
0.680415 0.604883 0.335546
0.740719 0.600366 0.328985
0.793759 0.592676 0.320256
0.841581 0.585840 0.314366
0.884886 0.581476 0.312352
0.923735 0.580407 0.315312
0.957702 0.585016 0.327947
0.985473 0.597833 0.354986
0.374975 0.660029 0.434028
0.385809 0.660182 0.433509
0.405035 0.660426 0.432654
0.434119 0.660914 0.431220
0.472114 0.661585 0.429114
0.517296 0.662318 0.425940
0.567010 0.662470 0.418494
0.622309 0.662409 0.409247
0.682338 0.662104 0.398016
0.742519 0.660243 0.389868
0.792233 0.651759 0.384039
0.835874 0.642329 0.377081
0.877226 0.636744 0.374640
0.914397 0.634668 0.377111
0.946929 0.637140 0.386511
0.974182 0.645594 0.404791
0.432624 0.712428 0.491188
0.440742 0.712520 0.490883
0.455451 0.712642 0.490211
0.478187 0.712825 0.489174
0.508934 0.713100 0.487587
0.546746 0.713466 0.485512
0.589349 0.713436 0.480598
0.636561 0.713039 0.473182
0.688228 0.712398 0.464118
0.742428 0.711666 0.453437
0.793118 0.708248 0.448371
0.833341 0.698970 0.442969
0.868956 0.689876 0.437842
0.903471 0.686641 0.439643
0.934264 0.688441 0.448737
0.959930 0.695827 0.466682
0.497017 0.756832 0.549676
0.503136 0.756832 0.549432
0.514244 0.756863 0.548913
0.531945 0.756924 0.548150
0.556146 0.756985 0.547021
0.586603 0.757015 0.545617
0.621881 0.756954 0.543084
0.659998 0.756466 0.537072
0.702052 0.755856 0.529870
0.746944 0.755184 0.521355
0.793271 0.754452 0.511559
0.833585 0.750454 0.509697
0.865537 0.742153 0.505180
0.893797 0.734890 0.502586
0.921324 0.734707 0.509697
0.945434 0.741115 0.527428
0.569360 0.793851 0.610651
0.573816 0.793820 0.610529
0.581933 0.793820 0.610224
0.594965 0.793759 0.609674
0.612940 0.793729 0.608972
0.635828 0.793668 0.607965
0.663081 0.793606 0.606683
0.692592 0.793271 0.602899
0.724971 0.792874 0.597223
0.760037 0.792355 0.590631
0.796963 0.791928 0.582971
0.834470 0.791592 0.574182
0.864591 0.787961 0.575891
0.889220 0.781857 0.573144
0.910979 0.777127 0.573816
0.931762 0.779873 0.587640
0.640497 0.824796 0.670222
0.643641 0.824796 0.670100
0.649409 0.824765 0.669947
0.658747 0.824704 0.669703
0.671717 0.824643 0.669306
0.688380 0.824552 0.668788
0.708339 0.824460 0.668177
0.730861 0.824338 0.666743
0.754818 0.824125 0.663020
0.781064 0.823911 0.658717
0.808927 0.823819 0.653742
0.837552 0.823850 0.648035
0.866209 0.824155 0.641688
0.887663 0.821469 0.646540
0.906218 0.817929 0.647761
0.922271 0.815518 0.652461
0.708919 0.851621 0.728115
0.711147 0.851591 0.728145
0.715114 0.851621 0.728115
0.721584 0.851591 0.728084
0.730617 0.851591 0.728054
0.742245 0.851621 0.728054
0.756344 0.851652 0.728023
0.772519 0.851774 0.727993
0.789670 0.851926 0.726589
0.808255 0.852201 0.724575
0.828092 0.852628 0.722316
0.848844 0.853269 0.719905
0.870146 0.854154 0.717494
0.891661 0.855375 0.715145
0.906065 0.853666 0.724239
0.918517 0.852293 0.732113
0.030091 0.119936 0.175418
0.085328 0.119112 0.177157
0.153811 0.118990 0.176913
0.230076 0.122438 0.173922
0.325078 0.129244 0.177707
0.421668 0.135348 0.172305
0.512322 0.153719 0.165347
0.594415 0.182071 0.160861
0.669154 0.211978 0.157290
0.735103 0.239811 0.155459
0.794705 0.262699 0.151827
0.850004 0.282231 0.148928
0.899626 0.300969 0.149081
0.943786 0.320104 0.153811
0.982513 0.341222 0.164858
1.000000 0.365667 0.184054
0.062165 0.145205 0.181125
0.103883 0.145663 0.182834
0.164248 0.146517 0.184390
0.237095 0.148714 0.181186
0.327855 0.155062 0.183200
0.424140 0.161044 0.177890
0.512200 0.178988 0.172030
0.594415 0.202823 0.167300
0.669001 0.228977 0.163485
0.735042 0.252903 0.159823
0.794675 0.272709 0.154696
0.849973 0.291051 0.152132
0.899535 0.308659 0.152468
0.943511 0.327031 0.157626
0.982147 0.347417 0.168765
1.000000 0.371283 0.188449
0.079194 0.176272 0.189303
0.121218 0.179019 0.191043
0.176791 0.182559 0.193423
0.246799 0.184970 0.191958
0.334813 0.191470 0.191867
0.425452 0.200565 0.187503
0.512963 0.215518 0.182406
0.594965 0.234928 0.177676
0.669398 0.254429 0.171145
0.735348 0.273320 0.164981
0.794736 0.290532 0.160464
0.849821 0.306554 0.158328
0.899138 0.322484 0.159152
0.943023 0.339361 0.164614
0.981476 0.358618 0.176303
1.000000 0.381537 0.196048
0.095888 0.217685 0.201328
0.134127 0.220310 0.202670
0.188418 0.225254 0.204654
0.259678 0.233433 0.207675
0.342443 0.239048 0.204074
0.430060 0.247837 0.199283
0.516625 0.259434 0.193210
0.597589 0.273930 0.186221
0.670680 0.289067 0.179629
0.735775 0.303807 0.173922
0.794797 0.317327 0.170199
0.849607 0.330266 0.168521
0.898619 0.343694 0.170169
0.942168 0.358618 0.176425
0.980316 0.376226 0.188510
1.000000 0.397742 0.208713
0.122164 0.268803 0.219455
0.156008 0.273106 0.221866
0.207614 0.280308 0.225589
0.275669 0.290013 0.228763
0.350561 0.294408 0.222049
0.437415 0.301518 0.213138
0.521843 0.310552 0.206088
0.600763 0.321447 0.199039
0.672236 0.332250 0.192721
0.736172 0.342321 0.187869
0.794766 0.351904 0.184726
0.849088 0.361456 0.183566
0.897673 0.372015 0.186221
0.940826 0.384558 0.193149
0.978576 0.400092 0.205997
1.000000 0.420081 0.226841
0.147127 0.338293 0.252079
0.179477 0.342016 0.253758
0.228702 0.348089 0.255528
0.294682 0.354925 0.255772
0.365667 0.357305 0.249119
0.445533 0.363531 0.240238
0.528466 0.370275 0.228733
0.604150 0.374945 0.217227
0.673579 0.381353 0.211490
0.736355 0.386999 0.207248
0.794553 0.392493 0.204623
0.848203 0.398779 0.204440
0.896178 0.406470 0.207675
0.938811 0.416480 0.215366
0.976013 0.429969 0.228733
1.000000 0.448310 0.250370
0.178531 0.412024 0.288640
0.207736 0.414557 0.289006
0.254765 0.419348 0.289891
0.316930 0.423438 0.289006
0.384833 0.425330 0.283879
0.455879 0.427283 0.274052
0.533989 0.433478 0.264347
0.609186 0.436500 0.251926
0.675410 0.436164 0.240665
0.735988 0.435767 0.232303
0.793912 0.437751 0.230259
0.846769 0.440864 0.230594
0.893980 0.445838 0.234562
