luts/Quayside ● 16.cube
# Created by Adobe Lightroom plugin Export LUT (1.16.0)
# www.johnrellis.com/lightroom/exportlut.htm
# Preset: Quayside ●
# Color profile: C:\Program Files (x86)\Common Files\Adobe\Color\Profiles\Recommended\sRGB Color Space Profile.icm
LUT_3D_SIZE 16
DOMAIN_MIN 0.0 0.0 0.0
DOMAIN_MAX 1.0 1.0 1.0
0.011109 0.007111 0.006043
0.098909 0.008087 0.003662
0.192721 0.008362 0.000000
0.277317 0.011444 0.000000
0.348791 0.020722 0.000000
0.411475 0.039155 0.000000
0.470192 0.062989 0.000000
0.527916 0.088289 0.000000
0.586969 0.114778 0.000000
0.648096 0.140230 0.000000
0.708736 0.164187 0.000000
0.766506 0.185519 0.000000
0.823270 0.204288 0.000000
0.878813 0.220493 0.000000
0.933043 0.234440 0.000000
0.985809 0.245945 0.000000
0.023194 0.059388 0.013031
0.109377 0.059754 0.006256
0.196292 0.062409 0.000000
0.277562 0.065705 0.000000
0.347997 0.072053 0.000000
0.410285 0.082704 0.000000
0.469001 0.097749 0.000000
0.526665 0.117189 0.000000
0.585962 0.137911 0.000000
0.647181 0.159457 0.000000
0.707942 0.180636 0.000000
0.765957 0.199435 0.000000
0.822934 0.216312 0.000000
0.878599 0.231022 0.000000
0.932891 0.243809 0.000000
0.985748 0.254490 0.000000
0.045899 0.112184 0.022187
0.118807 0.112245 0.017060
0.196963 0.115358 0.005768
0.278172 0.119661 0.000000
0.346807 0.123232 0.000000
0.408362 0.130739 0.000000
0.466835 0.142428 0.000000
0.524651 0.156466 0.000000
0.584314 0.172305 0.000000
0.645869 0.189548 0.000000
0.706752 0.206760 0.000000
0.765103 0.222324 0.000000
0.822324 0.236576 0.000000
0.878202 0.249149 0.000000
0.932738 0.259983 0.000000
0.985718 0.269078 0.000000
0.076051 0.167086 0.032624
0.134493 0.167300 0.027405
0.199680 0.167636 0.019440
0.274510 0.172213 0.003815
0.345525 0.176272 0.000000
0.406775 0.180087 0.000000
0.465217 0.186954 0.000000
0.523339 0.197238 0.000000
0.583154 0.210452 0.000000
0.644648 0.225650 0.000000
0.705196 0.241276 0.000000
0.763882 0.254459 0.000000
0.821561 0.265629 0.000000
0.877745 0.275517 0.000000
0.932555 0.284031 0.000000
0.985718 0.291051 0.000000
0.107851 0.223819 0.048402
0.152804 0.223880 0.043854
0.209567 0.224216 0.035279
0.273838 0.225010 0.022156
0.341131 0.229068 0.001801
0.405402 0.232731 0.000000
0.463905 0.236210 0.000000
0.522362 0.242832 0.000000
0.582696 0.252201 0.000000
0.644465 0.263859 0.000000
0.704860 0.275883 0.000000
0.763546 0.287816 0.000000
0.820951 0.299596 0.000000
0.877287 0.308141 0.000000
0.932403 0.314244 0.000000
0.985809 0.319188 0.000000
0.136721 0.279332 0.067750
0.171542 0.279393 0.063966
0.219913 0.279637 0.056153
0.277287 0.280339 0.044923
0.337713 0.281804 0.026246
0.400519 0.285039 0.000000
0.462501 0.288884 0.000000
0.521569 0.292638 0.000000
0.582330 0.298955 0.000000
0.644465 0.307073 0.000000
0.704829 0.315435 0.000000
0.763851 0.324285 0.000000
0.821439 0.333135 0.000000
0.877562 0.341955 0.000000
0.932403 0.349187 0.000000
0.986084 0.352148 0.000000
0.161532 0.332860 0.088563
0.188876 0.333013 0.085359
0.229129 0.333349 0.079408
0.280674 0.333898 0.069612
0.337133 0.335149 0.055573
0.395727 0.336919 0.032868
0.457191 0.340398 0.000000
0.520745 0.345068 0.000000
0.582147 0.348943 0.000000
0.644373 0.354162 0.000000
0.704921 0.359442 0.000000
0.764340 0.365087 0.000000
0.822263 0.370947 0.000000
0.878599 0.377050 0.000000
0.933349 0.383459 0.000000
0.986725 0.388556 0.000000
0.180911 0.385290 0.110689
0.203098 0.385504 0.107912
0.238102 0.385901 0.102724
0.284611 0.386419 0.094453
0.337407 0.387488 0.083375
0.393896 0.388952 0.067018
0.452552 0.391028 0.040192
0.515923 0.395331 0.000000
0.581994 0.400549 0.000000
0.644190 0.403265 0.000000
0.705226 0.406195 0.000000
0.765011 0.409369 0.000000
0.823209 0.412543 0.000000
0.879850 0.415991 0.000000
0.934874 0.419837 0.000000
0.988128 0.423987 0.000000
0.194369 0.437385 0.132113
0.213657 0.437568 0.130007
0.245212 0.437903 0.125795
0.288243 0.438483 0.118837
0.338903 0.439338 0.109133
0.393683 0.440650 0.096254
0.451575 0.442420 0.077058
0.511772 0.444221 0.047608
0.577905 0.449134 0.000000
0.644495 0.453407 0.000000
0.705989 0.454505 0.000000
0.765896 0.455726 0.000000
0.824247 0.457099 0.000000
0.881102 0.458442 0.000000
0.936370 0.459968 0.000000
0.989960 0.461738 0.000000
0.201541 0.491615 0.152407
0.220218 0.491768 0.150454
0.249851 0.492134 0.146822
0.291752 0.492744 0.140871
0.341497 0.493660 0.131746
0.396185 0.494942 0.120851
0.454627 0.496529 0.105409
0.515801 0.498512 0.083680
0.578943 0.500755 0.047486
0.644465 0.503471 0.000000
0.707057 0.503990 0.000000
0.766934 0.503685 0.000000
0.825437 0.503410 0.000000
0.882353 0.503380 0.000000
0.937774 0.503380 0.000000
0.991699 0.503105 0.000000
0.203006 0.550713 0.171603
0.221317 0.550896 0.169741
0.251713 0.551202 0.166812
0.293767 0.551720 0.161288
0.344793 0.552453 0.153079
0.400946 0.553338 0.142885
0.460517 0.554467 0.129671
0.522637 0.555840 0.111666
0.586481 0.557366 0.086305
0.650019 0.557824 0.044526
0.711238 0.556146 0.000000
0.768704 0.552911 0.000000
0.826719 0.551232 0.000000
0.883665 0.550042 0.000000
0.939147 0.548943 0.000000
0.993194 0.547601 0.000000
0.203006 0.610712 0.192660
0.221775 0.610803 0.191165
0.252659 0.611017 0.188357
0.296178 0.611292 0.183566
0.348089 0.611688 0.176181
0.405676 0.612207 0.166232
0.466163 0.612848 0.154788
0.528985 0.613611 0.139498
0.593286 0.614496 0.118959
0.658503 0.615564 0.089876
0.720211 0.613367 0.043702
0.776852 0.607782 0.000000
0.829587 0.601282 0.000000
0.885008 0.598199 0.000000
0.940490 0.596246 0.000000
0.994476 0.594171 0.000000
0.208255 0.670253 0.217838
0.226688 0.670314 0.216526
0.257969 0.670405 0.213870
0.301122 0.670588 0.209415
0.353094 0.670771 0.203006
0.410834 0.671015 0.194064
0.471901 0.671382 0.182986
0.534905 0.671778 0.169711
0.599481 0.672267 0.152377
0.664912 0.672816 0.129122
0.730770 0.673487 0.096162
0.789334 0.668177 0.048493
0.841428 0.659236 0.000000
0.889555 0.649714 0.000000
0.941741 0.644984 0.000000
0.995666 0.642298 0.000000
0.225589 0.729976 0.249485
0.243076 0.730007 0.248173
0.271946 0.730068 0.245762
0.313207 0.730159 0.241733
0.363409 0.730251 0.235752
0.419776 0.730404 0.227878
0.480323 0.730556 0.217227
0.542748 0.730739 0.205386
0.606897 0.730983 0.190311
0.672114 0.731289 0.170901
0.737789 0.731655 0.145449
0.803433 0.732113 0.109041
0.857389 0.723079 0.064912
0.904875 0.710994 0.000000
0.948302 0.698604 0.000000
0.996643 0.691585 0.000000
0.266300 0.790158 0.291783
0.280644 0.790188 0.290684
0.305486 0.790219 0.288457
0.341619 0.790280 0.284825
0.386938 0.790372 0.279637
0.439185 0.790463 0.272496
0.496345 0.790585 0.263096
0.556512 0.790707 0.251896
0.618738 0.790860 0.238926
0.682338 0.791043 0.222538
0.746853 0.791257 0.201663
0.811673 0.791531 0.174685
0.876432 0.791928 0.136934
0.924529 0.778775 0.099947
0.967224 0.763638 0.039887
1.000000 0.747951 0.000000
0.345312 0.851804 0.355901
0.355535 0.851865 0.354925
0.373846 0.851926 0.353063
0.401740 0.852079 0.349981
0.438422 0.852262 0.345403
0.482399 0.852506 0.339269
0.532219 0.852781 0.331182
0.586542 0.853086 0.320958
0.643641 0.853513 0.309972
0.703059 0.853971 0.296544
0.764248 0.854551 0.279667
0.826505 0.855192 0.258488
0.889372 0.856016 0.231418
0.952392 0.856718 0.195193
0.993317 0.838560 0.165042
1.000000 0.818753 0.120180
0.000000 0.022919 0.057313
0.092897 0.024018 0.053498
0.189792 0.014221 0.041047
0.272770 0.022675 0.025879
0.341650 0.048463 0.015351
0.404852 0.069032 0.000000
0.464179 0.090883 0.000000
0.522423 0.113619 0.000000
0.581994 0.137301 0.000000
0.643427 0.161196 0.000000
0.704799 0.183352 0.000000
0.763455 0.201328 0.000000
0.820981 0.217258 0.000000
0.877104 0.231052 0.000000
0.931853 0.242802 0.000000
0.985016 0.252628 0.000000
0.002716 0.071656 0.062104
0.102419 0.071473 0.058839
0.189548 0.071748 0.049226
0.270542 0.075441 0.035370
0.341527 0.084230 0.018891
0.404608 0.097108 0.000000
0.463874 0.113344 0.000000
0.522118 0.132082 0.000000
0.581811 0.152529 0.000000
0.643427 0.173922 0.000000
0.704494 0.195560 0.000000
0.763088 0.213443 0.000000
0.820737 0.228061 0.000000
0.876951 0.240696 0.000000
0.931792 0.251560 0.000000
0.985046 0.260502 0.000000
0.048707 0.121004 0.068116
0.117128 0.122713 0.064790
0.193790 0.123415 0.056336
0.272435 0.125124 0.042359
0.341680 0.128817 0.024598
0.404303 0.135805 0.003723
0.463508 0.146639 0.000000
0.521843 0.160708 0.000000
0.581720 0.177249 0.000000
0.643305 0.195712 0.000000
0.704311 0.214389 0.000000
0.762814 0.231937 0.000000
0.820371 0.246403 0.000000
0.876768 0.257420 0.000000
0.931731 0.266728 0.000000
0.985077 0.274449 0.000000
0.077821 0.175509 0.076020
0.134554 0.175784 0.073335
0.200168 0.175937 0.066041
0.272801 0.178012 0.053468
0.341924 0.180362 0.034058
0.403815 0.183505 0.011170
0.462928 0.189731 0.000000
0.521416 0.199283 0.000000
0.581659 0.211795 0.000000
0.643397 0.226505 0.000000
0.704219 0.241642 0.000000
0.762814 0.256474 0.000000
0.820157 0.270970 0.000000
0.876463 0.282231 0.000000
0.931640 0.289647 0.000000
0.985138 0.295567 0.000000
0.103975 0.230503 0.083955
0.153414 0.230259 0.083680
0.210086 0.230381 0.077333
0.273808 0.231052 0.067689
0.339635 0.233371 0.050660
0.403082 0.235935 0.024262
0.461952 0.239017 0.000000
0.520928 0.244877 0.000000
0.581537 0.253666 0.000000
0.643610 0.264530 0.000000
0.704189 0.276127 0.000000
0.763027 0.287633 0.000000
0.820523 0.299351 0.000000
0.876646 0.310613 0.000000
0.931609 0.318791 0.000000
0.985321 0.322881 0.000000
0.140017 0.283787 0.099947
0.172519 0.283970 0.097292
0.220127 0.284092 0.091493
0.276921 0.284794 0.082795
0.337224 0.286076 0.069856
0.399268 0.288579 0.047242
0.460853 0.291539 0.013458
0.520165 0.294987 0.000000
0.581262 0.300725 0.000000
0.643610 0.308293 0.000000
0.704219 0.316197 0.000000
0.763455 0.324559 0.000000
0.821164 0.333074 0.000000
0.877379 0.341619 0.000000
0.932189 0.349981 0.000000
0.985748 0.354925 0.000000
0.163333 0.336370 0.115785
0.189822 0.336492 0.113344
0.229496 0.336858 0.108125
0.280339 0.337469 0.100038
0.336492 0.338537 0.089265
0.395148 0.340337 0.073426
0.456397 0.343236 0.044770
0.519402 0.347387 0.000977
0.581140 0.350805 0.000000
0.643488 0.355779 0.000000
0.704280 0.360601 0.000000
0.763912 0.365789 0.000000
0.821988 0.371313 0.000000
0.878508 0.376989 0.000000
0.933379 0.383001 0.000000
0.986664 0.389044 0.000000
0.180941 0.388220 0.133394
0.203189 0.388373 0.131106
0.237522 0.388708 0.126711
0.283970 0.389349 0.119326
0.336706 0.390295 0.110048
0.393164 0.391791 0.096712
0.452033 0.393713 0.077821
0.515129 0.397589 0.041413
0.580987 0.402350 0.000000
0.643336 0.404852 0.000000
0.704616 0.407568 0.000000
0.764492 0.410498 0.000000
0.822843 0.413367 0.000000
0.879637 0.416388 0.000000
0.934813 0.419806 0.000000
0.988251 0.423590 0.000000
0.193271 0.439796 0.151278
0.212619 0.440009 0.149477
0.244175 0.440345 0.145663
0.287205 0.440925 0.139345
0.337896 0.441810 0.130404
0.393011 0.443061 0.119356
0.451179 0.444709 0.104097
0.511345 0.446387 0.082216
0.577417 0.451057 0.036988
0.643824 0.454932 0.000000
0.705257 0.455909 0.000000
0.765316 0.456947 0.000000
0.823789 0.458106 0.000000
0.880735 0.459297 0.000000
0.936187 0.460517 0.000000
0.989960 0.461860 0.000000
0.199344 0.493782 0.168856
0.217655 0.493935 0.167086
0.248112 0.494301 0.164004
0.290043 0.494942 0.158358
0.340154 0.495796 0.150210
0.395209 0.497047 0.140291
0.453895 0.498604 0.126986
0.515465 0.500511 0.108827
0.578637 0.502617 0.081880
0.643977 0.504997 0.029633
0.706416 0.505303 0.000000
0.766445 0.504784 0.000000
0.824949 0.504479 0.000000
0.881956 0.504356 0.000000
0.937560 0.504112 0.000000
0.991577 0.503655 0.000000
0.199008 0.552575 0.186343
0.217838 0.552728 0.184726
0.248600 0.553063 0.181643
0.291356 0.553552 0.176638
0.342748 0.554223 0.169406
0.399542 0.555047 0.159396
0.459571 0.556146 0.147738
0.521874 0.557458 0.132021
0.585931 0.558892 0.110750
0.649592 0.559289 0.078981
0.710750 0.557427 0.024079
0.768154 0.553948 0.000000
0.826291 0.552270 0.000000
0.883299 0.550958 0.000000
0.938872 0.549767 0.000000
0.992981 0.548363 0.000000
0.198215 0.612116 0.205905
0.217899 0.612207 0.204471
0.249424 0.612390 0.201633
0.293248 0.612665 0.197116
0.345586 0.613062 0.190402
0.403815 0.613519 0.180941
0.464759 0.614130 0.170291
0.527886 0.614862 0.156313
0.592370 0.615717 0.138125
0.657832 0.616663 0.113283
0.719692 0.614466 0.078431
0.776333 0.608728 0.020722
0.829099 0.602075 0.000000
0.884611 0.599054 0.000000
0.940154 0.597101 0.000000
0.994263 0.594934 0.000000
0.203494 0.671229 0.229587
0.222721 0.671321 0.228153
0.254246 0.671412 0.225650
0.297978 0.671534 0.221500
0.350500 0.671748 0.215366
0.408576 0.671992 0.206912
0.470344 0.672267 0.196323
0.533593 0.672663 0.183810
0.598322 0.673121 0.167788
0.663935 0.673671 0.146883
0.729915 0.674311 0.118196
0.788663 0.669032 0.081086
0.840909 0.659968 0.022065
0.889036 0.650446 0.000000
0.941375 0.645747 0.000000
0.995392 0.643030 0.000000
0.222019 0.730617 0.259739
0.239811 0.730678 0.258396
0.268833 0.730739 0.256107
0.310826 0.730770 0.252293
0.361151 0.730922 0.246647
0.417731 0.731044 0.238804
0.478553 0.731167 0.228672
0.541253 0.731380 0.217227
0.605554 0.731624 0.203006
0.670893 0.731899 0.184848
0.736721 0.732235 0.161288
0.802518 0.732631 0.129061
0.856748 0.723781 0.092470
0.904295 0.711635 0.036774
0.947845 0.699184 0.000000
0.996338 0.692317 0.000000
0.264469 0.790524 0.300664
0.279026 0.790524 0.299535
0.303532 0.790585 0.297490
0.340002 0.790646 0.293919
0.385382 0.790738 0.288731
0.437629 0.790860 0.281804
0.494850 0.790951 0.272648
0.555169 0.791073 0.261753
0.617426 0.791226 0.249180
0.681117 0.791409 0.233555
0.745693 0.791623 0.213596
0.810605 0.791897 0.188113
0.875456 0.792294 0.153536
0.923857 0.779324 0.120729
0.966674 0.764187 0.074006
1.000000 0.748531 0.000000
0.344793 0.851957 0.363348
0.355169 0.851987 0.362402
0.373266 0.852110 0.360510
0.401160 0.852232 0.357519
0.437720 0.852415 0.353033
0.481636 0.852659 0.347051
0.531273 0.852964 0.339055
0.585565 0.853300 0.329015
0.642603 0.853696 0.318212
0.702083 0.854185 0.304875
0.763180 0.854734 0.288487
0.825437 0.855436 0.267979
0.888365 0.856260 0.241855
0.951751 0.857237 0.207095
0.992706 0.839078 0.178683
1.000000 0.819242 0.137758
0.000000 0.049653 0.109163
0.075624 0.047425 0.107210
0.171664 0.043183 0.102449
0.268620 0.027863 0.091768
0.341863 0.036469 0.072633
0.403326 0.067414 0.058045
0.461372 0.094697 0.040955
0.519341 0.118654 0.015473
0.579736 0.139590 0.000000
0.641596 0.161776 0.000000
0.703151 0.184054 0.000000
0.761685 0.205234 0.000000
0.819120 0.225132 0.000000
0.875090 0.243320 0.000000
0.930297 0.254582 0.000000
0.984070 0.261936 0.000000
0.000000 0.089509 0.112367
0.089631 0.088106 0.110872
0.178531 0.087739 0.106874
0.266178 0.082368 0.095369
0.337743 0.090455 0.081971
0.400732 0.104555 0.068238
0.460304 0.120027 0.048249
0.519371 0.136141 0.017212
0.579736 0.154604 0.000000
0.641749 0.174655 0.000000
0.703120 0.195224 0.000000
0.761746 0.214755 0.000000
0.819181 0.233188 0.000000
0.875242 0.250584 0.000000
0.930297 0.262669 0.000000
0.984100 0.269352 0.000000
0.026398 0.135470 0.117525
0.108431 0.135653 0.115877
0.186923 0.136507 0.112795
0.265415 0.136172 0.103151
0.336004 0.138460 0.090761
0.399817 0.144076 0.074647
0.460060 0.153017 0.052735
0.519310 0.164797 0.020630
0.579889 0.179568 0.000000
0.641901 0.196262 0.000000
0.703182 0.213901 0.000000
0.761898 0.231174 0.000000
0.819364 0.247898 0.000000
0.875425 0.263523 0.000000
0.930358 0.276646 0.000000
0.984222 0.282353 0.000000
0.083314 0.182956 0.121736
0.134310 0.184878 0.121218
0.197055 0.187442 0.118441
0.268376 0.187961 0.110170
0.336950 0.188571 0.097261
0.399786 0.190646 0.081361
0.459846 0.195651 0.059632
0.519127 0.203891 0.027466
0.579858 0.214725 0.000000
0.642054 0.227817 0.000000
0.703182 0.241825 0.000000
0.762112 0.255894 0.000000
0.819760 0.269841 0.000000
0.875853 0.283360 0.000000
0.930602 0.296056 0.000000
0.984375 0.302403 0.000000
0.117098 0.236790 0.131228
0.151827 0.238285 0.128878
0.207919 0.239322 0.125978
0.271366 0.239902 0.118410
0.336675 0.241062 0.107240
0.399298 0.242191 0.090852
0.458991 0.244816 0.069947
0.518639 0.249668 0.038911
0.579858 0.257145 0.000000
0.642206 0.266758 0.000000
0.703151 0.277256 0.000000
0.762356 0.287938 0.000000
0.820188 0.298772 0.000000
0.876463 0.309453 0.000000
0.931273 0.319982 0.000000
0.984710 0.328435 0.000000
0.137118 0.289769 0.139254
0.166903 0.290959 0.136873
0.218784 0.291173 0.136049
0.274937 0.291814 0.128634
0.335210 0.292943 0.119387
0.396765 0.294713 0.104463
0.457893 0.296727 0.083772
0.517937 0.299565 0.055329
0.579553 0.304631 0.011749
0.642206 0.311223 0.000000
0.703120 0.318364 0.000000
0.762631 0.325780 0.000000
0.820798 0.333349 0.000000
0.877287 0.341070 0.000000
0.932250 0.348913 0.000000
0.985565 0.356725 0.000000
0.154391 0.342077 0.149264
0.189853 0.342199 0.152224
0.228000 0.342535 0.148013
0.278538 0.343267 0.141146
0.334691 0.344274 0.132540
0.393439 0.345922 0.120882
0.454383 0.348302 0.102235
0.517266 0.351537 0.075380
0.579309 0.354650 0.035523
0.641962 0.358984 0.000000
0.703090 0.363226 0.000000
0.763058 0.367803 0.000000
0.821439 0.372534 0.000000
0.878202 0.377447 0.000000
0.933379 0.382544 0.000000
0.986877 0.388006 0.000000
0.177707 0.393194 0.166445
0.201328 0.393286 0.165469
0.235691 0.393622 0.161776
0.281804 0.394263 0.155642
0.335058 0.395209 0.147341
0.391638 0.396582 0.137270
0.450874 0.398505 0.123140
0.513817 0.401678 0.099886
0.579309 0.405707 0.065461
0.641962 0.407904 0.013703
0.703395 0.410285 0.000000
0.763516 0.412787 0.000000
0.822080 0.415229 0.000000
0.879118 0.417731 0.000000
0.934630 0.420417 0.000000
0.988373 0.423255 0.000000
0.189517 0.444221 0.181338
0.209445 0.444434 0.179721
0.241154 0.444709 0.176486
0.284611 0.445258 0.170962
0.335851 0.446113 0.163119
0.391363 0.447303 0.153994
0.450019 0.448890 0.141848
0.510491 0.450385 0.125795
0.576410 0.454505 0.097383
0.642420 0.457710 0.055818
0.704128 0.458473 0.000000
0.764279 0.459327 0.000000
0.822965 0.460182 0.000000
0.880125 0.460914 0.000000
0.935790 0.461707 0.000000
0.989899 0.462379 0.000000
0.194125 0.497688 0.195987
0.212924 0.497841 0.194400
0.243626 0.498238 0.191379
0.286351 0.498848 0.186557
0.337255 0.499702 0.179355
0.393133 0.500816 0.170382
0.452522 0.502281 0.159243
0.514549 0.504143 0.144717
0.577996 0.505913 0.124697
0.643122 0.507713 0.093141
0.705287 0.507530 0.046479
0.765438 0.506981 0.000000
0.824063 0.506493 0.000000
0.881254 0.506126 0.000000
0.936980 0.505669 0.000000
0.991272 0.504845 0.000000
0.191379 0.555932 0.210819
0.210849 0.556054 0.209323
0.242863 0.556298 0.206699
0.286656 0.556817 0.202090
0.338872 0.557458 0.195529
0.396674 0.558221 0.186465
0.457404 0.559228 0.176303
0.520348 0.560388 0.163058
0.584833 0.561730 0.145785
0.648798 0.561913 0.122438
0.709834 0.559594 0.089113
0.767086 0.555840 0.038178
0.825376 0.554040 0.000000
0.882536 0.552667 0.000000
0.938262 0.551354 0.000000
0.992584 0.549767 0.000000
0.189578 0.614649 0.228183
0.209781 0.614771 0.226932
0.242741 0.614893 0.224308
0.287663 0.615167 0.220218
0.341161 0.615473 0.214023
0.400031 0.615930 0.205570
0.462043 0.616480 0.195529
0.525750 0.617121 0.183383
0.590753 0.617884 0.167788
0.656489 0.618738 0.147585
0.718746 0.616510 0.121401
0.775326 0.610498 0.086183
0.828031 0.603662 0.030426
0.883909 0.600610 0.000000
0.939574 0.598566 0.000000
0.993805 0.596307 0.000000
0.195041 0.673091 0.249790
0.215152 0.673121 0.248508
0.247562 0.673213 0.246159
0.292607 0.673335 0.242222
0.345739 0.673548 0.236454
0.404791 0.673762 0.228763
0.467018 0.674006 0.218662
0.530968 0.674342 0.207431
0.596094 0.674739 0.193210
0.662074 0.675196 0.174899
0.728328 0.675776 0.151308
0.787594 0.670619 0.122530
0.839841 0.661433 0.086397
0.888060 0.651820 0.026703
0.940764 0.647150 0.000000
0.994873 0.644404 0.000000
0.215640 0.731807 0.277592
0.233799 0.731838 0.276432
0.263859 0.731899 0.274327
0.305943 0.731991 0.270634
0.357092 0.732113 0.265202
0.414160 0.732204 0.257877
0.475196 0.732326 0.248356
0.538506 0.732509 0.237644
0.603082 0.732723 0.224369
0.668666 0.732967 0.207980
0.734737 0.733272 0.187015
0.800778 0.733639 0.159823
0.855497 0.725063 0.130282
0.903288 0.712795 0.093935
0.946899 0.700374 0.031708
0.995850 0.693599 0.000000
0.261234 0.791165 0.316411
0.275517 0.791226 0.315343
0.300511 0.791226 0.313207
0.336858 0.791318 0.309941
0.382483 0.791409 0.304967
0.434760 0.791531 0.298253
0.492073 0.791623 0.289464
0.552728 0.791745 0.278904
0.615045 0.791897 0.266941
0.678889 0.792081 0.252232
0.743557 0.792294 0.233829
0.808682 0.792569 0.210544
0.873625 0.792935 0.180179
0.922637 0.780362 0.151858
0.965637 0.765225 0.115999
1.000000 0.749569 0.056153
0.343694 0.852232 0.376562
0.353979 0.852293 0.375586
0.372076 0.852384 0.373846
0.399908 0.852537 0.370855
0.436408 0.852720 0.366613
0.480110 0.852995 0.360754
0.529656 0.853269 0.353124
0.583734 0.853635 0.343420
0.640833 0.854032 0.332769
0.700191 0.854551 0.320012
0.761257 0.855131 0.304234
0.823484 0.855833 0.284764
0.886473 0.856657 0.260105
0.949981 0.857694 0.227817
0.991577 0.839994 0.201511
1.000000 0.820218 0.165347
0.000000 0.078798 0.161349
0.020020 0.072541 0.160952
0.148470 0.069978 0.158389
0.245518 0.069612 0.153628
0.333501 0.066835 0.144045
0.401892 0.068208 0.123781
0.461280 0.094118 0.108553
0.519371 0.117861 0.091554
0.578912 0.141390 0.069856
0.640131 0.164981 0.038087
0.701747 0.185550 0.000000
0.760830 0.204501 0.000000
0.818662 0.222477 0.000000
0.875029 0.239719 0.000000
0.929900 0.255985 0.000000
0.983276 0.270970 0.000000
0.000000 0.112398 0.164034
0.064302 0.108827 0.163638
0.160830 0.107820 0.161715
0.249485 0.108492 0.157046
0.331762 0.106477 0.147005
0.399268 0.109163 0.129610
0.459174 0.124697 0.114748
0.517845 0.141756 0.097627
0.577844 0.160586 0.076173
0.639887 0.179324 0.042695
0.701686 0.196963 0.000000
0.760830 0.214511 0.000000
0.818814 0.231174 0.000000
0.875151 0.247410 0.000000
0.930053 0.262760 0.000000
0.983398 0.277104 0.000000
0.011719 0.150576 0.168276
0.097047 0.150759 0.167575
0.174289 0.151125 0.166018
0.254704 0.153140 0.162173
0.330419 0.151461 0.151492
0.395758 0.156161 0.138155
0.456580 0.164279 0.123476
0.515953 0.175570 0.106569
0.577203 0.187747 0.082673
0.639948 0.201480 0.046357
0.701595 0.216770 0.000000
0.760891 0.231846 0.000000
0.818875 0.246586 0.000000
0.875395 0.260868 0.000000
0.930358 0.274662 0.000000
0.983734 0.287663 0.000000
0.053132 0.197635 0.174472
0.117098 0.198245 0.173617
0.186740 0.199588 0.171817
0.260563 0.202457 0.169284
0.329747 0.202121 0.158877
0.393957 0.203830 0.146212
0.455207 0.207736 0.130831
0.515557 0.214145 0.112093
0.577173 0.222660 0.088136
0.639979 0.233585 0.052888
0.701472 0.245640 0.000000
0.760983 0.257847 0.000000
0.819120 0.269902 0.000000
0.875700 0.281682 0.000000
0.930785 0.293187 0.000000
0.984253 0.304479 0.000000
0.104799 0.244907 0.178347
0.147219 0.246220 0.178012
0.202152 0.248386 0.177035
0.265324 0.251865 0.174929
0.330663 0.252720 0.166049
0.393652 0.253117 0.153475
0.454505 0.254856 0.138308
0.515099 0.258762 0.119722
0.577020 0.264805 0.095949
0.640009 0.272953 0.062623
0.701350 0.281895 0.009766
0.761074 0.290990 0.000000
0.819333 0.300145 0.000000
0.876158 0.309148 0.000000
0.931456 0.317967 0.000000
0.985046 0.326818 0.000000
0.138308 0.295964 0.186526
0.169314 0.297215 0.186343
0.212650 0.299474 0.184817
0.270054 0.301762 0.182223
0.330510 0.302892 0.174044
0.392248 0.304173 0.163272
0.453590 0.305303 0.147921
0.514427 0.307622 0.129732
0.576684 0.311742 0.106416
0.639918 0.317327 0.075013
0.701167 0.323369 0.025727
0.761196 0.329656 0.000000
0.819699 0.336034 0.000000
0.876707 0.342290 0.000000
0.932189 0.348394 0.000000
0.986023 0.354620 0.000000
0.158572 0.347417 0.196445
0.182315 0.348425 0.195315
0.219333 0.350500 0.192935
0.273899 0.351720 0.191318
0.330388 0.352850 0.183383
0.389837 0.354284 0.174502
0.450996 0.356207 0.160739
0.513787 0.358434 0.142367
0.576471 0.361059 0.120394
0.639643 0.364630 0.091585
0.701137 0.368200 0.048981
0.761471 0.372015 0.000000
0.820127 0.375982 0.000000
