luts/Quayside ● 16.cube
# Created by Adobe Lightroom plugin Export LUT (1.16.0)
# www.johnrellis.com/lightroom/exportlut.htm
# Preset: Quayside ●
# Color profile: C:\Program Files (x86)\Common Files\Adobe\Color\Profiles\Recommended\sRGB Color Space Profile.icm
LUT_3D_SIZE 6
DOMAIN_MIN 0.0 0.0 0.0
DOMAIN_MAX 1.0 1.0 1.0
0.011109 0.007111 0.006043
0.277317 0.011444 0.000000
0.470192 0.062989 0.000000
0.648096 0.140230 0.000000
0.823270 0.204288 0.000000
0.985809 0.245945 0.000000
0.076051 0.167086 0.032624
0.274510 0.172213 0.003815
0.465217 0.186954 0.000000
0.644648 0.225650 0.000000
0.821561 0.265629 0.000000
0.985718 0.291051 0.000000
0.161532 0.332860 0.088563
0.280674 0.333898 0.069612
0.457191 0.340398 0.000000
0.644373 0.354162 0.000000
0.822263 0.370947 0.000000
0.986725 0.388556 0.000000
0.201541 0.491615 0.152407
0.291752 0.492744 0.140871
0.454627 0.496529 0.105409
0.644465 0.503471 0.000000
0.825437 0.503410 0.000000
0.991699 0.503105 0.000000
0.208255 0.670253 0.217838
0.301122 0.670588 0.209415
0.471901 0.671382 0.182986
0.664912 0.672816 0.129122
0.841428 0.659236 0.000000
0.995666 0.642298 0.000000
0.345312 0.851804 0.355901
0.401740 0.852079 0.349981
0.532219 0.852781 0.331182
0.703059 0.853971 0.296544
0.889372 0.856016 0.231418
1.000000 0.818753 0.120180
0.000000 0.078798 0.161349
0.245518 0.069612 0.153628
0.461280 0.094118 0.108553
0.640131 0.164981 0.038087
0.818662 0.222477 0.000000
0.983276 0.270970 0.000000
0.053132 0.197635 0.174472
0.260563 0.202457 0.169284
0.455207 0.207736 0.130831
0.639979 0.233585 0.052888
0.819120 0.269902 0.000000
0.984253 0.304479 0.000000
0.158572 0.347417 0.196445
0.273899 0.351720 0.191318
0.450996 0.356207 0.160739
0.639643 0.364630 0.091585
0.820127 0.375982 0.000000
0.987121 0.387182 0.000000
0.165347 0.503990 0.225559
0.279332 0.504997 0.225162
0.449805 0.508232 0.201480
0.641596 0.512169 0.151919
0.822660 0.509667 0.023529
0.990723 0.506950 0.000000
0.181003 0.675959 0.279667
0.283482 0.676173 0.272679
0.461738 0.676722 0.251041
0.658930 0.677668 0.212985
0.838132 0.663783 0.145113
0.994110 0.646571 0.000000
0.341650 0.852689 0.396826
0.397559 0.852995 0.391394
0.526787 0.853788 0.374609
0.697078 0.855161 0.343145
0.883360 0.857359 0.287236
1.000000 0.821775 0.202243
0.000000 0.161868 0.319188
0.145205 0.156130 0.320195
0.420050 0.185153 0.310826
0.634516 0.192355 0.271977
0.816373 0.237827 0.215000
0.982574 0.275792 0.119509
0.000000 0.243534 0.327031
0.201205 0.245884 0.326665
0.422400 0.262638 0.320226
0.633906 0.261082 0.279667
0.814176 0.292668 0.227207
0.983520 0.310643 0.121767
0.045167 0.375494 0.345037
0.224186 0.380529 0.344640
0.428717 0.398169 0.344732
0.628321 0.395392 0.303746
0.813596 0.397894 0.246891
0.985229 0.398322 0.140658
0.125765 0.521386 0.366674
0.236301 0.526940 0.366125
0.425544 0.539117 0.359777
0.632044 0.537530 0.328893
0.816007 0.527398 0.274418
0.987823 0.518853 0.178958
0.000000 0.686549 0.387457
0.184054 0.688685 0.386419
0.434028 0.690730 0.388617
0.639429 0.690913 0.359045
0.827787 0.677607 0.314672
0.990021 0.658686 0.239445
0.153017 0.859159 0.449836
0.318425 0.857939 0.463966
0.504753 0.856840 0.472694
0.676783 0.858549 0.445747
0.864988 0.861173 0.404517
1.000000 0.830961 0.342016
0.000000 0.248905 0.472877
0.000000 0.246586 0.473854
0.345037 0.264500 0.472541
0.583612 0.287022 0.465644
0.799924 0.301335 0.431952
0.964904 0.364050 0.401251
0.000000 0.307378 0.478279
0.000000 0.306706 0.478645
0.351385 0.318975 0.479347
0.587182 0.336339 0.472511
0.798917 0.347143 0.437263
0.964965 0.393286 0.405493
0.000000 0.414893 0.491310
0.072541 0.417548 0.491737
0.355200 0.425666 0.493782
0.595972 0.445991 0.490913
0.798550 0.448920 0.453620
0.970947 0.452369 0.404883
0.000000 0.548394 0.513390
0.043610 0.551598 0.513756
0.356329 0.562371 0.515709
0.611505 0.587610 0.523308
0.803189 0.566308 0.468940
0.982544 0.542504 0.395392
0.000000 0.701198 0.537987
0.000000 0.702693 0.535454
0.330053 0.706691 0.530694
0.607355 0.713680 0.535943
0.805844 0.705623 0.498634
0.979370 0.686152 0.436469
0.000000 0.874510 0.524804
0.000000 0.874083 0.519158
0.256901 0.869017 0.548974
0.633631 0.864775 0.587976
0.829099 0.868009 0.555322
0.997436 0.847898 0.509117
0.000000 0.346715 0.651698
0.000000 0.346105 0.651484
0.187350 0.351934 0.651423
0.515953 0.381079 0.645594
0.761624 0.408911 0.639490
0.933440 0.463813 0.600183
0.000000 0.385351 0.654505
0.000000 0.384619 0.654139
0.200320 0.389960 0.653986
0.519280 0.417121 0.649042
0.761288 0.443427 0.642908
0.932464 0.490608 0.605982
0.000000 0.465400 0.663081
0.000000 0.465400 0.662684
0.198795 0.469673 0.661646
0.529107 0.501976 0.658839
0.761074 0.523552 0.652857
0.933288 0.552514 0.620661
0.000000 0.575097 0.678492
0.000000 0.575311 0.678126
0.108125 0.577111 0.676997
0.517845 0.596521 0.674830
0.764004 0.627222 0.672267
0.938140 0.639185 0.642634
0.000000 0.707942 0.700740
0.000000 0.709621 0.700313
0.045960 0.715175 0.699123
0.517327 0.727626 0.698512
0.776822 0.756161 0.711757
0.954650 0.731624 0.649439
0.000000 0.891173 0.745022
0.000000 0.890715 0.740963
0.000000 0.888243 0.730159
0.403479 0.883146 0.715358
0.770840 0.879057 0.728908
0.964050 0.872129 0.695369
0.000000 0.458198 0.858274
0.000000 0.464302 0.857328
0.000000 0.493599 0.853819
0.526329 0.565850 0.845151
0.733700 0.588403 0.838682
0.919188 0.616938 0.831785
0.000000 0.478279 0.860044
0.000000 0.483772 0.859098
0.000000 0.510887 0.855528
0.533745 0.585718 0.846433
0.735195 0.605493 0.840146
0.918486 0.631281 0.833341
0.000000 0.521416 0.866178
0.000000 0.525902 0.865263
0.000000 0.547509 0.861784
0.512932 0.613367 0.852873
0.736965 0.647028 0.845121
0.917388 0.667384 0.838407
0.000000 0.598474 0.877012
0.000000 0.596582 0.876707
0.000000 0.592706 0.875517
0.410895 0.647242 0.866423
0.733761 0.707118 0.855314
0.916533 0.723842 0.848203
0.000000 0.718135 0.890288
0.000000 0.717952 0.889982
0.000000 0.719173 0.888762
0.025208 0.731380 0.884489
0.687404 0.769253 0.874083
0.915862 0.801022 0.863890
0.000000 0.861051 0.903899
0.000000 0.862150 0.903532
0.000000 0.867277 0.901976
0.000000 0.878904 0.897673
0.619074 0.892576 0.891691
0.913573 0.903868 0.886442
