luts/Soft Autumn .CUBE
#Created by: Adobe Photoshop Export Color Lookup Plugin
#Copyright: (C) Copyright 2017 rafyA
TITLE "IMG_1604.JPG"
#LUT size
LUT_3D_SIZE 32
#data domain
DOMAIN_MIN 0.0 0.0 0.0
DOMAIN_MAX 1.0 1.0 1.0
#LUT data points
0.084625 0.046783 0.046783
0.132843 0.058136 0.045166
0.179718 0.069336 0.042572
0.225281 0.080505 0.039825
0.269379 0.092407 0.037872
0.312164 0.104828 0.037201
0.353760 0.117340 0.036774
0.394135 0.129761 0.036499
0.433319 0.142090 0.036255
0.471313 0.154419 0.036102
0.508118 0.166718 0.035980
0.543671 0.178986 0.035889
0.577057 0.191284 0.036713
0.610138 0.203369 0.036713
0.642029 0.215240 0.036713
0.671509 0.227478 0.037750
0.699768 0.239685 0.038971
0.727844 0.251434 0.039093
0.753448 0.263550 0.040466
0.777771 0.275482 0.041870
0.802155 0.286926 0.042053
0.823914 0.298889 0.043549
0.844360 0.310455 0.045197
0.865051 0.321808 0.045441
0.882965 0.333496 0.047150
0.899658 0.344940 0.048920
0.915039 0.356506 0.050690
0.929138 0.367798 0.052521
0.942047 0.378967 0.054352
0.953613 0.390076 0.056305
0.964050 0.401093 0.058258
0.973206 0.411896 0.060272
0.133514 0.077026 0.054962
0.145325 0.091766 0.069427
0.174164 0.106964 0.069519
0.220184 0.118958 0.065796
0.264679 0.130371 0.062714
0.307739 0.142242 0.061066
0.349335 0.154175 0.060242
0.389404 0.166168 0.059906
0.429169 0.178040 0.058746
0.466614 0.190002 0.058990
0.503662 0.201660 0.058380
0.538757 0.213562 0.058624
0.572723 0.225281 0.058868
0.605438 0.237183 0.059082
0.635956 0.249084 0.060364
0.666229 0.260620 0.060669
0.695343 0.272064 0.060944
0.723175 0.283600 0.061279
0.748596 0.295319 0.062744
0.772705 0.306915 0.064301
0.796936 0.318085 0.064667
0.818542 0.329468 0.066284
0.840302 0.340576 0.066681
0.859375 0.351990 0.068481
0.878693 0.362732 0.068848
0.895294 0.373962 0.070679
0.910614 0.385040 0.072540
0.924622 0.396027 0.074402
0.939148 0.406342 0.074768
0.950714 0.416992 0.076691
0.961121 0.427521 0.078644
0.970245 0.438080 0.080597
0.182465 0.107147 0.062042
0.195221 0.121674 0.075317
0.204346 0.135437 0.090668
0.229523 0.150574 0.092590
0.258881 0.164764 0.089996
0.302063 0.177124 0.087463
0.343903 0.188995 0.085724
0.384399 0.200745 0.084473
0.423248 0.212463 0.083954
0.461823 0.223938 0.082642
0.498260 0.235565 0.082489
0.533569 0.247131 0.082214
0.567017 0.258667 0.082794
0.599274 0.270142 0.083405
0.631348 0.281342 0.082947
0.661316 0.292572 0.083496
0.690125 0.303772 0.083984
0.717682 0.315063 0.084503
0.744141 0.326080 0.084991
0.768036 0.337341 0.086700
0.792053 0.348236 0.087250
0.814819 0.359070 0.087708
0.835022 0.370026 0.089539
0.855438 0.380707 0.090027
0.874634 0.391174 0.090515
0.891174 0.401825 0.092346
0.907990 0.412170 0.092743
0.920380 0.422943 0.096252
0.934784 0.433136 0.096619
0.946350 0.443481 0.098663
0.956665 0.453613 0.100647
0.965759 0.463715 0.102692
0.231384 0.137207 0.068451
0.244324 0.153168 0.083954
0.251465 0.162506 0.093353
0.261414 0.178162 0.111359
0.281891 0.192169 0.116028
0.311798 0.207672 0.113892
0.338654 0.221222 0.112152
0.379242 0.233307 0.110199
0.418091 0.245056 0.109222
0.456390 0.256500 0.107788
0.492706 0.267914 0.107391
0.528168 0.279144 0.106781
0.561890 0.290375 0.106842
0.595490 0.301361 0.105896
0.626190 0.312439 0.106659
0.656830 0.323273 0.106415
0.685364 0.334412 0.107086
0.712585 0.345123 0.107788
0.738770 0.355896 0.108521
0.763672 0.366608 0.109161
0.787476 0.377106 0.109833
0.810059 0.387756 0.110413
0.831482 0.398071 0.111023
0.851776 0.408386 0.111603
0.869354 0.418915 0.113556
0.887268 0.428986 0.114075
0.902405 0.439026 0.116119
0.916351 0.449280 0.118103
0.930664 0.459015 0.118622
0.942169 0.468994 0.120575
0.954102 0.478699 0.121002
0.963196 0.488159 0.123047
0.279968 0.167542 0.075348
0.291595 0.184540 0.094177
0.301483 0.194397 0.101837
0.304260 0.202362 0.113281
0.316223 0.220093 0.132965
0.333740 0.233124 0.138885
0.362183 0.248566 0.138123
0.389587 0.262665 0.135986
0.413635 0.275452 0.134949
0.451141 0.287231 0.133545
0.487946 0.298615 0.132233
0.523376 0.309723 0.131317
0.557312 0.320740 0.130890
0.590363 0.331512 0.130280
0.621552 0.342438 0.130371
0.652740 0.353088 0.129333
0.680939 0.363739 0.130249
0.709015 0.374207 0.130005
0.734894 0.384644 0.130829
0.759644 0.395020 0.131653
0.783203 0.405243 0.132446
0.805634 0.415497 0.133179
0.826843 0.425598 0.133911
0.846924 0.435669 0.134552
0.865845 0.445435 0.135254
0.883636 0.455261 0.135864
0.898712 0.465118 0.137909
0.914093 0.474579 0.138489
0.926727 0.484283 0.140503
0.938202 0.493744 0.142609
0.950043 0.502930 0.143066
0.959137 0.512207 0.145172
0.328400 0.198181 0.083313
0.339233 0.214600 0.101898
0.349701 0.225830 0.111603
0.354492 0.233978 0.121124
0.358002 0.243835 0.135040
0.369110 0.260986 0.154724
0.385956 0.273621 0.160431
0.410309 0.287933 0.161835
0.437866 0.302216 0.160034
0.462189 0.315186 0.159058
0.485535 0.327393 0.157715
0.518524 0.338837 0.156616
0.553253 0.349854 0.154938
0.585754 0.360626 0.154633
0.617401 0.371277 0.154053
0.648071 0.381683 0.153320
0.676941 0.392090 0.153351
0.704651 0.402191 0.153351
0.731445 0.412354 0.153168
0.755890 0.422424 0.154144
0.779266 0.432312 0.155029
0.802704 0.442108 0.154633
0.823792 0.451904 0.155457
0.843781 0.461578 0.156219
0.862549 0.471191 0.156952
0.878784 0.480621 0.159088
0.895233 0.490051 0.159729
0.910431 0.499298 0.160370
0.923096 0.508423 0.162476
0.936005 0.517670 0.163055
0.946289 0.526489 0.165100
0.955292 0.535370 0.167175
0.376892 0.228760 0.091461
0.386658 0.244507 0.109772
0.396851 0.257019 0.121735
0.403198 0.265289 0.130066
0.405609 0.272614 0.140564
0.409943 0.284180 0.156677
0.420074 0.300812 0.176300
0.436340 0.312988 0.181885
0.455780 0.325836 0.185669
0.483978 0.340363 0.183533
0.508575 0.353394 0.182495
0.532104 0.365692 0.181122
0.554504 0.377319 0.179688
0.581665 0.388306 0.179077
0.612762 0.398743 0.178864
0.643921 0.409119 0.177429
0.672333 0.419312 0.177765
0.699738 0.429352 0.177948
0.727142 0.439117 0.176880
0.752441 0.449036 0.176758
0.775665 0.458618 0.177826
0.798889 0.468231 0.177551
0.819763 0.477631 0.178467
0.839539 0.486969 0.179291
0.858124 0.496185 0.180115
0.875610 0.505432 0.180878
0.891907 0.514526 0.181641
0.907104 0.523376 0.182343
0.921112 0.532135 0.183014
0.932526 0.540863 0.185150
0.944244 0.549469 0.185699
0.953217 0.558014 0.187775
0.425323 0.259430 0.099609
0.434021 0.274445 0.117584
0.443176 0.287842 0.132355
0.450836 0.296234 0.139465
0.454254 0.303497 0.148773
0.453766 0.309845 0.160278
0.459991 0.323456 0.178375
0.469086 0.339508 0.197937
0.484772 0.351257 0.203369
0.500305 0.362854 0.208557
0.526978 0.376984 0.207428
0.552704 0.390198 0.205597
0.575104 0.402252 0.204956
0.597534 0.413879 0.203552
0.617615 0.424866 0.203278
0.639252 0.435547 0.202484
0.669098 0.445587 0.201019
0.696167 0.455414 0.201385
0.723267 0.465118 0.200531
0.748291 0.474670 0.200623
0.772339 0.484039 0.200592
0.795288 0.493347 0.200470
0.816010 0.502563 0.201416
0.835571 0.511536 0.202423
0.855316 0.520508 0.201996
0.872711 0.529388 0.202820
0.888947 0.538025 0.203674
0.903961 0.546570 0.204437
0.916443 0.555115 0.206635
0.929260 0.563568 0.207275
0.940857 0.571625 0.207886
0.949829 0.579803 0.209991
0.473694 0.290009 0.107941
0.481445 0.304382 0.125580
0.488892 0.318542 0.143188
0.497345 0.326813 0.149445
0.500916 0.333801 0.158081
0.502106 0.340240 0.168091
0.499786 0.346130 0.180542
0.508057 0.361603 0.199890
0.516266 0.377075 0.219452
0.531250 0.388428 0.224670
0.546173 0.399597 0.229767
0.569244 0.412628 0.230286
0.593903 0.425568 0.228973
0.616180 0.437500 0.228302
0.638336 0.448944 0.226837
0.658142 0.459778 0.226624
0.677704 0.470184 0.225952
0.697052 0.480286 0.224792
0.719696 0.490082 0.224243
0.745544 0.499451 0.223389
0.769287 0.508667 0.223450
0.792053 0.517639 0.223419
0.812561 0.526459 0.224518
0.833191 0.535248 0.224304
0.852783 0.543976 0.223999
0.870026 0.552399 0.224884
0.886108 0.560760 0.225769
0.901062 0.569092 0.226563
0.914886 0.577179 0.227295
0.927551 0.585236 0.227997
0.937714 0.593079 0.230164
0.948120 0.600952 0.230774
0.522064 0.320618 0.116211
0.528809 0.334351 0.133606
0.535614 0.348145 0.151154
0.542938 0.357147 0.159698
0.548035 0.364258 0.167145
0.548920 0.370239 0.176666
0.547882 0.375977 0.187531
0.546936 0.383759 0.202057
0.554260 0.398682 0.221405
0.561554 0.413635 0.240875
0.575897 0.424500 0.245972
0.590210 0.435242 0.250885
0.607391 0.446564 0.254089
0.632172 0.459473 0.252625
0.655731 0.471558 0.251007
0.677704 0.482849 0.249420
0.696777 0.493256 0.249207
0.716217 0.503571 0.248505
0.735291 0.513489 0.247345
0.751434 0.522827 0.248108
0.769043 0.532135 0.247467
0.787994 0.541077 0.247772
0.809418 0.549744 0.247772
0.829865 0.558289 0.247620
0.849213 0.566803 0.247375
0.866272 0.574768 0.248383
0.883545 0.583069 0.247925
0.898376 0.590912 0.248810
0.912109 0.598724 0.249573
0.924713 0.606506 0.250336
0.936188 0.614136 0.251038
0.945099 0.621429 0.253174
0.570465 0.351257 0.124542
0.576202 0.364319 0.141724
0.581940 0.377411 0.158966
0.588409 0.387390 0.170135
0.592926 0.394012 0.177155
0.594513 0.399872 0.185760
0.593384 0.405212 0.195984
0.591248 0.410492 0.207153
0.592133 0.420258 0.223480
0.598541 0.434631 0.242767
0.604919 0.449066 0.262238
0.618683 0.459534 0.267212
0.632324 0.469818 0.271973
0.645782 0.479889 0.276550
0.669159 0.492310 0.275696
0.692596 0.504242 0.273926
0.712921 0.515106 0.273224
0.733246 0.525604 0.271942
0.751953 0.535553 0.271240
0.769226 0.545044 0.271210
0.786102 0.554169 0.270844
0.802917 0.563110 0.270233
0.818542 0.571838 0.270569
0.835175 0.580353 0.269470
0.848633 0.588440 0.270752
0.864105 0.596649 0.270599
0.879913 0.604492 0.271545
0.895905 0.612274 0.271088
0.909546 0.619751 0.271973
0.922028 0.627106 0.272766
0.933472 0.634460 0.273499
0.943756 0.641571 0.274139
0.618835 0.381836 0.132965
0.623535 0.394226 0.149841
0.628265 0.406708 0.166931
0.633484 0.417542 0.180695
0.638824 0.424011 0.186829
0.640167 0.429504 0.194855
0.638885 0.434418 0.204529
0.636871 0.439392 0.214935
0.632751 0.443970 0.226837
0.635498 0.455688 0.244812
0.640900 0.469543 0.264130
0.646301 0.483398 0.283539
0.659546 0.493469 0.288300
0.672638 0.503357 0.292938
0.685455 0.512939 0.297333
0.705139 0.524170 0.297974
0.726837 0.535583 0.296906
0.746796 0.546173 0.296143
0.766785 0.556458 0.294800
0.785187 0.566162 0.294037
0.801605 0.575226 0.294006
0.818298 0.584229 0.293640
0.834564 0.592834 0.292999
0.851013 0.601318 0.292114
0.865509 0.609375 0.292236
0.878021 0.616974 0.293549
0.892456 0.624756 0.293365
0.904816 0.632141 0.294464
0.919006 0.639618 0.294006
0.930939 0.646606 0.294861
0.943115 0.653625 0.295654
0.954926 0.660400 0.296295
0.667175 0.412415 0.141357
0.670837 0.424164 0.158020
0.674561 0.435974 0.174866
0.677856 0.447388 0.191559
0.682800 0.453430 0.197144
0.685394 0.458984 0.204102
0.684113 0.463531 0.213074
0.682159 0.468170 0.222900
0.678406 0.472504 0.233887
0.672363 0.476715 0.246979
0.676849 0.489990 0.266144
0.681366 0.503265 0.285339
0.685822 0.516663 0.304749
0.698456 0.526276 0.309418
0.710876 0.535675 0.313812
0.723175 0.544922 0.318054
0.737183 0.554474 0.321198
0.758545 0.565582 0.320068
0.779999 0.576385 0.318207
0.797943 0.586060 0.317780
0.815704 0.595398 0.317017
0.833435 0.604492 0.315796
0.849457 0.613068 0.315369
0.863525 0.621124 0.315918
0.879303 0.629272 0.314972
0.893219 0.636993 0.315125
0.905182 0.644257 0.316437
0.918610 0.651550 0.316254
0.932220 0.658813 0.315948
0.943756 0.665588 0.316864
0.955048 0.672211 0.317688
0.966278 0.678680 0.318390
0.715485 0.442963 0.149811
0.718140 0.454071 0.166199
0.720856 0.465210 0.182800
0.723541 0.476440 0.199615
0.727386 0.483032 0.207336
0.730072 0.488281 0.213623
0.728760 0.492462 0.221985
0.727081 0.496857 0.231049
0.723694 0.500977 0.241302
0.716766 0.504242 0.253479
0.712860 0.510468 0.268158
0.716370 0.523193 0.287262
0.719940 0.536011 0.306519
0.723480 0.548859 0.325867
0.735504 0.558044 0.330383
0.747223 0.566986 0.334686
0.758942 0.575806 0.338806
0.770477 0.584412 0.342682
0.789520 0.594666 0.342316
0.808990 0.604919 0.341370
0.826355 0.614227 0.340912
0.843750 0.623352 0.340088
0.861206 0.632233 0.338776
0.876373 0.640350 0.338379
0.891541 0.648285 0.337677
0.904755 0.655731 0.337982
0.918091 0.663116 0.338104
0.931519 0.670410 0.338013
0.944427 0.677338 0.337799
0.955322 0.683899 0.338806
0.965973 0.690186 0.339722
0.976563 0.696381 0.340515
0.763824 0.473511 0.158264
0.765472 0.483978 0.174500
0.767120 0.494476 0.190826
0.768799 0.505035 0.207428
0.771118 0.512360 0.217804
0.773804 0.517212 0.223450
0.772705 0.521149 0.231110
0.769592 0.524689 0.240051
0.766541 0.528595 0.249512
0.760071 0.531647 0.260925
0.754028 0.535187 0.272766
0.751373 0.543152 0.289246
0.753967 0.555328 0.308380
0.756592 0.567627 0.327606
0.759216 0.579926 0.346954
0.770538 0.588654 0.351288
0.781677 0.597198 0.355438
0.792786 0.605560 0.359375
0.803772 0.613739 0.363098
0.818512 0.622742 0.364594
0.837494 0.632599 0.363464
0.854370 0.641571 0.362946
0.871216 0.650330 0.362030
0.886139 0.658447 0.361847
0.902924 0.666718 0.360138
0.915588 0.673950 0.360657
0.930267 0.681458 0.359619
0.942749 0.688354 0.359711
0.953247 0.694763 0.360962
0.965271 0.701202 0.360687
0.975494 0.707336 0.361664
0.985565 0.713287 0.362518
0.812103 0.504059 0.166748
0.812714 0.513885 0.182739
0.813354 0.523682 0.198853
0.813995 0.533600 0.215240
0.815338 0.541840 0.228119
0.816498 0.545868 0.233734
0.815582 0.549500 0.240692
0.814606 0.553436 0.248291
0.810272 0.556519 0.257568
0.802429 0.558746 0.268799
0.797089 0.562195 0.279724
0.788574 0.564819 0.292328
0.787994 0.574677 0.310303
0.789673 0.586365 0.329437
0.791351 0.598145 0.348633
0.793060 0.609955 0.367981
0.803864 0.618286 0.372101
0.814331 0.626343 0.376129
0.824768 0.634247 0.379852
0.835052 0.641968 0.383484
0.845276 0.649536 0.386871
0.863617 0.658966 0.385651
0.880402 0.667847 0.385010
0.896362 0.676086 0.383972
0.910889 0.683929 0.383728
0.925018 0.691376 0.383209
0.937195 0.698364 0.383698
0.951233 0.705475 0.382629
0.963074 0.711975 0.382660
0.974762 0.718292 0.382507
0.986389 0.724426 0.382172
0.995880 0.730133 0.383118
0.860413 0.534607 0.175232
0.860016 0.543762 0.191010
0.859619 0.552948 0.206970
0.859253 0.562195 0.223083
0.858246 0.570892 0.238892
0.859558 0.574615 0.243896
0.859100 0.578064 0.250092
0.856781 0.581207 0.257538
0.851044 0.583466 0.266663
0.845703 0.586182 0.276337
0.839142 0.588837 0.286987
0.831390 0.591400 0.298737
0.822021 0.594086 0.312317
0.822784 0.605194 0.331268
0.823517 0.616394 0.350372
0.824280 0.627594 0.369568
0.825043 0.638885 0.388916
0.835052 0.646698 0.392883
0.845001 0.654388 0.396698
0.854828 0.661865 0.400330
0.864655 0.669250 0.403748
0.874115 0.676300 0.407013
0.887787 0.684296 0.407806
0.903992 0.692810 0.407104
0.919769 0.700836 0.405945
0.933441 0.708191 0.405640
0.947052 0.715363 0.405029
0.958374 0.721741 0.405457
0.971924 0.728577 0.404358
0.981079 0.734314 0.405640
0.994202 0.740631 0.404022
1.000000 0.746124 0.405151
0.908661 0.565094 0.183746
0.907196 0.573608 0.199310
0.905792 0.582184 0.215027
0.904388 0.590729 0.230957
0.903015 0.599365 0.247009
0.903198 0.603546 0.253845
0.901184 0.606171 0.260040
0.899445 0.609192 0.266663
0.894318 0.611267 0.274933
0.887726 0.613220 0.284332
0.879822 0.615051 0.294922
0.870819 0.616882 0.306488
0.862915 0.619293 0.318176
0.855774 0.623993 0.333252
0.855591 0.634583 0.352142
0.855408 0.645233 0.371277
0.855255 0.655975 0.390442
0.855072 0.666718 0.409760
0.864532 0.674194 0.413635
0.873901 0.681396 0.417236
0.883087 0.688446 0.420685
0.892151 0.695313 0.423950
0.901154 0.702057 0.427063
0.909882 0.708527 0.429993
0.925446 0.716553 0.429138
0.940735 0.724304 0.427917
0.953918 0.731323 0.427521
0.966827 0.738037 0.426849
0.977783 0.744202 0.427155
0.990448 0.750488 0.425964
0.998779 0.755737 0.427216
1.000000 0.761719 0.427368
0.956879 0.595612 0.192230
0.954376 0.603455 0.207642
0.951965 0.611328 0.223145
0.949554 0.619263 0.238861
0.947174 0.627228 0.254700
0.945160 0.631897 0.264374
0.943756 0.634399 0.269745
0.940765 0.636627 0.276215
0.936310 0.638611 0.283630
0.928284 0.639771 0.292938
0.921265 0.641541 0.302521
0.913208 0.643280 0.313049
0.904053 0.645020 0.324677
0.891754 0.645996 0.338043
0.887665 0.652832 0.354034
0.886536 0.662903 0.372986
0.885406 0.673035 0.392029
0.884338 0.683258 0.411255
0.883209 0.693481 0.430511
0.892120 0.700500 0.434204
0.900848 0.707336 0.437714
0.909454 0.713928 0.441010
0.917847 0.720337 0.444153
0.926208 0.726593 0.447021
0.934387 0.732697 0.449799
0.944672 0.739136 0.451172
0.959534 0.746521 0.449829
0.971985 0.753113 0.449371
0.982605 0.759186 0.449860
0.994873 0.765381 0.448853
1.000000 0.770966 0.449097
1.000000 0.776581 0.449402
1.000000 0.626129 0.200775
1.000000 0.633301 0.216034
0.998108 0.640533 0.231293
0.994629 0.647797 0.246765
0.991272 0.655121 0.262390
0.989594 0.661102 0.274109
0.986816 0.662750 0.279297
0.982391 0.664185 0.285614
0.976563 0.665375 0.292969
0.969482 0.666504 0.301331
0.961121 0.667450 0.310760
0.954132 0.669220 0.320282
0.943726 0.670166 0.331573
0.932465 0.671173 0.344055
0.920471 0.672272 0.357300
0.917603 0.680603 0.374817
0.915619 0.690186 0.393738
0.913513 0.699768 0.412842
0.911499 0.709442 0.432007
0.909485 0.719177 0.451263
0.917755 0.725769 0.454773
0.925751 0.732117 0.458099
0.933868 0.738342 0.461243
0.941650 0.744354 0.464233
0.949463 0.750214 0.466980
0.956940 0.755798 0.469543
0.964417 0.761261 0.471954
0.976563 0.767792 0.471680
0.988281 0.773895 0.471130
1.000000 0.780029 0.470306
1.000000 0.785706 0.470947
1.000000 0.791260 0.471375
1.000000 0.657135 0.209900
1.000000 0.663757 0.224915
1.000000 0.670349 0.240082
1.000000 0.676971 0.255402
1.000000 0.683624 0.270844
1.000000 0.689575 0.285767
1.000000 0.691071 0.290100
1.000000 0.691589 0.296326
1.000000 0.692719 0.302643
1.000000 0.693665 0.309845
1.000000 0.693634 0.318878
0.993286 0.694580 0.328125
0.981537 0.694733 0.339417
0.971497 0.695801 0.350647
0.960785 0.696899 0.362701
0.948700 0.698273 0.376648
0.945679 0.707275 0.395477
0.942749 0.716339 0.414429
0.939728 0.725403 0.433441
0.936798 0.734589 0.452637
0.933868 0.743835 0.471893
0.941467 0.749939 0.475281
0.948914 0.755859 0.478455
0.956421 0.761688 0.481415
0.963623 0.767242 0.484222
0.970764 0.772675 0.486816
0.977814 0.777924 0.489227
0.984619 0.782928 0.491455
0.991302 0.787781 0.493500
1.000000 0.793732 0.492981
1.000000 0.799225 0.493805
1.000000 0.804962 0.492554
1.000000 0.688171 0.218994
1.000000 0.694183 0.233948
1.000000 0.700226 0.248962
1.000000 0.706268 0.264191
1.000000 0.712311 0.279480
1.000000 0.718414 0.294891
1.000000 0.719879 0.301331
1.000000 0.720398 0.306549
1.000000 0.720795 0.312714
1.000000 0.720947 0.319824
1.000000 0.721069 0.327942
1.000000 0.721039 0.336914
1.000000 0.720947 0.346741
1.000000 0.720947 0.357422
0.999176 0.720917 0.368958
0.986603 0.721436 0.381653
0.975861 0.724426 0.397247
0.971924 0.732880 0.416077
0.968048 0.741455 0.434998
0.964142 0.750061 0.454071
0.960266 0.758698 0.473236
0.956421 0.767426 0.492462
0.963409 0.773071 0.495667
0.970306 0.778625 0.498627
0.977173 0.783997 0.501495
0.983795 0.789185 0.504120
0.990173 0.794098 0.506561
0.996613 0.798859 0.508820
1.000000 0.803680 0.511017
1.000000 0.808228 0.512848
1.000000 0.813202 0.513092
1.000000 0.817993 0.513031
1.000000 0.719269 0.228149
1.000000 0.724701 0.242981
1.000000 0.730103 0.257874
1.000000 0.735596 0.272980
1.000000 0.741028 0.288116
1.000000 0.746552 0.303406
1.000000 0.748840 0.312286
1.000000 0.749390 0.316620
1.000000 0.748962 0.322784
1.000000 0.748444 0.329773
1.000000 0.747711 0.337646
1.000000 0.746948 0.346497
1.000000 0.746185 0.356232
1.000000 0.746338 0.365875
1.000000 0.745575 0.377197
1.000000 0.744843 0.389282
1.000000 0.745270 0.401306
1.000000 0.749481 0.417847
0.996216 0.757416 0.436584
0.991394 0.765503 0.455566
0.986633 0.773590 0.474640
0.981812 0.781708 0.493744
0.977020 0.789886 0.512939
0.983459 0.795197 0.515991
0.989716 0.800293 0.518829
0.995941 0.805206 0.521484
1.000000 0.809967 0.523865
1.000000 0.814636 0.525879
1.000000 0.819122 0.527740
1.000000 0.823456 0.529358
1.000000 0.827515 0.530823
1.000000 0.831482 0.532043
1.000000 0.750366 0.237335
1.000000 0.755188 0.251984
1.000000 0.759979 0.266602
1.000000 0.764832 0.281433
1.000000 0.769653 0.296295
1.000000 0.774536 0.311249
1.000000 0.777802 0.322357
1.000000 0.776672 0.327576
1.000000 0.776398 0.332703
1.000000 0.775909 0.338745
1.000000 0.774506 0.346832
1.000000 0.773956 0.354675
1.000000 0.772430 0.364471
1.000000 0.771881 0.374115
1.000000 0.770386 0.385376
1.000000 0.769897 0.396393
1.000000 0.769562 0.408264
1.000000 0.768372 0.421722
1.000000 0.774384 0.439362
1.000000 0.781708 0.457977
1.000000 0.789032 0.476746
1.000000 0.796326 0.495422
1.000000 0.803772 0.514313
0.995819 0.811249 0.532990
1.000000 0.816132 0.535736
1.000000 0.820923 0.538177
1.000000 0.825562 0.540314
1.000000 0.829956 0.542328
1.000000 0.834198 0.544098
1.000000 0.838196 0.545746
1.000000 0.842102 0.547150
1.000000 0.845764 0.548401
1.000000 0.781372 0.245605
1.000000 0.785583 0.259979
1.000000 0.789764 0.274384
1.000000 0.794037 0.288879
1.000000 0.798248 0.303497
1.000000 0.802460 0.318207
1.000000 0.805817 0.332336
1.000000 0.804871 0.336548
1.000000 0.803711 0.341522
1.000000 0.802490 0.347443
1.000000 0.801270 0.354462
1.000000 0.799927 0.362122
1.000000 0.797638 0.371765
1.000000 0.796356 0.381378
1.000000 0.795044 0.391632
1.000000 0.793854 0.402679
1.000000 0.792816 0.414642
1.000000 0.791962 0.427399
1.000000 0.791412 0.441833
1.000000 0.798065 0.460114
1.000000 0.804749 0.478424
1.000000 0.811462 0.496796
1.000000 0.818207 0.515167
1.000000 0.824982 0.533630
1.000000 0.831757 0.552124
1.000000 0.836273 0.554474
1.000000 0.840698 0.556641
1.000000 0.844818 0.558594
1.000000 0.848846 0.560364
1.000000 0.852570 0.561981
1.000000 0.856232 0.563385
1.000000 0.859619 0.564575
1.000000 0.812408 0.253723
1.000000 0.816010 0.267731
1.000000 0.819580 0.281921
1.000000 0.823181 0.296143
1.000000 0.826813 0.310486
1.000000 0.830444 0.324829
1.000000 0.834045 0.339325
1.000000 0.833160 0.344849
1.000000 0.831268 0.349792
1.000000 0.829285 0.355804
1.000000 0.827240 0.362518
1.000000 0.825104 0.370148
1.000000 0.823029 0.378571
1.000000 0.821930 0.386871
1.000000 0.819916 0.397064
1.000000 0.817017 0.409119
1.000000 0.816132 0.419739
1.000000 0.814484 0.432312
1.000000 0.813019 0.445618
1.000000 0.814209 0.461029
1.000000 0.820313 0.479156
1.000000 0.826416 0.497375
1.000000 0.832611 0.515594
1.000000 0.838806 0.533936
1.000000 0.845032 0.552277
1.000000 0.851288 0.570648
1.000000 0.855347 0.572815
1.000000 0.859253 0.574738
1.000000 0.863068 0.576508
1.000000 0.866638 0.578064
1.000000 0.869904 0.579498
1.000000 0.873108 0.580658
1.000000 0.843506 0.261475
1.000000 0.846466 0.275269
1.000000 0.849426 0.289124
1.000000 0.852448 0.303040
1.000000 0.855438 0.317047
1.000000 0.858429 0.331116
1.000000 0.861420 0.345276
1.000000 0.861664 0.352783
1.000000 0.858948 0.357697
1.000000 0.856201 0.363403
1.000000 0.854370 0.369019
1.000000 0.851471 0.376465
1.000000 0.848602 0.384918
1.000000 0.845764 0.394012
1.000000 0.843933 0.402985
1.000000 0.841217 0.413727
1.000000 0.838654 0.425415
1.000000 0.837189 0.436707
1.000000 0.834961 0.449707
1.000000 0.832947 0.463654
1.000000 0.835907 0.479736
1.000000 0.841461 0.497742
1.000000 0.847046 0.515869
1.000000 0.852661 0.534027
1.000000 0.858307 0.552216
1.000000 0.863953 0.570526
1.000000 0.869659 0.588837
1.000000 0.873352 0.590790
1.000000 0.876831 0.592529
1.000000 0.880127 0.594086
1.000000 0.883240 0.595459
1.000000 0.886230 0.596649
1.000000 0.874634 0.268982
1.000000 0.876984 0.282440
1.000000 0.879395 0.295959
1.000000 0.881744 0.309631
1.000000 0.884125 0.323273
1.000000 0.886475 0.337006
1.000000 0.888855 0.350800
1.000000 0.889313 0.361023
1.000000 0.885803 0.365845
1.000000 0.883270 0.370453
1.000000 0.880707 0.375946
1.000000 0.877014 0.383270
1.000000 0.874390 0.390472
1.000000 0.870758 0.399475
1.000000 0.868225 0.408234
1.000000 0.864746 0.418945
