luts/Soft Autumn .CUBE
#Created by: Adobe Photoshop Export Color Lookup Plugin
#Copyright: (C) Copyright 2017 rafyA
TITLE "IMG_1604.JPG"
#LUT size
LUT_3D_SIZE 5
#data domain
#LUT data points
DOMAIN_MIN 0.000000 0.000000 0.000000
DOMAIN_MAX 0.903226 0.903226 0.903226
0.084625 0.046783 0.046783
0.394135 0.129761 0.036499
0.642029 0.215240 0.036713
0.823914 0.298889 0.043549
0.942047 0.378967 0.054352
0.425323 0.259430 0.099609
0.469086 0.339508 0.197937
0.617615 0.424866 0.203278
0.795288 0.493347 0.200470
0.916443 0.555115 0.206635
0.763824 0.473511 0.158264
0.769592 0.524689 0.240051
0.759216 0.579926 0.346954
0.854370 0.641571 0.362946
0.953247 0.694763 0.360962
1.000000 0.688171 0.218994
1.000000 0.720398 0.306549
0.999176 0.720917 0.368958
0.956421 0.767426 0.492462
1.000000 0.803680 0.511017
1.000000 0.905853 0.277161
1.000000 0.917358 0.371429
1.000000 0.891693 0.414093
1.000000 0.871643 0.497864
1.000000 0.903290 0.624054
0.078491 0.036346 0.263367
0.292175 0.036316 0.262756
0.571594 0.105316 0.234741
0.791016 0.174713 0.206085
0.950073 0.277924 0.209412
0.262299 0.262238 0.262238
0.292145 0.262024 0.262024
0.573456 0.321838 0.237305
0.791412 0.386444 0.220673
0.943451 0.452484 0.216217
0.639923 0.473846 0.279266
0.600891 0.475342 0.316162
0.618622 0.525330 0.385132
0.757294 0.590973 0.380005
0.914001 0.639313 0.364380
0.962524 0.685425 0.347443
0.937500 0.685852 0.369293
0.917816 0.708038 0.425476
0.882141 0.733398 0.502777
0.951752 0.776123 0.510529
1.000000 0.903839 0.421295
1.000000 0.903839 0.421295
1.000000 0.906036 0.480438
1.000000 0.875977 0.519379
1.000000 0.889526 0.610352
0.077393 0.035553 0.477936
0.290192 0.035522 0.477936
0.498383 0.035553 0.477783
0.747955 0.103577 0.462219
0.937256 0.172638 0.439331
0.069031 0.259460 0.478455
0.273651 0.238831 0.482483
0.502594 0.239655 0.480591
0.749969 0.296844 0.450500
0.937775 0.351440 0.425964
0.434479 0.480865 0.480865
0.429810 0.481140 0.481140
0.498566 0.477386 0.477386
0.750305 0.520477 0.460327
0.937958 0.561981 0.442810
0.841919 0.689270 0.474457
0.813416 0.690155 0.498077
0.774963 0.691376 0.531067
0.768005 0.710022 0.564880
0.905762 0.758606 0.568909
1.000000 0.902802 0.508575
1.000000 0.902527 0.557373
1.000000 0.902496 0.579926
1.000000 0.892609 0.606750
1.000000 0.885437 0.654968
0.077148 0.035370 0.692810
0.289551 0.035370 0.692810
0.497589 0.035370 0.692810
0.704865 0.035370 0.692780
0.924347 0.102844 0.686829
0.068542 0.258240 0.693054
0.266205 0.232208 0.695435
0.492035 0.232208 0.695435
0.707367 0.232391 0.694885
0.925018 0.289093 0.678467
0.177887 0.473175 0.694489
0.260101 0.468628 0.695953
0.476288 0.451843 0.698425
0.710205 0.452576 0.696899
0.925629 0.495819 0.670319
0.609375 0.696869 0.696869
0.604858 0.696991 0.696991
0.600189 0.697144 0.697144
0.704956 0.692596 0.692596
0.925262 0.720093 0.683167
1.000000 0.903168 0.674774
1.000000 0.903381 0.687683
0.984924 0.904114 0.711273
0.946716 0.906311 0.743347
0.914673 0.895203 0.750916
0.077087 0.035339 0.907837
0.289368 0.035309 0.907837
0.497192 0.035309 0.907837
0.704407 0.035309 0.907837
0.911438 0.035278 0.907837
0.068359 0.257813 0.907898
0.263306 0.229584 0.908539
0.487030 0.229584 0.908539
0.701080 0.229584 0.908539
0.912109 0.229614 0.908447
0.068359 0.475769 0.907898
0.256653 0.462860 0.908691
0.463440 0.439575 0.909821
0.693237 0.439575 0.909821
0.913330 0.439697 0.909515
0.344299 0.684418 0.909241
0.340363 0.684631 0.909210
0.460724 0.679230 0.909912
0.685425 0.671722 0.910431
0.913940 0.671875 0.910004
0.787384 0.909882 0.909882
0.782898 0.909912 0.909912
0.778412 0.909973 0.909973
0.773895 0.910004 0.910004
0.911407 0.907776 0.907776
