luts/Soft Autumn .CUBE
#Created by: Adobe Photoshop Export Color Lookup Plugin
#Copyright: (C) Copyright 2017 rafyA
TITLE "IMG_1604.JPG"
#LUT size
LUT_3D_SIZE 8
#data domain
#LUT data points
DOMAIN_MIN 0.000000 0.000000 0.000000
DOMAIN_MAX 0.903226 0.903226 0.903226
0.084625 0.046783 0.046783
0.269379 0.092407 0.037872
0.433319 0.142090 0.036255
0.577057 0.191284 0.036713
0.699768 0.239685 0.038971
0.802155 0.286926 0.042053
0.882965 0.333496 0.047150
0.942047 0.378967 0.054352
0.279968 0.167542 0.075348
0.316223 0.220093 0.132965
0.413635 0.275452 0.134949
0.557312 0.320740 0.130890
0.680939 0.363739 0.130249
0.783203 0.405243 0.132446
0.865845 0.445435 0.135254
0.926727 0.484283 0.140503
0.473694 0.290009 0.107941
0.500916 0.333801 0.158081
0.516266 0.377075 0.219452
0.593903 0.425568 0.228973
0.677704 0.470184 0.225952
0.769287 0.508667 0.223450
0.852783 0.543976 0.223999
0.914886 0.577179 0.227295
0.667175 0.412415 0.141357
0.682800 0.453430 0.197144
0.678406 0.472504 0.233887
0.685822 0.516663 0.304749
0.737183 0.554474 0.321198
0.815704 0.595398 0.317017
0.879303 0.629272 0.314972
0.932220 0.658813 0.315948
0.860413 0.534607 0.175232
0.858246 0.570892 0.238892
0.851044 0.583466 0.266663
0.822021 0.594086 0.312317
0.825043 0.638885 0.388916
0.864655 0.669250 0.403748
0.919769 0.700836 0.405945
0.971924 0.728577 0.404358
1.000000 0.657135 0.209900
1.000000 0.683624 0.270844
1.000000 0.692719 0.302643
0.981537 0.694733 0.339417
0.945679 0.707275 0.395477
0.933868 0.743835 0.471893
0.963623 0.767242 0.484222
0.991302 0.787781 0.493500
1.000000 0.781372 0.245605
1.000000 0.798248 0.303497
1.000000 0.803711 0.341522
1.000000 0.797638 0.371765
1.000000 0.792816 0.414642
1.000000 0.804749 0.478424
1.000000 0.831757 0.552124
1.000000 0.848846 0.560364
1.000000 0.905853 0.277161
1.000000 0.912994 0.331024
1.000000 0.914063 0.374817
1.000000 0.899384 0.396759
1.000000 0.885345 0.433655
1.000000 0.873596 0.483063
1.000000 0.885040 0.551422
1.000000 0.903290 0.624054
0.081848 0.041260 0.171051
0.203705 0.039795 0.170227
0.378204 0.077209 0.150726
0.532959 0.116455 0.131500
0.667847 0.178802 0.133789
0.783020 0.229645 0.127411
0.878876 0.278870 0.121643
0.955353 0.326691 0.116272
0.186462 0.169952 0.169952
0.203430 0.169678 0.169678
0.379425 0.207703 0.153351
0.533356 0.249268 0.141724
0.666901 0.292358 0.134705
0.778381 0.335571 0.132019
0.870697 0.377380 0.129608
0.940094 0.418793 0.130981
0.403015 0.290680 0.178802
0.380554 0.291565 0.200043
0.407867 0.334412 0.248627
0.512695 0.382233 0.243042
0.646851 0.420288 0.230896
0.759216 0.456696 0.224121
0.852478 0.492065 0.218903
0.923737 0.526184 0.217285
0.588623 0.412201 0.216766
0.574371 0.412537 0.229492
0.592926 0.446991 0.271729
0.599640 0.480774 0.324524
0.669617 0.522125 0.328888
0.749512 0.560425 0.318237
0.837616 0.592102 0.310120
0.909821 0.620880 0.305878
0.768829 0.533813 0.260864
0.767242 0.533844 0.260925
0.774445 0.565674 0.309387
0.761597 0.575195 0.337433
0.760590 0.609863 0.399536
0.804871 0.640686 0.410522
0.876526 0.674896 0.401062
0.932617 0.701996 0.394226
0.961060 0.655090 0.293518
0.959473 0.655121 0.293579
0.948975 0.682220 0.350403
0.933533 0.685211 0.369202
0.896362 0.686401 0.406189
0.891022 0.721558 0.473511
0.925507 0.745544 0.482025
0.971100 0.769653 0.480225
1.000000 0.779663 0.330078
1.000000 0.779663 0.330017
1.000000 0.796906 0.383179
1.000000 0.796234 0.406403
1.000000 0.788239 0.434662
1.000000 0.789825 0.480225
0.991364 0.815857 0.545319
1.000000 0.833313 0.550537
1.000000 0.904755 0.358337
1.000000 0.904755 0.358368
1.000000 0.911987 0.407227
1.000000 0.907379 0.435242
1.000000 0.890930 0.456573
1.000000 0.875885 0.491455
1.000000 0.877563 0.545898
1.000000 0.894287 0.609100
0.078156 0.036041 0.293976
0.201752 0.036041 0.293976
0.321564 0.036102 0.293488
0.486176 0.075378 0.280792
0.631226 0.114746 0.263123
0.756592 0.154419 0.247070
0.862274 0.194366 0.232178
0.948334 0.253326 0.234833
0.070435 0.166077 0.294922
0.194183 0.154694 0.297180
0.324432 0.155823 0.294434
0.488190 0.191772 0.273041
0.632751 0.225464 0.254700
0.757568 0.277618 0.255646
0.862610 0.321014 0.247833
0.948334 0.364044 0.241333
0.286804 0.293671 0.293671
0.284119 0.293945 0.293945
0.321625 0.292786 0.292786
0.488495 0.325623 0.279572
0.633148 0.358368 0.265808
0.757568 0.393219 0.255646
0.861542 0.429169 0.248962
0.944550 0.465118 0.245300
0.519409 0.414459 0.290100
0.502777 0.415192 0.304901
0.480255 0.415924 0.325104
0.499847 0.448151 0.360687
0.612427 0.490173 0.358246
0.737976 0.521484 0.344696
0.841919 0.550751 0.335602
0.925812 0.579346 0.329163
0.718567 0.534729 0.312927
0.688507 0.535797 0.341705
0.674103 0.536438 0.355011
0.684235 0.560883 0.387482
0.682831 0.584106 0.427673
0.742767 0.620087 0.433075
0.824554 0.652191 0.423279
0.910034 0.677582 0.413452
0.905548 0.655426 0.348938
0.867981 0.656372 0.384796
0.866364 0.656433 0.384857
0.865143 0.678619 0.424347
0.844147 0.678284 0.442627
0.834930 0.702515 0.492676
0.869934 0.728088 0.503632
0.931000 0.756989 0.495880
1.000000 0.778748 0.394440
1.000000 0.778473 0.418732
1.000000 0.778473 0.418762
1.000000 0.795715 0.466370
1.000000 0.788025 0.474579
0.970123 0.778961 0.501160
0.956696 0.803558 0.556122
0.981964 0.822296 0.564423
1.000000 0.903687 0.431946
1.000000 0.903534 0.442719
1.000000 0.903534 0.442688
1.000000 0.910919 0.486267
1.000000 0.899902 0.500214
1.000000 0.881561 0.521179
1.000000 0.873047 0.558960
1.000000 0.888336 0.613098
0.077545 0.035645 0.416565
0.200562 0.035645 0.416565
0.320465 0.035645 0.416565
0.439423 0.035645 0.416351
0.594269 0.074524 0.408539
0.729492 0.113739 0.394043
0.845062 0.153229 0.379669
0.940948 0.193085 0.364960
0.069305 0.164032 0.417206
0.187988 0.149506 0.419312
0.318237 0.149506 0.419312
0.441986 0.149963 0.417999
0.596039 0.186279 0.403351
0.730713 0.221161 0.385986
0.845764 0.256195 0.369934
0.941223 0.291565 0.357941
0.133301 0.289368 0.418884
0.181458 0.286163 0.420166
0.309723 0.275635 0.421570
0.444061 0.277130 0.418549
0.597382 0.309387 0.397797
0.731720 0.337708 0.380768
0.846375 0.366486 0.366730
0.941437 0.416748 0.374084
0.385071 0.418701 0.418701
0.382355 0.418884 0.418884
0.379700 0.419037 0.419037
0.439636 0.415863 0.415863
0.596741 0.444092 0.405914
0.731842 0.470001 0.393372
0.846466 0.497040 0.382660
0.941437 0.525177 0.374084
0.628510 0.538208 0.407654
0.619202 0.538452 0.413971
0.602905 0.538910 0.426666
0.581146 0.539703 0.443939
0.592621 0.562073 0.467499
0.711487 0.597992 0.473480
0.828217 0.623383 0.460327
0.923584 0.645966 0.450134
0.836761 0.657501 0.421295
0.817566 0.658325 0.438873
0.787537 0.659454 0.466858
0.773315 0.659882 0.478912
0.775330 0.673859 0.499420
0.765900 0.686920 0.528503
0.816040 0.717529 0.534515
0.904755 0.743988 0.528748
1.000000 0.778168 0.449921
1.000000 0.777985 0.474243
0.966095 0.779388 0.510956
0.964569 0.779480 0.511047
0.955170 0.791412 0.539215
0.926270 0.780762 0.545959
0.908997 0.794678 0.584625
0.934784 0.815063 0.595154
1.000000 0.903107 0.476593
1.000000 0.902802 0.507690
1.000000 0.902618 0.532715
1.000000 0.902618 0.532745
1.000000 0.909607 0.569702
1.000000 0.891724 0.571411
1.000000 0.871674 0.591156
1.000000 0.885559 0.636200
0.077301 0.035461 0.539307
0.200134 0.035461 0.539307
0.319794 0.035461 0.539307
0.438751 0.035461 0.539307
0.557404 0.035461 0.539215
0.702423 0.074066 0.535339
0.827820 0.113037 0.523560
0.933563 0.152405 0.511719
0.068848 0.163239 0.539734
0.185333 0.147247 0.541321
0.314117 0.147247 0.541321
0.437927 0.147247 0.541321
0.559265 0.147461 0.540649
0.703705 0.183105 0.531799
0.828613 0.218262 0.517609
0.933868 0.253448 0.504059
0.068848 0.290466 0.539734
0.178070 0.281189 0.542053
0.300354 0.267120 0.544037
0.434784 0.267120 0.544037
0.561829 0.267822 0.542419
0.705231 0.300781 0.526978
0.829468 0.330933 0.510712
0.934204 0.360962 0.495911
0.228729 0.411346 0.543243
0.226349 0.411377 0.543182
0.295654 0.407532 0.544525
0.426727 0.398621 0.545013
0.562744 0.399963 0.542358
0.705780 0.427979 0.523285
0.829895 0.451233 0.507874
0.934387 0.474670 0.496216
0.484161 0.542847 0.542847
0.481506 0.542969 0.542969
0.478851 0.543091 0.543091
0.476196 0.543213 0.543213
0.557556 0.538910 0.538910
0.704529 0.562225 0.531769
0.829742 0.582672 0.521729
0.934418 0.603088 0.512146
0.731201 0.661377 0.528046
0.728333 0.661469 0.528198
0.719147 0.661804 0.533783
0.703247 0.662598 0.544525
0.680664 0.664795 0.564789
0.691132 0.676331 0.581940
0.810608 0.705658 0.587708
0.918427 0.725433 0.575531
0.948425 0.780182 0.535980
0.934875 0.780579 0.546722
0.915955 0.781158 0.562714
0.886139 0.782135 0.588898
0.872009 0.782593 0.600372
0.865936 0.786469 0.610413
0.848480 0.789551 0.628479
0.897278 0.814178 0.637299
1.000000 0.902557 0.547241
1.000000 0.902496 0.565399
1.000000 0.902496 0.591125
1.000000 0.902649 0.628174
1.000000 0.902649 0.628204
1.000000 0.904022 0.647064
1.000000 0.882721 0.647614
0.982300 0.886444 0.676422
0.077179 0.035400 0.662109
0.199860 0.035400 0.662109
0.319366 0.035400 0.662109
0.438263 0.035400 0.662109
0.556976 0.035370 0.662109
0.675385 0.035370 0.662079
0.810577 0.073792 0.659241
0.926208 0.112610 0.652161
0.068604 0.162811 0.662384
0.183960 0.146118 0.663452
0.312073 0.146118 0.663452
0.435181 0.146118 0.663452
0.556458 0.146118 0.663452
0.676636 0.146179 0.663116
0.811371 0.181274 0.658142
0.926544 0.216278 0.647369
0.068604 0.289734 0.662384
0.176270 0.278687 0.663971
0.295380 0.262634 0.665619
0.427917 0.262634 0.665619
0.554962 0.262634 0.665619
0.678711 0.262939 0.664795
0.812500 0.295197 0.655090
0.926971 0.325958 0.641479
0.100494 0.413452 0.662750
0.176270 0.409760 0.663971
0.290009 0.400024 0.666138
0.415436 0.388000 0.667572
0.551331 0.388000 0.667572
0.680542 0.388672 0.666077
0.813416 0.417572 0.651001
0.927307 0.442780 0.636353
0.326050 0.533630 0.666748
0.323669 0.533691 0.666687
0.321411 0.533813 0.666656
0.412506 0.529755 0.667786
0.544891 0.523163 0.667542
0.680542 0.524078 0.665558
0.813385 0.546906 0.648560
0.927368 0.565186 0.634766
0.584229 0.666168 0.666168
0.581604 0.666260 0.666260
0.578979 0.666351 0.666351
0.576324 0.666443 0.666443
0.573700 0.666504 0.666504
0.675476 0.661865 0.661865
0.812042 0.680023 0.656952
0.927155 0.695374 0.649597
0.832703 0.784393 0.647705
0.830444 0.784515 0.647125
0.827606 0.784698 0.646912
0.818207 0.785583 0.653625
0.801514 0.787354 0.669617
0.777252 0.788452 0.691742
0.798218 0.788788 0.697510
0.909027 0.812958 0.702057
1.000000 0.902802 0.645752
1.000000 0.902893 0.654114
1.000000 0.903046 0.665863
1.000000 0.903320 0.683472
0.983704 0.904144 0.710571
0.969604 0.904724 0.721558
0.955536 0.898621 0.721283
0.929993 0.892365 0.731323
0.077118 0.035339 0.784973
0.199799 0.035339 0.784973
0.319183 0.035339 0.784973
0.438080 0.035339 0.784973
0.556671 0.035339 0.784973
0.675018 0.035339 0.784973
0.793427 0.035309 0.784943
0.918823 0.073639 0.783112
0.068451 0.162659 0.785126
0.183197 0.145508 0.785736
0.310883 0.145508 0.785736
0.433533 0.145508 0.785736
0.554535 0.145508 0.785736
0.674652 0.145508 0.785736
0.794128 0.145508 0.785583
0.919128 0.180145 0.782135
0.068451 0.289368 0.785126
0.175293 0.277222 0.786041
0.292480 0.260010 0.787109
0.423950 0.260010 0.787109
0.549896 0.260010 0.787109
0.673492 0.260010 0.787109
0.795471 0.260132 0.786743
0.919647 0.291656 0.780609
0.068451 0.414063 0.785126
0.175293 0.407654 0.786041
0.286682 0.395660 0.787476
0.408569 0.381531 0.788696
0.542511 0.381531 0.788696
0.671356 0.381531 0.788696
0.796967 0.381805 0.787994
0.920166 0.410095 0.778564
0.193054 0.534302 0.786255
0.190948 0.534393 0.786224
0.286682 0.529175 0.787476
0.405121 0.520538 0.788940
0.532928 0.511627 0.789734
0.668060 0.511627 0.789734
0.797943 0.512054 0.788727
0.920502 0.535828 0.775116
0.424927 0.655731 0.789154
0.422729 0.655914 0.789124
0.420197 0.655945 0.789093
0.417877 0.656036 0.789093
0.531464 0.652496 0.789795
0.664154 0.648743 0.789215
0.797455 0.649170 0.788055
0.920319 0.665955 0.773682
0.685303 0.788605 0.788605
0.682678 0.788635 0.788635
0.680084 0.788696 0.788696
0.677521 0.788757 0.788757
0.674896 0.788788 0.788788
0.672272 0.788849 0.788849
0.793427 0.784821 0.784821
0.919464 0.797516 0.781616
0.932404 0.907715 0.773132
0.930206 0.907959 0.773224
0.927856 0.908173 0.773529
0.924896 0.908478 0.774445
0.915405 0.909393 0.782349
0.897827 0.909790 0.796906
0.873230 0.909576 0.817291
0.904877 0.900574 0.813171
0.077087 0.035339 0.907837
0.199646 0.035339 0.907837
0.319061 0.035309 0.907837
0.437836 0.035309 0.907837
0.556488 0.035309 0.907837
0.674896 0.035309 0.907837
0.793213 0.035309 0.907837
0.911438 0.035278 0.907837
0.068359 0.162415 0.907898
0.182709 0.145111 0.908142
0.310272 0.145111 0.908142
0.432587 0.145111 0.908142
0.553314 0.145111 0.908142
0.673248 0.145111 0.908142
0.792542 0.145111 0.908142
0.911713 0.145111 0.908081
0.068359 0.289124 0.907898
0.174652 0.276428 0.908264
0.290680 0.258362 0.908722
0.421417 0.258362 0.908722
0.546783 0.258362 0.908722
0.669769 0.258362 0.908722
0.791443 0.258362 0.908722
0.912262 0.258392 0.908600
0.068359 0.413666 0.907898
0.174652 0.406403 0.908264
0.284576 0.392883 0.908875
0.404114 0.377350 0.909454
0.536743 0.377350 0.909454
0.664398 0.377350 0.909454
0.789520 0.377350 0.909454
0.912994 0.377441 0.909210
0.070892 0.537659 0.907898
0.174652 0.533386 0.908264
0.284576 0.525665 0.908875
0.400330 0.514496 0.909576
0.524780 0.503754 0.910126
0.658020 0.503754 0.910126
0.787201 0.503754 0.910126
0.913635 0.503906 0.909790
0.287262 0.654755 0.908875
0.285095 0.654846 0.908875
0.284576 0.654877 0.908875
0.400330 0.648956 0.909576
0.523010 0.642273 0.910217
0.652649 0.637482 0.910461
0.785065 0.637482 0.910461
0.913940 0.637634 0.910034
0.525940 0.777618 0.910217
0.523224 0.777557 0.910217
0.520966 0.777710 0.910187
0.518463 0.777710 0.910187
0.523010 0.777679 0.910217
0.652252 0.775513 0.910461
0.784424 0.775055 0.910004
0.913513 0.775146 0.909607
0.787384 0.909882 0.909882
0.784851 0.909912 0.909912
0.782288 0.909943 0.909943
0.779663 0.909943 0.909943
0.777130 0.909973 0.909973
0.774567 0.910004 0.910004
0.784454 0.909912 0.909912
0.911407 0.907776 0.907776
