luts/Vintage Spring.CUBE
#Created by: Adobe Photoshop Export Color Lookup Plugin
#Copyright: (C) Copyright 2017 rafyA
TITLE "vintage spring.JPG"
#LUT size
LUT_3D_SIZE 32
#data domain
DOMAIN_MIN 0.0 0.0 0.0
DOMAIN_MAX 1.0 1.0 1.0
#LUT data points
0.058838 0.000000 0.188232
0.085449 0.006653 0.189545
0.112396 0.013458 0.190887
0.139740 0.020325 0.192230
0.167419 0.027344 0.193604
0.195496 0.034424 0.195007
0.223969 0.041656 0.196411
0.252808 0.048981 0.197876
0.282104 0.056427 0.199341
0.311829 0.063965 0.200806
0.342010 0.071625 0.202332
0.372650 0.079376 0.203857
0.403809 0.087250 0.205414
0.435486 0.095245 0.206970
0.467682 0.103333 0.208588
0.500427 0.111542 0.210205
0.533630 0.119843 0.211823
0.566681 0.128052 0.213440
0.599396 0.136139 0.215057
0.631897 0.144135 0.216614
0.664124 0.152008 0.218140
0.696075 0.159760 0.219696
0.727753 0.167419 0.221222
0.759155 0.174957 0.222687
0.790405 0.182404 0.224152
0.821289 0.189728 0.225616
0.851959 0.196960 0.227051
0.882385 0.204071 0.228455
0.912445 0.211060 0.229828
0.942139 0.217926 0.231201
0.971344 0.224731 0.232544
1.000000 0.231384 0.233856
0.082153 0.028351 0.188232
0.098663 0.023468 0.188507
0.125305 0.030182 0.189850
0.153992 0.039154 0.191071
0.182800 0.048065 0.192291
0.210388 0.054962 0.193726
0.238342 0.061951 0.195129
0.266693 0.069061 0.196533
0.295502 0.076294 0.198029
0.324707 0.083618 0.199524
0.354370 0.091034 0.201019
0.384491 0.098602 0.202545
0.415131 0.106262 0.204102
0.446228 0.114044 0.205658
0.477875 0.121857 0.207275
0.510071 0.129852 0.208862
0.542694 0.137909 0.210510
0.575134 0.145844 0.212128
0.607300 0.153778 0.213715
0.639191 0.161438 0.215302
0.670837 0.169189 0.216858
0.702209 0.176697 0.218384
0.733307 0.184113 0.219879
0.764099 0.191437 0.221375
0.794739 0.198700 0.222839
0.825012 0.205811 0.224304
0.855072 0.212830 0.225739
0.884888 0.219727 0.227112
0.914307 0.226410 0.228516
0.943359 0.233124 0.229858
0.971985 0.239807 0.231201
1.000000 0.246246 0.232544
0.105591 0.056305 0.188232
0.134552 0.055176 0.188232
0.138336 0.046234 0.188812
0.163239 0.050812 0.190308
0.191925 0.059692 0.191498
0.220886 0.068634 0.192780
0.250214 0.077698 0.194031
0.279755 0.086792 0.195313
0.309113 0.095215 0.196716
0.337830 0.102295 0.198181
0.366943 0.109528 0.199677
0.396576 0.116852 0.201202
0.426636 0.124268 0.202759
0.457184 0.131744 0.204346
0.488251 0.139404 0.205933
0.519867 0.147156 0.207550
0.551910 0.154968 0.209167
0.583740 0.162659 0.210785
0.615326 0.170319 0.212372
0.646637 0.177826 0.213959
0.677612 0.185211 0.215515
0.708435 0.192596 0.217041
0.738922 0.199738 0.218567
0.769135 0.206909 0.220032
0.799133 0.213898 0.221527
0.828796 0.220734 0.222961
0.858246 0.227631 0.224365
0.887421 0.234283 0.225800
0.916229 0.240845 0.227142
0.944672 0.247375 0.228546
0.972595 0.253723 0.229858
1.000000 0.259979 0.231201
0.129028 0.083771 0.188232
0.164368 0.081635 0.188232
0.179718 0.080688 0.188232
0.177765 0.068207 0.189117
0.201050 0.070862 0.190765
0.229736 0.079620 0.191986
0.258728 0.088470 0.193268
0.288025 0.097351 0.194550
0.317657 0.106293 0.195862
0.347565 0.115295 0.197174
0.377838 0.124359 0.198517
0.408447 0.133514 0.199890
0.438416 0.141235 0.201416
0.468414 0.148529 0.202972
0.498840 0.155884 0.204590
0.529877 0.163391 0.206177
0.561310 0.170929 0.207825
0.592560 0.178436 0.209442
0.623505 0.185822 0.211029
0.654205 0.193085 0.212585
0.684631 0.200256 0.214172
0.714752 0.207306 0.215698
0.744659 0.214355 0.217194
0.774231 0.221191 0.218689
0.803619 0.228027 0.220154
0.832642 0.234680 0.221588
0.861450 0.241272 0.223022
0.889984 0.247742 0.224426
0.918152 0.254150 0.225800
0.945923 0.260376 0.227142
0.973236 0.266632 0.228516
1.000000 0.272675 0.229828
0.152588 0.110687 0.188232
0.193848 0.107300 0.188232
0.209259 0.105988 0.188232
0.224487 0.104706 0.188232
0.216980 0.089355 0.189392
0.239990 0.091827 0.191101
0.267395 0.098907 0.192474
0.296387 0.107574 0.193787
0.325684 0.116302 0.195099
0.355316 0.125092 0.196381
0.385284 0.133942 0.197754
0.415588 0.142853 0.199127
0.446289 0.151825 0.200500
0.477264 0.160797 0.201904
0.508636 0.169800 0.203308
0.540039 0.178467 0.204803
0.570892 0.185730 0.206451
0.601501 0.192963 0.208038
0.631805 0.200104 0.209656
0.661926 0.207184 0.211212
0.691742 0.214142 0.212769
0.721252 0.220978 0.214325
0.750488 0.227753 0.215820
0.779449 0.234375 0.217316
0.808167 0.240936 0.218781
0.836548 0.247375 0.220184
0.864746 0.253723 0.221649
0.892639 0.260040 0.223053
0.920135 0.266235 0.224426
0.947205 0.272278 0.225800
0.973907 0.278229 0.227112
1.000000 0.284119 0.228455
0.176208 0.137024 0.188232
0.216919 0.132721 0.188232
0.238647 0.130402 0.188232
0.253662 0.128784 0.188232
0.271942 0.125916 0.188324
0.255951 0.109589 0.189697
0.278992 0.112213 0.191406
0.304840 0.117523 0.192993
0.333923 0.126038 0.194275
0.363190 0.134583 0.195618
0.392853 0.143219 0.196960
0.422913 0.151917 0.198303
0.453217 0.160614 0.199707
0.483917 0.169403 0.201080
0.514954 0.178192 0.202545
0.546326 0.187012 0.203949
0.577942 0.195801 0.205444
0.609314 0.204529 0.206848
0.640137 0.212952 0.208282
0.669800 0.220062 0.209808
0.698914 0.226746 0.211365
0.727814 0.233368 0.212921
0.756409 0.239899 0.214417
0.784729 0.246277 0.215912
0.812775 0.252594 0.217346
0.840546 0.258850 0.218842
0.868042 0.264984 0.220245
0.895294 0.271027 0.221649
0.922119 0.277008 0.223053
0.948547 0.282867 0.224365
0.974548 0.288666 0.225739
1.000000 0.294342 0.227051
0.199829 0.162720 0.188232
0.239960 0.157562 0.188232
0.268158 0.153839 0.188232
0.282867 0.151886 0.188232
0.297699 0.149872 0.188232
0.310486 0.144073 0.188568
0.294708 0.128906 0.190002
0.317780 0.131714 0.191772
0.342255 0.135437 0.193451
0.371246 0.143799 0.194794
0.400574 0.152161 0.196136
0.430267 0.160614 0.197479
0.460266 0.169067 0.198883
0.490601 0.177551 0.200287
0.521301 0.186157 0.201721
0.552338 0.194733 0.203156
0.583618 0.203278 0.204620
0.614563 0.211700 0.206055
0.645050 0.219910 0.207489
0.675079 0.227936 0.208893
0.704651 0.235748 0.210266
0.733795 0.243408 0.211639
0.762451 0.250732 0.213013
0.790070 0.256927 0.214478
0.817505 0.263031 0.215942
0.844604 0.269012 0.217377
0.871460 0.274933 0.218811
0.898010 0.280792 0.220215
0.924133 0.286499 0.221619
0.949921 0.292175 0.222961
0.975220 0.297729 0.224304
1.000000 0.303162 0.225616
0.223480 0.187775 0.188232
0.263062 0.181671 0.188232
0.297485 0.176270 0.188232
0.311920 0.173950 0.188232
0.326416 0.171631 0.188232
0.341156 0.169250 0.188232
0.348663 0.161102 0.188904
0.333221 0.147186 0.190308
0.356354 0.150177 0.192108
0.380005 0.153198 0.193909
0.408417 0.160736 0.195313
0.437775 0.168884 0.196686
0.467438 0.177124 0.198059
0.497437 0.185394 0.199463
0.527771 0.193695 0.200897
0.558411 0.201996 0.202332
0.589417 0.210358 0.203796
0.619904 0.218475 0.205200
0.650024 0.226440 0.206665
0.679718 0.234253 0.208038
0.708954 0.241852 0.209442
0.737732 0.249268 0.210785
0.765991 0.256439 0.212158
0.793884 0.263519 0.213470
0.821381 0.270416 0.214783
0.848358 0.277100 0.216095
0.874908 0.283539 0.217346
0.900757 0.289093 0.218781
0.926208 0.294647 0.220154
0.951263 0.300049 0.221527
0.975922 0.305420 0.222839
1.000000 0.310669 0.224152
0.247192 0.212128 0.188232
0.286285 0.205109 0.188232
0.325134 0.197968 0.188232
0.340912 0.195007 0.188232
0.355286 0.192291 0.188232
0.369537 0.189575 0.188232
0.384094 0.186768 0.188232
0.386688 0.177094 0.189178
0.371521 0.164429 0.190643
0.394592 0.167572 0.192444
0.418335 0.170837 0.194275
0.445404 0.176849 0.195862
0.474762 0.184845 0.197235
0.504425 0.192871 0.198639
0.534363 0.200867 0.200043
0.564697 0.208984 0.201508
0.595245 0.217041 0.202972
0.625427 0.224884 0.204407
0.655121 0.232605 0.205811
0.684418 0.240112 0.207245
0.713257 0.247498 0.208618
0.741608 0.254608 0.209961
0.769562 0.261627 0.211334
0.797058 0.268433 0.212646
0.824188 0.275116 0.213959
0.850739 0.281555 0.215271
0.876953 0.287872 0.216522
0.902679 0.294067 0.217773
0.927856 0.300018 0.218994
0.952484 0.305847 0.220184
0.976563 0.311554 0.221436
1.000000 0.316711 0.222687
0.270874 0.238403 0.188232
0.309448 0.230988 0.188232
0.347778 0.223450 0.188232
0.369873 0.218994 0.188232
0.383911 0.216156 0.188232
0.398102 0.213226 0.188232
0.412323 0.210297 0.188232
0.430756 0.206451 0.188232
0.424316 0.191833 0.189453
0.409424 0.180511 0.190948
0.432556 0.183868 0.192810
0.456360 0.187286 0.194672
0.482178 0.192108 0.196381
0.511414 0.199829 0.197784
0.541077 0.207642 0.199188
0.570984 0.215424 0.200653
0.601196 0.223267 0.202118
0.631012 0.230896 0.203552
0.660278 0.238312 0.204956
0.689240 0.245605 0.206390
0.717651 0.252686 0.207764
0.745697 0.259644 0.209137
0.773163 0.266327 0.210480
0.800293 0.272919 0.211792
0.826965 0.279327 0.213104
0.853180 0.285583 0.214386
0.878967 0.291656 0.215668
0.904327 0.297577 0.216919
0.929047 0.303375 0.218140
0.953308 0.308960 0.219360
0.976990 0.314453 0.220551
1.000000 0.320679 0.221741
0.294617 0.268890 0.188232
0.332642 0.261810 0.188232
0.370422 0.254608 0.188232
0.398560 0.249115 0.188232
0.412476 0.246368 0.188232
0.426392 0.243591 0.188232
0.440277 0.240784 0.188232
0.454254 0.237946 0.188232
0.475952 0.232391 0.188293
0.461609 0.210144 0.189789
0.447052 0.195435 0.191284
0.470215 0.198975 0.193146
0.494049 0.202606 0.195038
0.518646 0.206451 0.196930
0.547882 0.213959 0.198334
0.577423 0.221497 0.199799
0.607208 0.229034 0.201233
0.636658 0.236420 0.202698
0.665588 0.243591 0.204102
0.694092 0.250610 0.205536
0.722137 0.257446 0.206909
0.749725 0.264099 0.208282
0.776886 0.270630 0.209595
0.803558 0.276917 0.210938
0.829865 0.283081 0.212250
0.855652 0.289795 0.213531
0.881042 0.296936 0.214813
0.905945 0.303833 0.216064
0.930298 0.310608 0.217285
0.954102 0.317169 0.218536
0.977386 0.323700 0.219696
1.000000 0.330139 0.220856
0.318359 0.300232 0.188232
0.355835 0.293518 0.188232
0.393097 0.286652 0.188232
0.427338 0.280182 0.188232
0.440826 0.277618 0.188232
0.454529 0.274963 0.188232
0.468201 0.272278 0.188232
0.481903 0.269592 0.188232
0.495850 0.266815 0.188232
0.512543 0.257202 0.188568
0.498535 0.233795 0.190094
0.484344 0.211334 0.191620
0.507507 0.212860 0.193512
0.531342 0.216705 0.195404
0.555756 0.220581 0.197327
0.584015 0.227081 0.198914
0.613342 0.234314 0.200378
0.642365 0.241425 0.201813
0.670898 0.248352 0.203217
0.699066 0.255127 0.204651
0.726654 0.262970 0.206024
0.753876 0.270752 0.207397
0.780579 0.278259 0.208740
0.806854 0.285645 0.210083
0.832764 0.293091 0.211365
0.858124 0.300140 0.212646
0.883118 0.307281 0.213959
0.907593 0.313995 0.215210
0.931549 0.320862 0.216400
0.954956 0.327454 0.217651
0.977814 0.333862 0.218842
1.000000 0.340149 0.220001
0.342072 0.332489 0.188232
0.379059 0.326080 0.188232
0.415710 0.319611 0.188232
0.452209 0.312958 0.188232
0.469177 0.309845 0.188232
0.482391 0.307373 0.188232
0.495880 0.304810 0.188232
0.509277 0.302246 0.188232
0.522949 0.299622 0.188232
0.536438 0.296967 0.188232
0.548615 0.282715 0.188904
0.535004 0.258179 0.190399
0.521210 0.234619 0.191956
0.544342 0.235321 0.193878
0.568146 0.236206 0.195801
0.592621 0.237274 0.197784
0.619629 0.242096 0.199493
0.648285 0.250458 0.200928
0.676331 0.258484 0.202332
0.704041 0.266449 0.203766
0.731232 0.274200 0.205139
0.758026 0.281921 0.206512
0.784424 0.289551 0.207855
0.810242 0.296906 0.209198
0.835724 0.304199 0.210480
0.860687 0.311310 0.211761
0.885223 0.318176 0.213074
0.909302 0.325104 0.214294
0.932831 0.331665 0.215515
0.955811 0.338287 0.216736
0.978241 0.344604 0.217957
1.000000 0.350861 0.219086
0.365814 0.365631 0.188232
0.402252 0.359558 0.188232
0.438324 0.353455 0.188232
0.474213 0.347198 0.188232
0.497162 0.343109 0.188232
0.510254 0.340729 0.188232
0.523560 0.338318 0.188232
0.536560 0.335907 0.188232
0.549896 0.333435 0.188232
0.563080 0.330933 0.188232
0.578094 0.328064 0.188232
0.584137 0.309113 0.189178
0.570923 0.283325 0.190735
0.557617 0.258636 0.192291
0.580719 0.258911 0.194244
0.604492 0.259491 0.196198
0.628937 0.260193 0.198181
0.654175 0.262573 0.200012
0.681854 0.270569 0.201477
0.709167 0.278564 0.202850
0.735962 0.286285 0.204224
0.762360 0.293915 0.205597
0.788269 0.301331 0.206940
0.813660 0.308594 0.208282
0.838745 0.315857 0.209595
0.863281 0.322876 0.210876
0.887360 0.329651 0.212158
0.911011 0.336548 0.213379
0.934082 0.343079 0.214630
0.956665 0.349579 0.215851
0.978638 0.355896 0.217041
1.000000 0.362030 0.218201
0.389465 0.399658 0.188232
0.425293 0.393982 0.188232
0.460876 0.388184 0.188232
0.496124 0.382324 0.188232
0.525116 0.377380 0.188232
0.537720 0.375183 0.188232
0.550568 0.372925 0.188232
0.563568 0.370605 0.188232
0.576508 0.368317 0.188232
0.589447 0.365967 0.188232
0.602539 0.363556 0.188232
0.621979 0.359924 0.188232
0.619080 0.336273 0.189453
0.606354 0.309357 0.191040
0.593536 0.283417 0.192627
0.616547 0.283325 0.194580
0.640198 0.283386 0.196564
0.664001 0.283722 0.198547
0.687805 0.284149 0.200500
0.714325 0.291168 0.201965
0.740753 0.298950 0.203308
0.766693 0.306396 0.204712
0.792145 0.313812 0.206055
0.817200 0.321075 0.207397
0.841797 0.328217 0.208679
0.865845 0.335052 0.209961
0.889587 0.341949 0.211243
0.912750 0.348602 0.212494
0.935394 0.355164 0.213715
0.957489 0.361450 0.214966
0.979095 0.367950 0.216095
1.000000 0.373932 0.217316
0.413086 0.434631 0.188232
0.448425 0.429291 0.188232
0.483398 0.423889 0.188232
0.518066 0.418396 0.188232
0.552338 0.412811 0.188232
0.565125 0.410706 0.188232
0.577820 0.408569 0.188232
0.590179 0.406464 0.188232
0.602814 0.404297 0.188232
0.615540 0.402069 0.188232
0.628204 0.399841 0.188232
0.640930 0.397552 0.188232
0.664673 0.393219 0.188232
0.653320 0.364288 0.189789
0.641113 0.336090 0.191376
0.628845 0.308990 0.192993
0.651733 0.308472 0.194977
0.674744 0.308105 0.196930
0.697815 0.308014 0.198883
0.721008 0.308075 0.200806
0.745544 0.312073 0.202393
0.771088 0.319580 0.203796
0.796082 0.326843 0.205109
0.820709 0.334015 0.206451
0.844879 0.341156 0.207733
0.868561 0.348083 0.209045
0.891754 0.354736 0.210327
0.914490 0.361237 0.211578
0.936707 0.367859 0.212769
0.958374 0.374084 0.214020
0.979492 0.380463 0.215210
1.000000 0.386475 0.216370
0.436584 0.470459 0.188232
0.471344 0.465515 0.188232
0.505768 0.460480 0.188232
0.539795 0.455353 0.188232
0.573364 0.450165 0.188232
0.591919 0.447235 0.188232
0.604248 0.445282 0.188232
0.616577 0.443268 0.188232
0.628876 0.441254 0.188232
0.641266 0.439178 0.188232
0.653595 0.437103 0.188232
0.665802 0.435028 0.188232
0.678192 0.432861 0.188232
0.698273 0.423615 0.188507
0.686768 0.393127 0.190094
0.675079 0.363556 0.191742
0.663391 0.335266 0.193329
0.685669 0.334381 0.195282
0.707977 0.333649 0.197235
0.730377 0.333099 0.199158
0.752777 0.332703 0.201050
0.775513 0.333313 0.202850
0.800140 0.340576 0.204193
0.824280 0.347717 0.205536
0.847992 0.354736 0.206818
0.871216 0.361450 0.208130
0.894012 0.368134 0.209381
0.916321 0.374756 0.210632
0.938049 0.381073 0.211853
0.959259 0.387512 0.213074
0.979950 0.393616 0.214264
1.000000 0.399628 0.215424
0.459473 0.506409 0.188232
0.493591 0.501831 0.188232
0.527496 0.497162 0.188232
0.561035 0.492401 0.188232
0.593903 0.487610 0.188232
0.618164 0.483978 0.188232
0.630157 0.482147 0.188232
0.642120 0.480316 0.188232
0.653809 0.478485 0.188232
0.665741 0.476593 0.188232
0.677795 0.474640 0.188232
0.689819 0.472687 0.188232
0.701843 0.470703 0.188232
0.713837 0.468689 0.188232
0.729309 0.453186 0.188843
0.718414 0.421387 0.190430
0.707306 0.390594 0.192078
0.696472 0.361725 0.193695
0.718048 0.360474 0.195618
0.739655 0.359314 0.197540
0.761292 0.358307 0.199432
0.783020 0.357635 0.201263
0.804779 0.357086 0.203125
0.827789 0.361633 0.204590
0.851044 0.368500 0.205902
0.873901 0.375427 0.207184
0.896240 0.381989 0.208466
0.918091 0.388489 0.209717
0.939362 0.394775 0.210938
0.960114 0.400970 0.212158
0.980377 0.407135 0.213348
1.000000 0.413147 0.214508
0.481720 0.542328 0.188232
0.515350 0.538086 0.188232
0.548645 0.533783 0.188232
0.581451 0.529419 0.188232
0.613770 0.524994 0.188232
0.643005 0.520874 0.188232
0.654663 0.519196 0.188232
0.666382 0.517487 0.188232
0.678040 0.515747 0.188232
0.689545 0.514008 0.188232
0.701263 0.512238 0.188232
0.712830 0.510437 0.188232
0.724609 0.508575 0.188232
0.736176 0.506744 0.188232
0.751923 0.504150 0.188232
0.758423 0.481873 0.189209
0.748108 0.448761 0.190857
0.737946 0.417572 0.192444
0.727966 0.388306 0.194031
0.748840 0.386627 0.195953
0.769684 0.385010 0.197845
0.790680 0.383759 0.199707
0.811676 0.382690 0.201538
0.832672 0.381683 0.203308
0.854156 0.382874 0.204987
0.876495 0.389465 0.206299
0.898376 0.395935 0.207581
0.919800 0.402374 0.208801
0.940674 0.408783 0.210022
0.960999 0.414886 0.211273
0.980804 0.420898 0.212433
1.000000 0.426941 0.213593
0.503296 0.578247 0.188232
0.536255 0.574371 0.188232
0.569000 0.570435 0.188232
0.601288 0.566437 0.188232
0.633118 0.562378 0.188232
0.664307 0.558228 0.188232
0.678345 0.556335 0.188232
0.689606 0.554779 0.188232
0.700897 0.553223 0.188232
0.712250 0.551605 0.188232
0.723602 0.549957 0.188232
0.735016 0.548279 0.188232
0.746338 0.546600 0.188232
0.757507 0.544922 0.188232
0.768494 0.543213 0.188232
0.788879 0.539978 0.188232
0.785797 0.509735 0.189575
0.776337 0.476288 0.191193
0.767059 0.444733 0.192810
0.757935 0.414978 0.194366
0.778076 0.412872 0.196259
0.798279 0.411011 0.198120
0.818512 0.409302 0.199951
0.838776 0.407837 0.201752
0.859039 0.406464 0.203552
0.879364 0.405487 0.205292
0.900543 0.410309 0.206665
0.921539 0.416748 0.207886
0.941925 0.422913 0.209167
0.961853 0.429108 0.210358
0.981232 0.434998 0.211548
1.000000 0.440887 0.212708
0.524200 0.614075 0.188232
0.556763 0.610565 0.188232
0.588745 0.606995 0.188232
0.620514 0.603333 0.188232
0.651733 0.599640 0.188232
0.682190 0.595886 0.188232
0.701141 0.593506 0.188232
0.712219 0.592072 0.188232
0.723114 0.590637 0.188232
0.734039 0.589172 0.188232
0.745087 0.587677 0.188232
0.755890 0.586212 0.188232
0.766846 0.584656 0.188232
0.777679 0.583130 0.188232
0.788361 0.581573 0.188232
0.799042 0.579987 0.188232
0.820251 0.573303 0.188354
0.811554 0.537567 0.190002
0.803040 0.503815 0.191589
0.794586 0.471741 0.193146
0.786316 0.441650 0.194733
0.805756 0.439240 0.196533
0.825226 0.437012 0.198395
0.844727 0.434906 0.200195
0.864288 0.433105 0.201996
0.883850 0.431366 0.203766
0.903412 0.429932 0.205505
0.923218 0.431274 0.207001
0.943207 0.437378 0.208282
0.962708 0.443451 0.209473
0.981659 0.449554 0.210632
1.000000 0.455261 0.211823
0.544495 0.649872 0.188232
0.576447 0.646698 0.188232
0.608063 0.643463 0.188232
0.639008 0.640198 0.188232
0.669647 0.636841 0.188232
0.699554 0.633453 0.188232
0.722870 0.630737 0.188232
0.733582 0.629456 0.188232
0.744110 0.628174 0.188232
0.754791 0.626862 0.188232
0.765228 0.625519 0.188232
0.775970 0.624146 0.188232
0.786621 0.622772 0.188232
0.797089 0.621368 0.188232
0.807343 0.619965 0.188232
0.817657 0.618530 0.188232
0.829132 0.616913 0.188232
0.843658 0.601135 0.188812
0.835846 0.565277 0.190399
0.828156 0.531097 0.191986
0.820618 0.498840 0.193512
0.813171 0.468384 0.195038
0.831909 0.465668 0.196869
0.850647 0.463013 0.198700
0.869476 0.460724 0.200470
0.888275 0.458496 0.202209
0.907074 0.456604 0.203949
0.925842 0.454742 0.205658
0.944550 0.453125 0.207336
0.963501 0.458069 0.208588
0.982025 0.464050 0.209778
1.000000 0.469727 0.210968
0.564148 0.685547 0.188232
0.595551 0.682709 0.188232
0.626526 0.679840 0.188232
0.657135 0.676910 0.188232
0.687012 0.673920 0.188232
0.716309 0.670898 0.188232
0.743683 0.667969 0.188232
0.753906 0.666809 0.188232
0.764130 0.665680 0.188232
0.774841 0.664459 0.188232
0.784943 0.663269 0.188232
0.795074 0.662079 0.188232
0.805298 0.660828 0.188232
0.815277 0.659607 0.188232
0.825165 0.658356 0.188232
0.835052 0.657074 0.188232
0.845032 0.655762 0.188232
0.860565 0.653625 0.188232
0.865570 0.628998 0.189209
0.858643 0.592804 0.190796
0.851807 0.558411 0.192322
0.845062 0.525848 0.193878
0.838470 0.495117 0.195343
0.856506 0.491943 0.197174
0.874603 0.489227 0.198944
0.892639 0.486389 0.200714
0.910736 0.483978 0.202423
0.928772 0.481750 0.204132
0.946686 0.479492 0.205811
0.964569 0.477661 0.207489
0.982483 0.478882 0.208893
1.000000 0.484375 0.210114
0.583221 0.721130 0.188232
0.613983 0.718628 0.188232
0.644470 0.716095 0.188232
0.674316 0.713501 0.188232
0.703674 0.710876 0.188232
0.732300 0.708191 0.188232
0.760193 0.705505 0.188232
0.773468 0.704163 0.188232
0.783630 0.703125 0.188232
0.793457 0.702087 0.188232
0.803436 0.701050 0.188232
0.813171 0.699982 0.188232
0.822845 0.698914 0.188232
0.832764 0.697784 0.188232
0.842285 0.696686 0.188232
0.851746 0.695557 0.188232
0.861115 0.694427 0.188232
0.870056 0.693298 0.188232
0.888855 0.690857 0.188232
0.886017 0.656738 0.189606
0.879974 0.620361 0.191162
0.873993 0.585724 0.192688
0.868073 0.552948 0.194183
0.862305 0.521820 0.195709
0.879639 0.518463 0.197449
0.896973 0.515228 0.199219
0.914307 0.512299 0.200958
0.931610 0.509491 0.202667
0.948853 0.506958 0.204315
0.966003 0.504425 0.205994
0.983093 0.502197 0.207611
1.000000 0.500092 0.209229
0.601685 0.756622 0.188232
0.632019 0.754456 0.188232
0.661835 0.752228 0.188232
0.691193 0.750000 0.188232
0.719849 0.747711 0.188232
0.747772 0.745392 0.188232
0.774994 0.743042 0.188232
0.792297 0.741486 0.188232
0.801880 0.740601 0.188232
0.811310 0.739716 0.188232
0.820862 0.738800 0.188232
0.830688 0.737854 0.188232
0.839935 0.736938 0.188232
0.849152 0.735992 0.188232
0.858246 0.735016 0.188232
0.867310 0.734039 0.188232
0.876465 0.733032 0.188232
0.885040 0.732056 0.188232
0.893311 0.731079 0.188232
0.910370 0.722900 0.188477
0.905060 0.684357 0.190033
0.899811 0.647675 0.191559
0.894653 0.612854 0.193054
0.889618 0.579895 0.194550
0.884613 0.548584 0.196014
0.901215 0.544922 0.197784
0.917847 0.541534 0.199463
0.934448 0.538086 0.201172
0.950928 0.535095 0.202850
0.967377 0.532166 0.204529
0.983765 0.529541 0.206116
1.000000 0.526978 0.207733
0.619537 0.791931 0.188232
0.649323 0.790070 0.188232
0.678528 0.788177 0.188232
0.707245 0.786285 0.188232
0.735321 0.784332 0.188232
0.762604 0.782379 0.188232
0.789215 0.780365 0.188232
0.809937 0.778748 0.188232
0.819275 0.777985 0.188232
0.828400 0.777222 0.188232
0.837799 0.776428 0.188232
0.846832 0.775635 0.188232
0.855682 0.774872 0.188232
0.864594 0.774048 0.188232
0.873657 0.773193 0.188232
0.882202 0.772369 0.188232
0.890686 0.771545 0.188232
0.898743 0.770721 0.188232
0.906708 0.769897 0.188232
0.918274 0.768616 0.188232
0.927124 0.750427 0.188904
0.922638 0.711761 0.190399
0.918243 0.675049 0.191956
0.913910 0.640076 0.193390
0.909637 0.606781 0.194885
0.905396 0.575256 0.196320
0.921326 0.571320 0.198029
0.937195 0.567474 0.199768
0.953003 0.563995 0.201447
0.968750 0.560730 0.203064
0.984436 0.557465 0.204712
1.000000 0.554626 0.206299
0.636841 0.827087 0.188232
0.666107 0.825562 0.188232
0.694794 0.824005 0.188232
0.722870 0.822418 0.188232
0.750244 0.820831 0.188232
0.776978 0.819183 0.188232
0.802826 0.817535 0.188232
0.826782 0.815918 0.188232
0.835663 0.815308 0.188232
0.844757 0.814667 0.188232
0.853394 0.814026 0.188232
0.862091 0.813385 0.188232
0.870758 0.812714 0.188232
0.879425 0.812042 0.188232
0.887756 0.811371 0.188232
0.895966 0.810669 0.188232
0.904053 0.809998 0.188232
0.911987 0.809296 0.188232
0.919281 0.808624 0.188232
0.926239 0.807953 0.188232
0.940155 0.806549 0.188232
0.942474 0.777557 0.189301
0.938843 0.738953 0.190826
0.935242 0.702087 0.192291
0.931702 0.666962 0.193787
0.928223 0.633606 0.195190
0.924744 0.601898 0.196625
0.939911 0.597626 0.198334
0.955017 0.593628 0.200012
0.970093 0.589813 0.201660
0.985107 0.586334 0.203278
1.000000 0.582794 0.204865
0.653595 0.862091 0.188232
0.682220 0.860870 0.188232
0.710358 0.859650 0.188232
0.737854 0.858398 0.188232
0.764771 0.857117 0.188232
0.790741 0.855835 0.188232
0.816010 0.854523 0.188232
0.840240 0.853180 0.188232
0.851288 0.852570 0.188232
0.859894 0.852051 0.188232
0.868317 0.851532 0.188232
0.876556 0.851044 0.188232
0.885071 0.850494 0.188232
0.893097 0.849976 0.188232
0.901031 0.849426 0.188232
0.909119 0.848877 0.188232
