luts/Vintage Spring.CUBE
#Created by: Adobe Photoshop Export Color Lookup Plugin
#Copyright: (C) Copyright 2017 rafyA
TITLE "vintage spring.JPG"
#LUT size
LUT_3D_SIZE 8
#data domain
#LUT data points
DOMAIN_MIN 0.000000 0.000000 0.000000
DOMAIN_MAX 0.903226 0.903226 0.903226
0.058838 0.000000 0.188232
0.167419 0.027344 0.193604
0.282104 0.056427 0.199341
0.403809 0.087250 0.205414
0.533630 0.119843 0.211823
0.664124 0.152008 0.218140
0.790405 0.182404 0.224152
0.912445 0.211060 0.229828
0.152588 0.110687 0.188232
0.216980 0.089355 0.189392
0.325684 0.116302 0.195099
0.446289 0.151825 0.200500
0.570892 0.185730 0.206451
0.691742 0.214142 0.212769
0.808167 0.240936 0.218781
0.920135 0.266235 0.224426
0.247192 0.212128 0.188232
0.355286 0.192291 0.188232
0.371521 0.164429 0.190643
0.474762 0.184845 0.197235
0.595245 0.217041 0.202972
0.713257 0.247498 0.208618
0.824188 0.275116 0.213959
0.927856 0.300018 0.218994
0.342072 0.332489 0.188232
0.469177 0.309845 0.188232
0.522949 0.299622 0.188232
0.521210 0.234619 0.191956
0.619629 0.242096 0.199493
0.731232 0.274200 0.205139
0.835724 0.304199 0.210480
0.932831 0.331665 0.215515
0.436584 0.470459 0.188232
0.573364 0.450165 0.188232
0.628876 0.441254 0.188232
0.678192 0.432861 0.188232
0.663391 0.335266 0.193329
0.752777 0.332703 0.201050
0.847992 0.354736 0.206818
0.938049 0.381073 0.211853
0.524200 0.614075 0.188232
0.651733 0.599640 0.188232
0.723114 0.590637 0.188232
0.766846 0.584656 0.188232
0.820251 0.573303 0.188354
0.786316 0.441650 0.194733
0.864288 0.433105 0.201996
0.943207 0.437378 0.208282
0.601685 0.756622 0.188232
0.719849 0.747711 0.188232
0.801880 0.740601 0.188232
0.839935 0.736938 0.188232
0.876465 0.733032 0.188232
0.905060 0.684357 0.190033
0.884613 0.548584 0.196014
0.950928 0.535095 0.202850
0.669708 0.896881 0.188232
0.778656 0.893158 0.188232
0.866302 0.889618 0.188232
0.898254 0.888092 0.188232
0.928192 0.886475 0.188232
0.953644 0.884888 0.188232
0.967133 0.792877 0.191589
0.959015 0.654968 0.197235
0.058838 0.000000 0.264832
0.161041 0.000000 0.264832
0.276581 0.029083 0.269958
0.399170 0.059937 0.275421
0.529907 0.092499 0.281189
0.661316 0.124664 0.286957
0.788605 0.155060 0.292358
0.911652 0.183685 0.297546
0.058838 0.118134 0.264832
0.161041 0.118134 0.264832
0.276581 0.143768 0.269958
0.399170 0.170990 0.275421
0.529907 0.199707 0.281189
0.661316 0.228058 0.286926
0.788605 0.254883 0.292358
0.911652 0.280151 0.297485
0.058838 0.243835 0.218567
0.256073 0.227478 0.262573
0.338501 0.202545 0.255829
0.449860 0.223511 0.261963
0.570221 0.255829 0.270233
0.690674 0.285492 0.277496
0.807495 0.308441 0.282898
0.919830 0.330078 0.287994
0.149323 0.363647 0.188232
0.351501 0.346466 0.260193
0.473419 0.334015 0.250366
0.508820 0.286743 0.246307
0.618896 0.292450 0.250946
0.728882 0.322052 0.259735
0.835297 0.350861 0.267059
0.934967 0.378540 0.274353
0.285339 0.490753 0.188232
0.446625 0.481293 0.257690
0.578796 0.466583 0.250671
0.658447 0.475006 0.234222
0.668976 0.390717 0.236145
0.770691 0.376862 0.238922
0.867279 0.400452 0.246704
0.957275 0.424591 0.254669
0.381866 0.628540 0.188232
0.534882 0.621796 0.255219
0.671265 0.606415 0.251007
0.743439 0.619263 0.234680
0.815247 0.634796 0.216522
0.805328 0.501892 0.226074
0.893738 0.478699 0.228394
0.976471 0.484161 0.234283
0.468079 0.765533 0.188232
0.613037 0.761383 0.252838
0.739410 0.751892 0.248657
0.816101 0.761932 0.235718
0.875702 0.782867 0.217590
0.929443 0.778015 0.204742
0.911530 0.614807 0.216522
0.985291 0.585724 0.218750
0.544464 0.900574 0.188232
0.681732 0.898834 0.250610
0.798157 0.894928 0.246460
0.878235 0.904816 0.235443
0.926056 0.929871 0.217743
0.966461 0.956238 0.199707
0.990814 0.894562 0.196289
0.988037 0.728088 0.207520
0.058838 0.000000 0.349091
0.161011 0.000000 0.349091
0.270660 0.000000 0.349091
0.394165 0.030853 0.353973
0.525909 0.063446 0.359131
0.658386 0.095581 0.364319
0.786713 0.125977 0.369263
0.910858 0.154633 0.373901
0.058838 0.118103 0.349091
0.161041 0.118134 0.349091
0.270660 0.118134 0.349091
0.394165 0.145325 0.353973
0.525909 0.174042 0.359192
0.658386 0.202393 0.364410
0.786713 0.229248 0.369232
0.910858 0.254517 0.373840
0.058838 0.243835 0.349091
0.161041 0.243835 0.349091
0.270660 0.243835 0.349091
0.394165 0.267151 0.353973
0.525909 0.291809 0.359192
0.658386 0.316132 0.364349
0.786713 0.339111 0.369263
0.910858 0.360779 0.373901
0.058838 0.377136 0.318573
0.161041 0.377136 0.298096
0.366760 0.361359 0.346924
0.451019 0.331360 0.339447
0.570801 0.347931 0.345337
0.691528 0.378418 0.353088
0.806732 0.406830 0.360199
0.919525 0.424652 0.364838
0.058838 0.517914 0.243378
0.250946 0.507019 0.262726
0.462677 0.492798 0.344635
0.584198 0.485107 0.334290
0.622314 0.432251 0.329346
0.734009 0.429718 0.332855
0.839722 0.454010 0.340668
0.940765 0.478088 0.347351
0.100006 0.653595 0.188232
0.381866 0.637146 0.259399
0.551788 0.629974 0.342438
0.681458 0.620575 0.335388
0.758179 0.634521 0.317474
0.770905 0.540436 0.319305
0.871307 0.517426 0.320374
0.962158 0.535065 0.327789
0.251770 0.778259 0.188232
0.469269 0.770844 0.257050
0.630768 0.766418 0.340332
0.765930 0.756378 0.336334
0.831696 0.775970 0.317993
0.896240 0.793884 0.300964
0.890167 0.650513 0.309845
0.976288 0.621674 0.310883
0.383606 0.904785 0.188232
0.546967 0.902771 0.254822
0.700256 0.900940 0.338348
0.824890 0.896759 0.334351
0.893311 0.914185 0.319458
0.943390 0.939392 0.301117
0.983887 0.924561 0.290985
0.980103 0.761078 0.300934
0.058838 0.000000 0.444733
0.161041 0.000000 0.444733
0.270630 0.000000 0.444733
0.388916 0.000000 0.444733
0.521698 0.032562 0.449402
0.655273 0.064758 0.453918
0.784668 0.095123 0.458435
0.909973 0.123749 0.462585
0.058838 0.118134 0.444733
0.161041 0.118134 0.444733
0.270660 0.118134 0.444733
0.388916 0.118134 0.444733
0.521698 0.146851 0.449402
0.655273 0.175232 0.453979
0.784668 0.202026 0.458374
0.909973 0.227295 0.462494
0.058838 0.243805 0.444733
0.161041 0.243835 0.444733
0.270660 0.243835 0.444733
0.388916 0.243835 0.444733
0.521698 0.268463 0.449371
0.655273 0.292786 0.454010
0.784668 0.315796 0.458374
0.909973 0.337463 0.462524
0.058838 0.377136 0.444733
0.161041 0.377136 0.444733
0.270660 0.377136 0.444733
0.388916 0.377136 0.444733
0.521698 0.397430 0.449371
0.655273 0.417450 0.453979
0.784668 0.436401 0.458374
0.909973 0.454254 0.462524
0.058838 0.517914 0.432587
0.161041 0.517914 0.410156
0.270660 0.517914 0.386810
0.485809 0.505005 0.442688
0.571808 0.474762 0.434143
0.693054 0.485077 0.439362
0.809113 0.510712 0.446808
0.919922 0.535217 0.453369
0.058838 0.656921 0.352112
0.161041 0.656921 0.331299
0.349945 0.649780 0.347321
0.575989 0.638672 0.440674
0.695801 0.637146 0.428894
0.733002 0.579712 0.423767
0.842957 0.569000 0.425934
0.944977 0.588196 0.432709
0.058838 0.788330 0.280823
0.170502 0.787842 0.264618
0.476135 0.776489 0.344330
0.656067 0.771790 0.438782
0.781708 0.769470 0.430511
0.851135 0.787750 0.411713
0.865570 0.686707 0.414001
0.964630 0.658173 0.413696
0.058838 0.912109 0.215515
0.309753 0.908783 0.261261
0.555084 0.905121 0.342346
0.726624 0.903168 0.436981
0.855652 0.900085 0.432526
0.913361 0.923248 0.413544
0.968597 0.943878 0.396820
0.969574 0.794434 0.404785
0.058838 0.000000 0.556244
0.161011 0.000000 0.556244
0.270630 0.000000 0.556244
0.388947 0.000000 0.556244
0.517273 0.000000 0.556244
0.651978 0.032166 0.560150
0.782562 0.062561 0.563965
0.909058 0.091187 0.567505
0.058838 0.118103 0.556244
0.161041 0.118134 0.556244
0.270660 0.118134 0.556244
0.388947 0.118134 0.556244
0.517273 0.118134 0.556244
0.651978 0.146515 0.560150
0.782562 0.173309 0.563904
0.909058 0.198578 0.567413
0.058838 0.243774 0.556244
0.161041 0.243835 0.556244
0.270660 0.243835 0.556244
0.388916 0.243835 0.556244
0.517273 0.243835 0.556244
0.651978 0.268158 0.560211
0.782532 0.291138 0.563965
0.909058 0.312805 0.567474
0.058838 0.377167 0.556244
0.161041 0.377167 0.556244
0.270660 0.377136 0.556244
0.388916 0.377136 0.556244
0.517273 0.377136 0.556244
0.651978 0.397186 0.560181
0.782562 0.416107 0.563934
0.909058 0.433960 0.567474
0.058838 0.517914 0.556244
0.161041 0.517914 0.556244
0.270660 0.517914 0.556244
0.388916 0.517914 0.556244
0.517273 0.517914 0.556244
0.651978 0.533417 0.560181
0.782562 0.548065 0.563965
0.909058 0.561890 0.567474
0.058838 0.656921 0.556213
0.161041 0.656921 0.548676
0.270660 0.656921 0.522125
0.388916 0.656921 0.494507
0.608826 0.647858 0.554504
0.691345 0.619446 0.545227
0.810638 0.623566 0.549286
0.923035 0.644531 0.556213
0.058838 0.788330 0.487579
0.161041 0.788330 0.463928
0.270660 0.788330 0.439453
0.443237 0.785187 0.443604
0.690247 0.777466 0.552887
0.801208 0.781555 0.540497
0.837585 0.723236 0.534851
0.947174 0.706573 0.535187
0.058838 0.912109 0.412201
0.161041 0.912109 0.390015
0.270660 0.912109 0.367310
0.566895 0.907684 0.440887
0.762177 0.905518 0.551361
0.877136 0.908600 0.543304
0.936920 0.929901 0.523804
0.956238 0.827942 0.525085
0.058838 0.000000 0.676819
0.161102 0.000000 0.676819
0.270630 0.000000 0.676819
0.388855 0.000000 0.676819
0.517242 0.000000 0.676819
0.648712 0.000000 0.676819
0.780426 0.030426 0.679657
0.908142 0.059052 0.682373
0.058838 0.118195 0.676819
0.161041 0.118134 0.676819
0.270721 0.118134 0.676819
0.388916 0.118134 0.676819
0.517242 0.118134 0.676819
0.648712 0.118134 0.676819
0.780426 0.144928 0.679718
0.908142 0.170197 0.682465
0.058838 0.243774 0.676819
0.161041 0.243896 0.676819
0.270660 0.243835 0.676819
0.388947 0.243835 0.676819
0.517303 0.243835 0.676819
0.648712 0.243835 0.676819
0.780426 0.266846 0.679657
0.908142 0.288483 0.682404
0.058838 0.377045 0.676819
0.161041 0.377136 0.676819
0.270660 0.377167 0.676819
0.388916 0.377136 0.676819
0.517273 0.377136 0.676819
0.648712 0.377136 0.676819
0.780426 0.396088 0.679688
0.908142 0.413910 0.682343
0.058838 0.517883 0.676819
0.161041 0.517883 0.676819
0.270660 0.517944 0.676819
0.388916 0.517914 0.676819
0.517273 0.517914 0.676819
0.648712 0.517914 0.676819
0.780426 0.532562 0.679718
0.908142 0.546387 0.682343
0.058838 0.656921 0.676819
0.161041 0.656921 0.676819
0.270660 0.656921 0.676819
0.388916 0.656921 0.676819
0.517273 0.656921 0.676819
0.648712 0.656921 0.676819
0.780426 0.667358 0.679688
0.908142 0.677185 0.682373
0.058838 0.788330 0.676788
0.161041 0.788330 0.676849
0.270660 0.788330 0.676788
0.388916 0.788330 0.646576
0.517273 0.788330 0.614807
0.731781 0.783051 0.675568
0.808075 0.757538 0.666168
0.925476 0.756866 0.669128
0.058838 0.912109 0.644135
0.161041 0.912109 0.617798
0.270660 0.912109 0.589569
0.388916 0.912109 0.560394
0.556763 0.911133 0.555511
0.805267 0.907837 0.674377
0.904175 0.916412 0.662537
0.940735 0.859222 0.656097
0.058838 0.000000 0.797729
0.161072 0.000000 0.797729
0.270691 0.000000 0.797729
0.389008 0.000000 0.797729
0.517273 0.000000 0.797729
0.648682 0.000000 0.797729
0.778473 0.000000 0.797729
0.907257 0.028656 0.799469
0.058838 0.118164 0.797729
0.161041 0.118134 0.797729
0.270630 0.118134 0.797729
0.388916 0.118134 0.797729
0.517212 0.118134 0.797729
0.648743 0.118134 0.797729
0.778473 0.118134 0.797729
0.907257 0.143402 0.799408
0.058838 0.243866 0.797729
0.161041 0.243805 0.797729
0.270660 0.243835 0.797729
0.388947 0.243835 0.797729
0.517303 0.243835 0.797729
0.648651 0.243835 0.797729
0.778473 0.243835 0.797729
0.907257 0.265503 0.799438
0.058838 0.377228 0.797729
0.161041 0.377136 0.797729
0.270660 0.377167 0.797729
0.388916 0.377136 0.797729
0.517242 0.377136 0.797729
0.648712 0.377136 0.797729
0.778473 0.377136 0.797729
0.907257 0.394989 0.799469
0.058838 0.517914 0.797729
0.161041 0.517853 0.797729
0.270660 0.517944 0.797729
0.388916 0.517883 0.797729
0.517273 0.517914 0.797729
0.648743 0.517914 0.797729
0.778473 0.517914 0.797729
0.907257 0.531708 0.799500
0.058838 0.656891 0.797729
0.161041 0.656952 0.797729
0.270660 0.656860 0.797729
0.388916 0.656921 0.797729
0.517273 0.656952 0.797729
0.648712 0.656921 0.797729
0.778473 0.656921 0.797729
0.907257 0.666748 0.799469
0.058838 0.788330 0.797729
0.161041 0.788330 0.797729
0.270660 0.788330 0.797729
0.388916 0.788330 0.797729
0.517273 0.788330 0.797729
0.648712 0.788330 0.797729
0.778473 0.788330 0.797729
0.907257 0.794403 0.799469
0.058838 0.912109 0.797699
0.161041 0.912109 0.797638
0.270660 0.912109 0.797668
0.388916 0.912109 0.797699
0.517273 0.912109 0.769562
0.648712 0.912109 0.736237
0.853699 0.910034 0.796967
0.924011 0.887207 0.787781
0.058838 0.000000 0.915405
0.161163 0.000000 0.915405
0.270660 0.000000 0.915405
0.389008 0.000000 0.915405
0.517303 0.000000 0.915405
0.648712 0.000000 0.915405
0.778442 0.000000 0.915405
0.906464 0.000000 0.915405
0.058838 0.118256 0.915405
0.161041 0.118134 0.915405
0.270599 0.118134 0.915405
0.388885 0.118134 0.915405
0.517181 0.118134 0.915405
0.648804 0.118134 0.915405
0.778381 0.118134 0.915405
0.906464 0.118134 0.915405
0.058838 0.243835 0.915405
0.161041 0.243744 0.915405
0.270660 0.243835 0.915405
0.388916 0.243835 0.915405
0.517303 0.243835 0.915405
0.648743 0.243835 0.915405
0.778412 0.243835 0.915405
0.906464 0.243835 0.915405
0.058838 0.377228 0.915405
0.161041 0.377106 0.915405
0.270660 0.377136 0.915405
0.388916 0.377136 0.915405
0.517303 0.377136 0.915405
0.648682 0.377136 0.915405
0.778442 0.377136 0.915405
0.906464 0.377136 0.915405
0.058838 0.517975 0.915405
0.161041 0.517822 0.915405
0.270660 0.517944 0.915405
0.388916 0.517944 0.915405
0.517273 0.517914 0.915405
0.648682 0.517914 0.915405
0.778503 0.517914 0.915405
0.906464 0.517914 0.915405
0.058838 0.656921 0.915405
0.161041 0.657013 0.915405
0.270660 0.656952 0.915405
0.388916 0.656891 0.915405
0.517273 0.656891 0.915405
0.648712 0.656921 0.915405
0.778473 0.656921 0.915405
0.906464 0.656921 0.915405
0.058838 0.788300 0.915405
0.161041 0.788239 0.915405
0.270660 0.788269 0.915405
0.388916 0.788300 0.915405
0.517273 0.788361 0.915405
0.648712 0.788330 0.915405
0.778473 0.788330 0.915405
0.906464 0.788330 0.915405
0.058838 0.912109 0.915405
0.161041 0.912109 0.915405
0.270660 0.912109 0.915405
0.388916 0.912109 0.915405
0.517273 0.912109 0.915405
0.648712 0.912109 0.915405
0.778473 0.912109 0.915405
0.906464 0.912109 0.915405
