luts/Vintage Grade .CUBE
#Created by: Adobe Photoshop Export Color Lookup Plugin
#Copyright: (C) Copyright 2017 rafyA
TITLE "Vintage.JPG"
#LUT size
LUT_3D_SIZE 5
#data domain
#LUT data points
DOMAIN_MIN 0.000000 0.000000 0.000000
DOMAIN_MAX 0.903226 0.903226 0.903226
0.007843 0.010925 0.162445
0.130554 0.010925 0.162445
0.379822 0.010925 0.162445
0.738342 0.010925 0.162445
1.000000 0.010925 0.162445
0.007843 0.178833 0.162445
0.130554 0.178833 0.162445
0.379822 0.178833 0.162445
0.738342 0.178864 0.162445
1.000000 0.178833 0.162445
0.007843 0.484375 0.162445
0.130554 0.484375 0.162445
0.379822 0.484375 0.162445
0.738342 0.484314 0.162445
1.000000 0.484253 0.162445
0.007843 0.799408 0.162445
0.130554 0.799408 0.162445
0.379761 0.799408 0.162445
0.738342 0.799408 0.162445
1.000000 0.799469 0.162445
0.007843 0.986145 0.162445
0.130554 0.986145 0.162445
0.379730 0.986145 0.162445
0.738434 0.986145 0.162445
1.000000 0.986145 0.162445
0.007843 0.010925 0.303650
0.130554 0.010925 0.303650
0.379822 0.010925 0.303650
0.738342 0.010925 0.303650
1.000000 0.010925 0.303650
0.007843 0.178833 0.303650
0.130554 0.178833 0.303650
0.413208 0.151215 0.281372
0.822510 0.124115 0.259094
1.000000 0.153870 0.283569
0.007843 0.484375 0.303650
0.109894 0.520233 0.281372
0.413208 0.520233 0.281372
0.822510 0.484375 0.259094
1.000000 0.473541 0.283569
0.007843 0.799408 0.303650
0.089874 0.849609 0.259094
0.379822 0.849609 0.259094
0.822510 0.849609 0.259094
1.000000 0.807526 0.283569
0.007843 0.986145 0.303650
0.111908 1.000000 0.283569
0.369965 1.000000 0.283569
0.750946 1.000000 0.283569
1.000000 1.000000 0.283569
0.007843 0.010925 0.514709
0.130554 0.010925 0.514709
0.379822 0.010925 0.514709
0.738342 0.010925 0.514648
1.000000 0.010925 0.514618
0.007843 0.178833 0.514709
0.109894 0.151215 0.536957
0.413208 0.151215 0.536957
0.822510 0.124115 0.514709
1.000000 0.153870 0.507965
0.007843 0.484375 0.514709
0.109894 0.520233 0.536957
0.379822 0.484375 0.514709
0.780182 0.448730 0.492432
1.000000 0.452209 0.494629
0.007843 0.799408 0.514648
0.089874 0.849609 0.514709
0.347778 0.825531 0.492432
0.780182 0.825531 0.492432
1.000000 0.799377 0.494629
0.007843 0.986145 0.514618
0.111908 1.000000 0.507965
0.350861 1.000000 0.494629
0.738312 1.000000 0.494629
1.000000 1.000000 0.494629
0.007843 0.010925 0.725769
0.130554 0.010925 0.725769
0.379761 0.010925 0.725769
0.738342 0.010925 0.725769
1.000000 0.010925 0.725800
0.007843 0.178864 0.725769
0.089874 0.124115 0.770264
0.379822 0.124115 0.770264
0.822510 0.124115 0.770264
1.000000 0.153870 0.732483
0.007843 0.484314 0.725769
0.089874 0.484375 0.770264
0.347778 0.448730 0.747986
0.780182 0.448730 0.747986
1.000000 0.452209 0.725739
0.007843 0.799408 0.725769
0.089874 0.849609 0.770264
0.347778 0.825531 0.747986
0.738342 0.799408 0.725769
1.000000 0.774139 0.705688
0.007843 0.986145 0.725800
0.111908 1.000000 0.732483
0.350861 1.000000 0.725739
0.701080 1.000000 0.705688
1.000000 1.000000 0.705688
0.007843 0.010925 0.936798
0.130554 0.010925 0.936798
0.379730 0.010925 0.936798
0.738434 0.010925 0.936798
1.000000 0.010925 0.936798
0.007843 0.178833 0.936798
0.111908 0.153870 0.956848
0.369965 0.153870 0.956848
0.750946 0.153870 0.956848
1.000000 0.153870 0.956848
0.007843 0.484253 0.936798
0.111908 0.473541 0.956848
0.350861 0.452209 0.956848
0.738312 0.452209 0.956848
1.000000 0.452209 0.956848
0.007843 0.799469 0.936798
0.111908 0.807526 0.956848
0.350861 0.799377 0.956848
0.701080 0.774139 0.956848
1.000000 0.774139 0.956848
0.007843 0.986145 0.936798
0.111908 1.000000 0.956848
0.350861 1.000000 0.956848
0.701080 1.000000 0.956848
1.000000 0.986145 0.936798
