luts/Vintage Grade .CUBE
#Created by: Adobe Photoshop Export Color Lookup Plugin
#Copyright: (C) Copyright 2017 rafyA
TITLE "Vintage.JPG"
#LUT size
LUT_3D_SIZE 8
#data domain
#LUT data points
DOMAIN_MIN 0.000000 0.000000 0.000000
DOMAIN_MAX 0.903226 0.903226 0.903226
0.007843 0.010925 0.162445
0.050232 0.010925 0.162445
0.159760 0.010925 0.162445
0.296326 0.010925 0.162445
0.473175 0.010925 0.162445
0.682556 0.010925 0.162445
0.910706 0.010925 0.162445
1.000000 0.010925 0.162445
0.007843 0.069763 0.162445
0.050232 0.069763 0.162445
0.159760 0.069763 0.162445
0.296326 0.069794 0.162445
0.473175 0.069733 0.162445
0.682556 0.069733 0.162445
0.910706 0.069733 0.162445
1.000000 0.069855 0.162445
0.007843 0.217346 0.162445
0.050232 0.217346 0.162445
0.159760 0.217346 0.162445
0.296326 0.217346 0.162445
0.473175 0.217316 0.162445
0.682556 0.217285 0.162445
0.910706 0.217468 0.162445
1.000000 0.217255 0.162445
0.007843 0.388824 0.162445
0.050262 0.388824 0.162445
0.159760 0.388824 0.162445
0.296326 0.388824 0.162445
0.473175 0.388855 0.162445
0.682556 0.388824 0.162445
0.910706 0.388733 0.162445
1.000000 0.388702 0.162445
0.007843 0.581299 0.162445
0.050201 0.581299 0.162445
0.159760 0.581299 0.162445
0.296356 0.581299 0.162445
0.473175 0.581299 0.162445
0.682556 0.581207 0.162445
0.910706 0.581360 0.162445
1.000000 0.581207 0.162445
0.007843 0.760864 0.162445
0.050201 0.760864 0.162445
0.159729 0.760864 0.162445
0.296326 0.760864 0.162445
0.473083 0.760864 0.162445
0.682556 0.760864 0.162445
0.910706 0.760773 0.162445
1.000000 0.760803 0.162445
0.007843 0.893677 0.162445
0.050201 0.893677 0.162445
0.159851 0.893677 0.162445
0.296265 0.893677 0.162445
0.473206 0.893677 0.162445
0.682404 0.893677 0.162445
0.910706 0.893677 0.162445
1.000000 0.893646 0.162445
0.007843 0.986145 0.162445
0.050293 0.986145 0.162445
0.159698 0.986145 0.162445
0.296234 0.986145 0.162445
0.473083 0.986145 0.162445
0.682465 0.986145 0.162445
0.910675 0.986145 0.162445
1.000000 0.986145 0.162445
0.007843 0.010925 0.213196
0.050232 0.010925 0.213196
0.159760 0.010925 0.213196
0.296326 0.010925 0.213226
0.473175 0.010925 0.213165
0.682556 0.010925 0.213165
0.910706 0.010925 0.213165
1.000000 0.010925 0.213287
0.007843 0.069763 0.213196
0.050232 0.069763 0.213196
0.172577 0.054932 0.200500
0.330261 0.040222 0.187805
0.536530 0.025482 0.175049
0.777130 0.010925 0.162445
1.000000 0.010925 0.162445
1.000000 0.046387 0.193146
0.007843 0.217346 0.213196
0.039520 0.234039 0.200500
0.172577 0.234039 0.200500
0.330261 0.217407 0.187805
0.536530 0.200928 0.175049
0.777130 0.184845 0.162445
1.000000 0.178436 0.162445
1.000000 0.200195 0.193146
0.007843 0.388824 0.213226
0.028900 0.428680 0.187805
0.159790 0.428680 0.187805
0.330261 0.428680 0.187805
0.536530 0.408691 0.175049
0.777130 0.388855 0.162445
1.000000 0.373108 0.162445
1.000000 0.378418 0.193146
0.007843 0.581299 0.213165
0.018311 0.641266 0.175049
0.147247 0.641266 0.175049
0.313080 0.641266 0.175049
0.536530 0.641266 0.175049
0.777130 0.621429 0.162445
1.000000 0.597565 0.162445
1.000000 0.581360 0.193146
0.007843 0.760864 0.213165
0.007843 0.823700 0.162445
0.135101 0.823700 0.162445
0.296356 0.823700 0.162445
0.515015 0.823700 0.162445
0.777130 0.823700 0.162445
1.000000 0.799835 0.162445
1.000000 0.769775 0.193146
0.007843 0.893677 0.213165
0.007843 0.935577 0.162445
0.130249 0.935577 0.162445
0.283264 0.935577 0.162445
0.489868 0.935577 0.162445
0.738983 0.935577 0.162445
1.000000 0.935577 0.162445
1.000000 0.905243 0.193146
0.007843 0.986145 0.213287
0.033386 1.000000 0.193146
0.146698 1.000000 0.193146
0.287659 1.000000 0.193146
0.473206 1.000000 0.193146
0.694916 1.000000 0.193146
0.936493 1.000000 0.193146
1.000000 1.000000 0.193146
0.007843 0.010925 0.333801
0.050232 0.010925 0.333801
0.159760 0.010925 0.333801
0.296326 0.010925 0.333801
0.473175 0.010925 0.333771
0.682556 0.010925 0.333740
0.910706 0.010925 0.333862
1.000000 0.010925 0.333710
0.007843 0.069763 0.333801
0.039520 0.054932 0.346497
0.172577 0.054932 0.346497
0.330261 0.040222 0.333832
0.536530 0.025482 0.321045
0.777130 0.010925 0.308411
1.000000 0.010925 0.303314
1.000000 0.046387 0.320496
0.007843 0.217346 0.333801
0.039520 0.234039 0.346497
0.159760 0.217346 0.333801
0.313019 0.200928 0.321045
0.515045 0.184723 0.308319
0.753326 0.168793 0.295593
1.000000 0.153046 0.282867
1.000000 0.191528 0.313690
0.007843 0.388824 0.333801
0.028900 0.428680 0.333832
0.147247 0.408600 0.321045
0.313019 0.408600 0.321045
0.515045 0.388794 0.308319
0.753326 0.369232 0.295593
1.000000 0.350037 0.282867
1.000000 0.370239 0.313690
0.007843 0.581299 0.333771
0.018311 0.641266 0.321045
0.135010 0.621460 0.308319
0.296295 0.621460 0.308319
0.515045 0.621460 0.308319
0.753326 0.601532 0.295593
1.000000 0.581299 0.282867
1.000000 0.574799 0.313690
0.007843 0.760864 0.333740
0.007843 0.823700 0.308411
0.123016 0.809052 0.295593
0.280060 0.809052 0.295593
0.493988 0.809052 0.295593
0.753326 0.809052 0.295593
1.000000 0.793579 0.282867
1.000000 0.766235 0.313690
0.007843 0.893677 0.333862
0.007843 0.935577 0.303314
0.111267 0.935638 0.282867
0.264374 0.935638 0.282867
0.473175 0.935638 0.282867
0.729523 0.935638 0.282867
1.000000 0.935638 0.282867
1.000000 0.904175 0.313690
0.007843 0.986145 0.333710
0.033386 1.000000 0.320496
0.140137 1.000000 0.313690
0.280884 1.000000 0.313690
0.466583 1.000000 0.313690
0.689972 1.000000 0.313690
0.934052 1.000000 0.313690
1.000000 1.000000 0.313690
0.007843 0.010925 0.454376
0.050262 0.010925 0.454376
0.159760 0.010925 0.454376
0.296326 0.010925 0.454376
0.473175 0.010925 0.454407
0.682556 0.010925 0.454376
0.910706 0.010925 0.454346
1.000000 0.010925 0.454315
0.007843 0.069794 0.454376
0.028900 0.040222 0.479828
0.159790 0.040222 0.479828
0.330261 0.040222 0.479828
0.536530 0.025482 0.467133
0.777130 0.010925 0.454407
1.000000 0.010925 0.444183
1.000000 0.046387 0.447662
0.007843 0.217346 0.454376
0.028900 0.217407 0.479828
0.147247 0.200928 0.467102
0.313019 0.200928 0.467102
0.515045 0.184723 0.454376
0.753326 0.168793 0.441620
1.000000 0.153046 0.428955
1.000000 0.191528 0.442322
0.007843 0.388824 0.454376
0.028900 0.428680 0.479828
0.147247 0.408600 0.467102
0.296326 0.388824 0.454376
0.493896 0.369263 0.441650
0.729553 0.350037 0.428955
0.984680 0.331177 0.416260
1.000000 0.358124 0.434326
0.007843 0.581299 0.454407
0.018311 0.641266 0.467133
0.135010 0.621460 0.454376
0.280090 0.601440 0.441650
0.493896 0.601440 0.441650
0.729553 0.581299 0.428955
0.984680 0.560913 0.416260
1.000000 0.565216 0.434326
0.007843 0.760864 0.454376
0.007843 0.823700 0.454407
0.123016 0.809052 0.441620
0.264374 0.793610 0.428955
0.473175 0.793610 0.428955
0.729553 0.793610 0.428955
0.984680 0.777588 0.416260
1.000000 0.760864 0.434326
0.007843 0.893677 0.454346
0.007843 0.935577 0.444183
0.111267 0.935638 0.428955
0.249115 0.925690 0.416260
0.452698 0.925690 0.416260
0.706024 0.925690 0.416260
0.984680 0.925690 0.416260
1.000000 0.902466 0.434326
0.007843 0.986145 0.454315
0.033386 1.000000 0.447662
0.140137 1.000000 0.442322
0.270966 1.000000 0.434326
0.456970 1.000000 0.434326
0.682556 1.000000 0.434326
0.930176 1.000000 0.434326
1.000000 1.000000 0.434326
0.007843 0.010925 0.574982
0.050201 0.010925 0.574982
0.159760 0.010925 0.574982
0.296356 0.010925 0.574982
0.473175 0.010925 0.574982
0.682556 0.010925 0.574951
0.910706 0.010925 0.575012
1.000000 0.010925 0.574951
0.007843 0.069733 0.574982
0.018311 0.025482 0.613159
0.147247 0.025482 0.613159
0.313080 0.025482 0.613159
0.536530 0.025482 0.613159
0.777130 0.010925 0.600403
1.000000 0.010925 0.585236
1.000000 0.046387 0.575012
0.007843 0.217316 0.574982
0.018311 0.200928 0.613159
0.135010 0.184723 0.600403
0.296295 0.184723 0.600403
0.515045 0.184723 0.600403
0.753326 0.168793 0.587738
1.000000 0.153046 0.574982
1.000000 0.191528 0.570923
0.007843 0.388855 0.574982
0.018311 0.408691 0.613159
0.135010 0.388794 0.600403
0.280090 0.369263 0.587677
0.493896 0.369263 0.587677
0.729553 0.350037 0.574982
0.984680 0.331177 0.562225
1.000000 0.358124 0.564941
0.007843 0.581299 0.574982
0.018311 0.641266 0.613159
0.135010 0.621460 0.600403
0.280090 0.601440 0.587677
0.473175 0.581299 0.574982
0.705933 0.560944 0.562256
0.959961 0.540497 0.549530
1.000000 0.549133 0.554901
0.007843 0.760864 0.574951
0.007843 0.823700 0.600403
0.123016 0.809052 0.587738
0.264374 0.793610 0.574982
0.452728 0.777527 0.562256
0.705933 0.777527 0.562256
0.959961 0.760834 0.549530
1.000000 0.751923 0.554901
0.007843 0.893677 0.575012
0.007843 0.935577 0.585236
0.111267 0.935638 0.574982
0.249115 0.925690 0.562225
0.432648 0.915375 0.549530
0.682495 0.915375 0.549530
0.959961 0.915375 0.549530
1.000000 0.899567 0.554901
0.007843 0.986145 0.574951
0.033386 1.000000 0.575012
0.140137 1.000000 0.570923
0.270966 1.000000 0.564941
0.441071 1.000000 0.554901
0.670380 1.000000 0.554901
0.923706 1.000000 0.554901
1.000000 1.000000 0.554901
0.007843 0.010925 0.695587
0.050201 0.010925 0.695587
0.159729 0.010925 0.695587
0.296326 0.010925 0.695587
0.473083 0.010925 0.695587
0.682556 0.010925 0.695587
0.910706 0.010925 0.695526
1.000000 0.010925 0.695557
0.007843 0.069733 0.695587
0.007843 0.010925 0.746368
0.135101 0.010925 0.746368
0.296356 0.010925 0.746368
0.515015 0.010925 0.746368
0.777130 0.010925 0.746368
1.000000 0.010925 0.726105
1.000000 0.046387 0.702362
0.007843 0.217285 0.695587
0.007843 0.184845 0.746368
0.123016 0.168793 0.733765
0.280060 0.168793 0.733765
0.493988 0.168793 0.733765
0.753326 0.168793 0.733765
1.000000 0.153046 0.721008
1.000000 0.191528 0.699646
0.007843 0.388824 0.695587
0.007843 0.388855 0.746368
0.123016 0.369232 0.733765
0.264374 0.350037 0.721039
0.473175 0.350037 0.721039
0.729553 0.350037 0.721039
0.984680 0.331177 0.708344
1.000000 0.358124 0.695587
0.007843 0.581207 0.695587
0.007843 0.621429 0.746368
0.123016 0.601532 0.733765
0.264374 0.581299 0.721039
0.452728 0.560944 0.708313
0.705933 0.560944 0.708313
0.959961 0.540497 0.695587
1.000000 0.549133 0.688934
0.007843 0.760864 0.695587
0.007843 0.823700 0.746368
0.123016 0.809052 0.733765
0.264374 0.793610 0.721039
0.452728 0.777527 0.708313
0.682556 0.760864 0.695587
0.935272 0.743622 0.682861
1.000000 0.733459 0.675537
0.007843 0.893677 0.695526
0.007843 0.935577 0.726105
0.111267 0.935638 0.721008
0.249115 0.925690 0.708344
0.432648 0.915375 0.695587
0.659302 0.904724 0.682861
0.935272 0.904724 0.682861
1.000000 0.893677 0.675537
0.007843 0.986145 0.695557
0.033386 1.000000 0.702362
0.140137 1.000000 0.699646
0.270966 1.000000 0.695587
0.441071 1.000000 0.688934
0.646027 1.000000 0.675537
0.910706 1.000000 0.675537
1.000000 1.000000 0.675537
0.007843 0.010925 0.816193
0.050201 0.010925 0.816193
0.159851 0.010925 0.816193
0.296265 0.010925 0.816193
0.473206 0.010925 0.816193
0.682404 0.010925 0.816193
0.910706 0.010925 0.816193
1.000000 0.010925 0.816162
0.007843 0.069733 0.816193
0.007843 0.010925 0.867004
0.130249 0.010925 0.867004
0.283264 0.010925 0.867004
0.489868 0.010925 0.867004
0.738983 0.010925 0.867004
1.000000 0.010925 0.867004
1.000000 0.046387 0.829498
0.007843 0.217468 0.816193
0.007843 0.178436 0.867004
0.111267 0.153046 0.867065
0.264374 0.153046 0.867065
0.473175 0.153046 0.867065
0.729523 0.153046 0.867065
1.000000 0.153046 0.867065
1.000000 0.191528 0.828247
0.007843 0.388733 0.816193
0.007843 0.373108 0.867004
0.111267 0.350037 0.867065
0.249115 0.331177 0.854370
0.452698 0.331177 0.854370
0.706024 0.331177 0.854370
0.984680 0.331177 0.854370
1.000000 0.358124 0.826233
0.007843 0.581360 0.816193
0.007843 0.597565 0.867004
0.111267 0.581299 0.867065
0.249115 0.560913 0.854370
0.432648 0.540497 0.841614
0.682495 0.540497 0.841614
0.959961 0.540497 0.841614
1.000000 0.549133 0.822906
0.007843 0.760773 0.816193
0.007843 0.799835 0.867004
0.111267 0.793579 0.867065
0.249115 0.777588 0.854370
0.432648 0.760834 0.841614
0.659302 0.743622 0.828888
0.935272 0.743622 0.828888
1.000000 0.733459 0.816193
0.007843 0.893677 0.816193
0.007843 0.935577 0.867004
0.111267 0.935638 0.867065
0.249115 0.925690 0.854370
0.432648 0.915375 0.841614
0.659302 0.904724 0.828888
0.910706 0.893677 0.816193
1.000000 0.882141 0.803467
0.007843 0.986145 0.816162
0.033386 1.000000 0.829498
0.140137 1.000000 0.828247
0.270966 1.000000 0.826233
0.441071 1.000000 0.822906
0.646027 1.000000 0.816193
0.886169 0.994934 0.803467
1.000000 0.994934 0.803467
0.007843 0.010925 0.936798
0.050293 0.010925 0.936798
0.159698 0.010925 0.936798
0.296234 0.010925 0.936798
0.473083 0.010925 0.936798
0.682465 0.010925 0.936798
0.910675 0.010925 0.936798
1.000000 0.010925 0.936798
0.007843 0.069855 0.936798
0.033386 0.046387 0.956848
0.146698 0.046387 0.956848
0.287659 0.046387 0.956848
0.473206 0.046387 0.956848
0.694916 0.046387 0.956848
0.936493 0.046387 0.956848
1.000000 0.046387 0.956848
0.007843 0.217255 0.936798
0.033386 0.200195 0.956848
0.140137 0.191528 0.956848
0.280884 0.191528 0.956848
0.466583 0.191528 0.956848
0.689972 0.191528 0.956848
0.934052 0.191528 0.956848
1.000000 0.191528 0.956848
0.007843 0.388702 0.936798
0.033386 0.378418 0.956848
0.140137 0.370239 0.956848
0.270966 0.358124 0.956848
0.456970 0.358124 0.956848
0.682556 0.358124 0.956848
0.930176 0.358124 0.956848
1.000000 0.358124 0.956848
0.007843 0.581207 0.936798
0.033386 0.581360 0.956848
0.140137 0.574799 0.956848
0.270966 0.565216 0.956848
0.441071 0.549133 0.956848
0.670380 0.549133 0.956848
0.923706 0.549133 0.956848
1.000000 0.549133 0.956848
0.007843 0.760803 0.936798
0.033386 0.769775 0.956848
0.140137 0.766235 0.956848
0.270966 0.760864 0.956848
0.441071 0.751923 0.956848
0.646027 0.733459 0.956848
0.910706 0.733459 0.956848
1.000000 0.733459 0.956848
0.007843 0.893646 0.936798
0.033386 0.905243 0.956848
0.140137 0.904175 0.956848
0.270966 0.902466 0.956848
0.441071 0.899567 0.956848
0.646027 0.893677 0.956848
0.886169 0.882141 0.949493
1.000000 0.882141 0.949493
0.007843 0.986145 0.936798
0.033386 1.000000 0.956848
0.140137 1.000000 0.956848
0.270966 1.000000 0.956848
0.441071 1.000000 0.956848
0.646027 1.000000 0.956848
0.886169 0.994934 0.949493
1.000000 0.986145 0.936798
