luts/Vintage Spring.CUBE
#Created by: Adobe Photoshop Export Color Lookup Plugin
#Copyright: (C) Copyright 2017 rafyA
TITLE "vintage spring.JPG"
#LUT size
LUT_3D_SIZE 5
#data domain
#LUT data points
DOMAIN_MIN 0.000000 0.000000 0.000000
DOMAIN_MAX 0.903226 0.903226 0.903226
0.058838 0.000000 0.188232
0.252808 0.048981 0.197876
0.467682 0.103333 0.208588
0.696075 0.159760 0.219696
0.912445 0.211060 0.229828
0.223480 0.187775 0.188232
0.333221 0.147186 0.190308
0.527771 0.193695 0.200897
0.737732 0.249268 0.210785
0.926208 0.294647 0.220154
0.389465 0.399658 0.188232
0.563568 0.370605 0.188232
0.593536 0.283417 0.192627
0.766693 0.306396 0.204712
0.935394 0.355164 0.213715
0.544495 0.649872 0.188232
0.733582 0.629456 0.188232
0.807343 0.619965 0.188232
0.813171 0.468384 0.195038
0.944550 0.453125 0.207336
0.669708 0.896881 0.188232
0.852142 0.890259 0.188232
0.913666 0.887299 0.188232
0.962036 0.884308 0.188232
0.959015 0.654968 0.197235
0.058838 0.000000 0.327087
0.242493 0.000000 0.327087
0.460114 0.054382 0.335968
0.691559 0.110779 0.345306
0.911041 0.162048 0.353851
0.058838 0.211670 0.327087
0.242493 0.211670 0.327087
0.460114 0.254517 0.335999
0.691559 0.299011 0.345276
0.911041 0.339447 0.353790
0.058838 0.446625 0.237579
0.410278 0.421906 0.323212
0.551544 0.369171 0.310242
0.749420 0.394348 0.320923
0.933319 0.440521 0.333099
0.234070 0.677185 0.188232
0.567505 0.662323 0.319214
0.755341 0.662689 0.300385
0.811584 0.558289 0.292725
0.970459 0.538483 0.298767
0.434753 0.903503 0.188232
0.694916 0.900421 0.315521
0.875153 0.905396 0.302429
0.960083 0.949341 0.270905
0.982269 0.752747 0.276764
0.058838 0.000000 0.498260
0.242462 0.000000 0.498260
0.451752 0.000000 0.498260
0.686523 0.056427 0.505798
0.909515 0.107697 0.512848
0.058838 0.211639 0.498260
0.242493 0.211670 0.498260
0.451752 0.211670 0.498260
0.686523 0.256165 0.505829
0.909515 0.296570 0.512756
0.058838 0.446625 0.498260
0.242493 0.446625 0.498260
0.451752 0.446625 0.498260
0.686523 0.477844 0.505829
0.909515 0.506226 0.512756
0.058838 0.690491 0.435516
0.242493 0.690491 0.395691
0.612366 0.676147 0.494965
0.750092 0.625763 0.479462
0.940552 0.630585 0.486694
0.058838 0.912109 0.309631
0.352417 0.909576 0.324585
0.743164 0.904327 0.491943
0.910492 0.921326 0.471008
0.963257 0.811188 0.462494
0.058838 0.000000 0.707184
0.242554 0.000000 0.707184
0.451691 0.000000 0.707184
0.681305 0.000000 0.707184
0.907928 0.051270 0.711670
0.058838 0.211731 0.707184
0.242493 0.211670 0.707184
0.451752 0.211670 0.707184
0.681305 0.211670 0.707184
0.907928 0.252106 0.711609
0.058838 0.446564 0.707184
0.242493 0.446625 0.707184
0.451752 0.446625 0.707184
0.681305 0.446625 0.707184
0.907928 0.475006 0.711609
0.058838 0.690491 0.707184
0.242493 0.690491 0.707184
0.451752 0.690491 0.707184
0.681305 0.690491 0.707184
0.907928 0.706360 0.711609
0.058838 0.912109 0.706635
0.242493 0.912109 0.657318
0.451752 0.912109 0.604126
0.816895 0.908417 0.705261
0.936646 0.866516 0.689178
0.058838 0.000000 0.915405
0.242584 0.000000 0.915405
0.451813 0.000000 0.915405
0.681366 0.000000 0.915405
0.906464 0.000000 0.915405
0.058838 0.211761 0.915405
0.242493 0.211670 0.915405
0.451752 0.211670 0.915405
0.681305 0.211670 0.915405
0.906464 0.211670 0.915405
0.058838 0.446716 0.915405
0.242493 0.446625 0.915405
0.451752 0.446625 0.915405
0.681305 0.446625 0.915405
0.906464 0.446625 0.915405
0.058838 0.690552 0.915405
0.242493 0.690491 0.915405
0.451752 0.690491 0.915405
0.681305 0.690491 0.915405
0.906464 0.690491 0.915405
0.058838 0.912109 0.915405
0.242493 0.912109 0.915405
0.451752 0.912109 0.915405
0.681305 0.912109 0.915405
0.906464 0.912109 0.915405
