luts/Vintage Grade .CUBE
#Created by: Adobe Photoshop Export Color Lookup Plugin
#Copyright: (C) Copyright 2017 rafyA
TITLE "Vintage.JPG"
#LUT size
LUT_3D_SIZE 32
#data domain
DOMAIN_MIN 0.0 0.0 0.0
DOMAIN_MAX 1.0 1.0 1.0
#LUT data points
0.007843 0.010925 0.162445
0.007843 0.010925 0.162445
0.007843 0.010925 0.162445
0.024963 0.010925 0.162445
0.050232 0.010925 0.162445
0.076080 0.010925 0.162445
0.102783 0.010925 0.162445
0.130554 0.010925 0.162445
0.159760 0.010925 0.162445
0.190674 0.010925 0.162445
0.223541 0.010925 0.162445
0.258667 0.010925 0.162445
0.296326 0.010925 0.162445
0.336700 0.010925 0.162445
0.379822 0.010925 0.162445
0.425323 0.010925 0.162445
0.473175 0.010925 0.162445
0.523010 0.010925 0.162445
0.574646 0.010925 0.162445
0.627899 0.010925 0.162445
0.682556 0.010925 0.162445
0.738342 0.010925 0.162445
0.795135 0.010925 0.162445
0.852631 0.010925 0.162445
0.910706 0.010925 0.162445
0.969116 0.010925 0.162445
1.000000 0.010925 0.162445
1.000000 0.010925 0.162445
1.000000 0.010925 0.162445
1.000000 0.010925 0.162445
1.000000 0.010925 0.162445
1.000000 0.010925 0.162445
0.007843 0.010925 0.162445
0.007843 0.010925 0.162445
0.007843 0.010925 0.162445
0.024963 0.010925 0.162445
0.050232 0.010925 0.162445
0.076080 0.010925 0.162445
0.102783 0.010925 0.162445
0.130554 0.010925 0.162445
0.159760 0.010925 0.162445
0.190674 0.010925 0.162445
0.223541 0.010925 0.162445
0.258667 0.010925 0.162445
0.296326 0.010925 0.162445
0.336700 0.010925 0.162445
0.379822 0.010925 0.162445
0.425323 0.010925 0.162445
0.473175 0.010925 0.162445
0.523010 0.010925 0.162445
0.574646 0.010925 0.162445
0.627899 0.010925 0.162445
0.682556 0.010925 0.162445
0.738342 0.010925 0.162445
0.795135 0.010925 0.162445
0.852631 0.010925 0.162445
0.910706 0.010925 0.162445
0.969116 0.010925 0.162445
1.000000 0.010925 0.162445
1.000000 0.010925 0.162445
1.000000 0.010925 0.162445
1.000000 0.010925 0.162445
1.000000 0.010925 0.162445
1.000000 0.010925 0.162445
0.007843 0.010925 0.162445
0.007843 0.010925 0.162445
0.007843 0.010925 0.162445
0.024963 0.010925 0.162445
0.050232 0.010925 0.162445
0.076080 0.010925 0.162445
0.102783 0.010925 0.162445
0.130554 0.010925 0.162445
0.159760 0.010925 0.162445
0.190674 0.010925 0.162445
0.223541 0.010925 0.162445
0.258667 0.010925 0.162445
0.296326 0.010925 0.162445
0.336700 0.010925 0.162445
0.379822 0.010925 0.162445
0.425323 0.010925 0.162445
0.473175 0.010925 0.162445
0.523010 0.010925 0.162445
0.574646 0.010925 0.162445
0.627899 0.010925 0.162445
0.682556 0.010925 0.162445
0.738342 0.010925 0.162445
0.795135 0.010925 0.162445
0.852631 0.010925 0.162445
0.910706 0.010925 0.162445
0.969116 0.010925 0.162445
1.000000 0.010925 0.162445
1.000000 0.010925 0.162445
1.000000 0.010925 0.162445
1.000000 0.010925 0.162445
1.000000 0.010925 0.162445
1.000000 0.010925 0.162445
0.007843 0.034729 0.162445
0.007843 0.034729 0.162445
0.007843 0.034729 0.162445
0.024963 0.034729 0.162445
0.050232 0.034729 0.162445
0.076080 0.034729 0.162445
0.102783 0.034729 0.162445
0.130554 0.034698 0.162445
0.159760 0.034729 0.162445
0.190674 0.034698 0.162445
0.223541 0.034729 0.162445
0.258667 0.034760 0.162445
0.296326 0.034698 0.162445
0.336700 0.034698 0.162445
0.379822 0.034729 0.162445
0.425323 0.034729 0.162445
0.473175 0.034760 0.162445
0.523010 0.034760 0.162445
0.574646 0.034760 0.162445
0.627899 0.034729 0.162445
0.682556 0.034637 0.162445
0.738342 0.034729 0.162445
0.795135 0.034668 0.162445
0.852631 0.034790 0.162445
0.910706 0.034668 0.162445
0.969116 0.034790 0.162445
1.000000 0.034637 0.162445
1.000000 0.034790 0.162445
1.000000 0.034698 0.162445
1.000000 0.034637 0.162445
1.000000 0.034637 0.162445
1.000000 0.034637 0.162445
0.007843 0.069763 0.162445
0.007843 0.069763 0.162445
0.007843 0.069763 0.162445
0.024963 0.069763 0.162445
0.050232 0.069763 0.162445
0.076080 0.069763 0.162445
0.102783 0.069763 0.162445
0.130554 0.069763 0.162445
0.159760 0.069763 0.162445
0.190674 0.069733 0.162445
0.223541 0.069763 0.162445
0.258667 0.069794 0.162445
0.296326 0.069794 0.162445
0.336700 0.069763 0.162445
0.379822 0.069794 0.162445
0.425323 0.069763 0.162445
0.473175 0.069733 0.162445
0.523010 0.069763 0.162445
0.574646 0.069763 0.162445
0.627899 0.069824 0.162445
0.682556 0.069733 0.162445
0.738342 0.069702 0.162445
0.795135 0.069855 0.162445
0.852631 0.069824 0.162445
0.910706 0.069733 0.162445
0.969116 0.069733 0.162445
1.000000 0.069672 0.162445
1.000000 0.069855 0.162445
1.000000 0.069855 0.162445
1.000000 0.069794 0.162445
1.000000 0.069794 0.162445
1.000000 0.069794 0.162445
0.007843 0.105286 0.162445
0.007843 0.105286 0.162445
0.007843 0.105286 0.162445
0.024963 0.105286 0.162445
0.050232 0.105286 0.162445
0.076080 0.105286 0.162445
0.102783 0.105286 0.162445
0.130554 0.105286 0.162445
0.159760 0.105255 0.162445
0.190674 0.105286 0.162445
0.223541 0.105286 0.162445
0.258667 0.105286 0.162445
0.296326 0.105255 0.162445
0.336700 0.105286 0.162445
0.379822 0.105286 0.162445
0.425323 0.105316 0.162445
0.473175 0.105225 0.162445
0.523010 0.105316 0.162445
0.574646 0.105286 0.162445
0.627899 0.105286 0.162445
0.682556 0.105347 0.162445
0.738342 0.105225 0.162445
0.795135 0.105377 0.162445
0.852631 0.105377 0.162445
0.910706 0.105286 0.162445
0.969116 0.105347 0.162445
1.000000 0.105225 0.162445
1.000000 0.105194 0.162445
1.000000 0.105255 0.162445
1.000000 0.105225 0.162445
1.000000 0.105225 0.162445
1.000000 0.105225 0.162445
0.007843 0.141571 0.162445
0.007843 0.141571 0.162445
0.007843 0.141571 0.162445
0.024963 0.141571 0.162445
0.050232 0.141571 0.162445
0.076080 0.141571 0.162445
0.102783 0.141571 0.162445
0.130554 0.141571 0.162445
0.159760 0.141541 0.162445
0.190674 0.141571 0.162445
0.223541 0.141571 0.162445
0.258667 0.141571 0.162445
0.296326 0.141541 0.162445
0.336700 0.141602 0.162445
0.379822 0.141602 0.162445
0.425323 0.141571 0.162445
0.473175 0.141571 0.162445
0.523010 0.141602 0.162445
0.574646 0.141541 0.162445
0.627899 0.141632 0.162445
0.682556 0.141510 0.162445
0.738342 0.141632 0.162445
0.795135 0.141632 0.162445
0.852631 0.141632 0.162445
0.910706 0.141571 0.162445
0.969116 0.141510 0.162445
1.000000 0.141510 0.162445
1.000000 0.141479 0.162445
1.000000 0.141663 0.162445
1.000000 0.141632 0.162445
1.000000 0.141632 0.162445
1.000000 0.141632 0.162445
0.007843 0.178833 0.162445
0.007843 0.178833 0.162445
0.007843 0.178833 0.162445
0.024933 0.178833 0.162445
0.050232 0.178833 0.162445
0.076080 0.178833 0.162445
0.102783 0.178833 0.162445
0.130554 0.178833 0.162445
0.159760 0.178864 0.162445
0.190674 0.178802 0.162445
0.223541 0.178833 0.162445
0.258667 0.178802 0.162445
0.296326 0.178833 0.162445
0.336700 0.178864 0.162445
0.379822 0.178833 0.162445
0.425323 0.178864 0.162445
0.473175 0.178833 0.162445
0.523010 0.178894 0.162445
0.574646 0.178802 0.162445
0.627899 0.178833 0.162445
0.682556 0.178864 0.162445
0.738342 0.178864 0.162445
0.795135 0.178894 0.162445
0.852631 0.178925 0.162445
0.910706 0.178864 0.162445
0.969116 0.178864 0.162445
1.000000 0.178802 0.162445
1.000000 0.178772 0.162445
1.000000 0.178833 0.162445
1.000000 0.178802 0.162445
1.000000 0.178802 0.162445
1.000000 0.178802 0.162445
0.007843 0.217346 0.162445
0.007843 0.217346 0.162445
0.007843 0.217346 0.162445
0.024963 0.217346 0.162445
0.050232 0.217346 0.162445
0.076050 0.217346 0.162445
0.102753 0.217346 0.162445
0.130554 0.217346 0.162445
0.159760 0.217346 0.162445
0.190674 0.217346 0.162445
0.223541 0.217346 0.162445
0.258667 0.217346 0.162445
0.296326 0.217346 0.162445
0.336700 0.217346 0.162445
0.379822 0.217285 0.162445
0.425323 0.217285 0.162445
0.473175 0.217316 0.162445
0.523010 0.217285 0.162445
0.574646 0.217316 0.162445
0.627899 0.217285 0.162445
0.682556 0.217285 0.162445
0.738342 0.217346 0.162445
0.795135 0.217438 0.162445
0.852631 0.217468 0.162445
0.910706 0.217468 0.162445
0.969116 0.217285 0.162445
1.000000 0.217346 0.162445
1.000000 0.217316 0.162445
1.000000 0.217255 0.162445
1.000000 0.217499 0.162445
1.000000 0.217499 0.162445
1.000000 0.217499 0.162445
0.007843 0.257416 0.162445
0.007843 0.257416 0.162445
0.007843 0.257416 0.162445
0.024933 0.257416 0.162445
0.050201 0.257416 0.162445
0.076080 0.257416 0.162445
0.102783 0.257416 0.162445
0.130524 0.257416 0.162445
0.159760 0.257416 0.162445
0.190674 0.257416 0.162445
0.223541 0.257416 0.162445
0.258667 0.257446 0.162445
0.296326 0.257416 0.162445
0.336700 0.257446 0.162445
0.379822 0.257385 0.162445
0.425323 0.257355 0.162445
0.473175 0.257446 0.162445
0.523010 0.257355 0.162445
0.574646 0.257355 0.162445
0.627899 0.257416 0.162445
0.682556 0.257385 0.162445
0.738342 0.257385 0.162445
0.795135 0.257446 0.162445
0.852631 0.257477 0.162445
0.910706 0.257507 0.162445
0.969116 0.257446 0.162445
1.000000 0.257416 0.162445
1.000000 0.257385 0.162445
1.000000 0.257446 0.162445
1.000000 0.257416 0.162445
1.000000 0.257416 0.162445
1.000000 0.257416 0.162445
0.007843 0.299194 0.162445
0.007843 0.299194 0.162445
0.007843 0.299194 0.162445
0.024963 0.299194 0.162445
0.050232 0.299194 0.162445
0.076080 0.299194 0.162445
0.102783 0.299194 0.162445
0.130554 0.299194 0.162445
0.159760 0.299194 0.162445
0.190674 0.299194 0.162445
0.223541 0.299194 0.162445
0.258667 0.299194 0.162445
0.296326 0.299225 0.162445
0.336700 0.299225 0.162445
0.379822 0.299255 0.162445
0.425323 0.299133 0.162445
0.473175 0.299194 0.162445
0.523010 0.299133 0.162445
0.574646 0.299255 0.162445
0.627899 0.299103 0.162445
0.682556 0.299255 0.162445
0.738342 0.299103 0.162445
0.795135 0.299225 0.162445
0.852631 0.299286 0.162445
0.910706 0.299103 0.162445
0.969116 0.299072 0.162445
1.000000 0.299225 0.162445
1.000000 0.299194 0.162445
1.000000 0.299072 0.162445
1.000000 0.299072 0.162445
1.000000 0.299072 0.162445
1.000000 0.299072 0.162445
0.007843 0.343018 0.162445
0.007843 0.343018 0.162445
0.007843 0.343018 0.162445
0.024994 0.343018 0.162445
0.050262 0.343018 0.162445
0.076080 0.343018 0.162445
0.102783 0.343018 0.162445
0.130524 0.343018 0.162445
0.159760 0.343018 0.162445
0.190704 0.343018 0.162445
0.223541 0.343018 0.162445
0.258667 0.343018 0.162445
0.296326 0.343018 0.162445
0.336700 0.342957 0.162445
0.379822 0.342957 0.162445
0.425323 0.342957 0.162445
0.473175 0.342957 0.162445
0.523010 0.342957 0.162445
0.574646 0.343048 0.162445
0.627899 0.343018 0.162445
0.682556 0.342926 0.162445
0.738342 0.343079 0.162445
0.795135 0.343018 0.162445
0.852631 0.343079 0.162445
0.910706 0.342926 0.162445
0.969116 0.343018 0.162445
1.000000 0.343048 0.162445
1.000000 0.343018 0.162445
1.000000 0.343048 0.162445
1.000000 0.343048 0.162445
1.000000 0.343048 0.162445
1.000000 0.343048 0.162445
0.007843 0.388824 0.162445
0.007843 0.388824 0.162445
0.007843 0.388824 0.162445
0.024933 0.388824 0.162445
0.050262 0.388824 0.162445
0.076050 0.388824 0.162445
0.102753 0.388824 0.162445
0.130554 0.388824 0.162445
0.159760 0.388824 0.162445
0.190674 0.388824 0.162445
0.223541 0.388824 0.162445
0.258667 0.388824 0.162445
0.296326 0.388824 0.162445
0.336700 0.388855 0.162445
0.379822 0.388824 0.162445
0.425323 0.388794 0.162445
0.473175 0.388855 0.162445
0.523010 0.388794 0.162445
0.574646 0.388824 0.162445
0.627899 0.388733 0.162445
0.682556 0.388824 0.162445
0.738342 0.388824 0.162445
0.795135 0.388794 0.162445
0.852631 0.388885 0.162445
0.910706 0.388733 0.162445
0.969116 0.388885 0.162445
1.000000 0.388855 0.162445
1.000000 0.388824 0.162445
1.000000 0.388702 0.162445
1.000000 0.388702 0.162445
1.000000 0.388702 0.162445
1.000000 0.388702 0.162445
0.007843 0.436096 0.162445
0.007843 0.436096 0.162445
0.007843 0.436096 0.162445
0.024933 0.436096 0.162445
0.050232 0.436096 0.162445
0.076080 0.436096 0.162445
0.102783 0.436096 0.162445
0.130554 0.436096 0.162445
0.159760 0.436096 0.162445
0.190704 0.436096 0.162445
0.223541 0.436096 0.162445
0.258636 0.436096 0.162445
0.296356 0.436096 0.162445
0.336700 0.436096 0.162445
0.379822 0.436066 0.162445
0.425323 0.436066 0.162445
0.473175 0.436096 0.162445
0.523010 0.436096 0.162445
0.574646 0.436096 0.162445
0.627899 0.436127 0.162445
0.682556 0.436218 0.162445
0.738342 0.436096 0.162445
0.795135 0.436066 0.162445
0.852631 0.436157 0.162445
0.910706 0.436066 0.162445
0.969116 0.436066 0.162445
1.000000 0.436157 0.162445
1.000000 0.436157 0.162445
1.000000 0.436157 0.162445
1.000000 0.436157 0.162445
1.000000 0.436157 0.162445
1.000000 0.436157 0.162445
0.007843 0.484375 0.162445
0.007843 0.484375 0.162445
0.007843 0.484375 0.162445
0.024963 0.484375 0.162445
0.050262 0.484375 0.162445
0.076080 0.484375 0.162445
0.102783 0.484375 0.162445
0.130554 0.484375 0.162445
0.159729 0.484375 0.162445
0.190643 0.484375 0.162445
0.223572 0.484375 0.162445
0.258636 0.484375 0.162445
0.296326 0.484375 0.162445
0.336670 0.484375 0.162445
0.379822 0.484375 0.162445
0.425323 0.484344 0.162445
0.473175 0.484314 0.162445
0.523010 0.484344 0.162445
0.574646 0.484344 0.162445
0.627899 0.484314 0.162445
0.682556 0.484344 0.162445
0.738342 0.484314 0.162445
0.795135 0.484314 0.162445
0.852631 0.484436 0.162445
0.910706 0.484375 0.162445
0.969116 0.484436 0.162445
1.000000 0.484467 0.162445
1.000000 0.484467 0.162445
1.000000 0.484253 0.162445
1.000000 0.484314 0.162445
1.000000 0.484314 0.162445
1.000000 0.484314 0.162445
0.007843 0.532898 0.162445
0.007843 0.532898 0.162445
0.007843 0.532898 0.162445
0.024963 0.532898 0.162445
0.050232 0.532898 0.162445
0.076111 0.532898 0.162445
0.102783 0.532898 0.162445
0.130554 0.532898 0.162445
0.159729 0.532898 0.162445
0.190613 0.532898 0.162445
0.223511 0.532898 0.162445
0.258636 0.532898 0.162445
0.296295 0.532898 0.162445
0.336670 0.532898 0.162445
0.379791 0.532898 0.162445
0.425323 0.532898 0.162445
0.473175 0.532990 0.162445
0.523010 0.532898 0.162445
0.574646 0.532867 0.162445
0.627899 0.532959 0.162445
0.682556 0.532990 0.162445
0.738342 0.532837 0.162445
0.795135 0.532867 0.162445
0.852631 0.532990 0.162445
0.910706 0.532959 0.162445
0.969116 0.532837 0.162445
1.000000 0.533020 0.162445
1.000000 0.533020 0.162445
1.000000 0.532990 0.162445
1.000000 0.533020 0.162445
1.000000 0.533020 0.162445
1.000000 0.533020 0.162445
0.007843 0.581299 0.162445
0.007843 0.581299 0.162445
0.007843 0.581299 0.162445
0.024994 0.581299 0.162445
0.050201 0.581299 0.162445
0.076019 0.581299 0.162445
0.102783 0.581299 0.162445
0.130554 0.581299 0.162445
0.159760 0.581299 0.162445
0.190704 0.581299 0.162445
0.223541 0.581299 0.162445
0.258636 0.581299 0.162445
0.296356 0.581299 0.162445
0.336700 0.581299 0.162445
0.379761 0.581299 0.162445
0.425415 0.581299 0.162445
0.473175 0.581299 0.162445
0.523010 0.581299 0.162445
0.574646 0.581390 0.162445
0.627899 0.581207 0.162445
0.682556 0.581207 0.162445
0.738342 0.581390 0.162445
0.795135 0.581207 0.162445
0.852631 0.581360 0.162445
0.910706 0.581360 0.162445
0.969116 0.581360 0.162445
1.000000 0.581421 0.162445
1.000000 0.581421 0.162445
1.000000 0.581207 0.162445
1.000000 0.581268 0.162445
1.000000 0.581268 0.162445
1.000000 0.581268 0.162445
0.007843 0.628845 0.162445
0.007843 0.628845 0.162445
0.007843 0.628845 0.162445
0.024994 0.628845 0.162445
0.050232 0.628845 0.162445
0.076111 0.628845 0.162445
0.102783 0.628845 0.162445
0.130585 0.628845 0.162445
0.159729 0.628845 0.162445
0.190613 0.628845 0.162445
0.223511 0.628845 0.162445
0.258636 0.628845 0.162445
0.296295 0.628845 0.162445
0.336700 0.628845 0.162445
0.379791 0.628845 0.162445
0.425323 0.628845 0.162445
0.473175 0.628845 0.162445
0.523010 0.628845 0.162445
0.574646 0.628876 0.162445
0.627899 0.628845 0.162445
0.682556 0.628815 0.162445
0.738342 0.628845 0.162445
0.795135 0.628967 0.162445
0.852631 0.628876 0.162445
0.910706 0.628937 0.162445
0.969116 0.628967 0.162445
1.000000 0.628967 0.162445
1.000000 0.628967 0.162445
1.000000 0.628937 0.162445
1.000000 0.628967 0.162445
1.000000 0.628967 0.162445
1.000000 0.628967 0.162445
0.007843 0.675018 0.162445
0.007843 0.675018 0.162445
0.007843 0.675018 0.162445
0.024994 0.675018 0.162445
0.050232 0.675018 0.162445
0.076080 0.675018 0.162445
0.102753 0.675018 0.162445
0.130524 0.675018 0.162445
0.159760 0.675018 0.162445
0.190613 0.675018 0.162445
0.223572 0.675018 0.162445
0.258698 0.675018 0.162445
0.296326 0.675018 0.162445
0.336700 0.675018 0.162445
0.379791 0.675018 0.162445
0.425293 0.675018 0.162445
0.473236 0.675018 0.162445
0.523041 0.675018 0.162445
0.574646 0.675018 0.162445
0.627899 0.675079 0.162445
0.682556 0.675049 0.162445
0.738342 0.674927 0.162445
0.795135 0.675079 0.162445
0.852631 0.675018 0.162445
0.910706 0.675079 0.162445
0.969116 0.674988 0.162445
1.000000 0.675110 0.162445
1.000000 0.675110 0.162445
1.000000 0.674896 0.162445
1.000000 0.674988 0.162445
1.000000 0.674988 0.162445
1.000000 0.674988 0.162445
0.007843 0.719208 0.162445
0.007843 0.719208 0.162445
0.007843 0.719208 0.162445
0.024963 0.719208 0.162445
0.050293 0.719208 0.162445
0.076080 0.719208 0.162445
0.102814 0.719208 0.162445
0.130554 0.719208 0.162445
0.159729 0.719208 0.162445
0.190674 0.719208 0.162445
0.223480 0.719208 0.162445
0.258667 0.719208 0.162445
0.296265 0.719208 0.162445
0.336761 0.719208 0.162445
0.379761 0.719208 0.162445
0.425385 0.719208 0.162445
0.473083 0.719208 0.162445
0.523010 0.719208 0.162445
0.574738 0.719208 0.162445
0.627899 0.719208 0.162445
0.682556 0.719147 0.162445
0.738342 0.719147 0.162445
0.795135 0.719299 0.162445
0.852631 0.719208 0.162445
0.910706 0.719330 0.162445
0.969116 0.719299 0.162445
1.000000 0.719116 0.162445
1.000000 0.719086 0.162445
1.000000 0.719299 0.162445
1.000000 0.719360 0.162445
1.000000 0.719360 0.162445
1.000000 0.719360 0.162445
0.007843 0.760864 0.162445
0.007843 0.760864 0.162445
0.007843 0.760864 0.162445
0.024902 0.760864 0.162445
0.050201 0.760864 0.162445
0.076111 0.760864 0.162445
0.102722 0.760864 0.162445
0.130554 0.760864 0.162445
0.159729 0.760864 0.162445
0.190643 0.760864 0.162445
0.223572 0.760864 0.162445
0.258606 0.760864 0.162445
0.296326 0.760864 0.162445
0.336823 0.760864 0.162445
0.379791 0.760864 0.162445
0.425415 0.760864 0.162445
0.473083 0.760864 0.162445
0.522980 0.760864 0.162445
0.574677 0.760864 0.162445
0.627808 0.760864 0.162445
0.682556 0.760864 0.162445
0.738342 0.760925 0.162445
0.795135 0.760895 0.162445
0.852631 0.760864 0.162445
0.910706 0.760773 0.162445
0.969116 0.760803 0.162445
1.000000 0.760773 0.162445
1.000000 0.760773 0.162445
1.000000 0.760803 0.162445
1.000000 0.760864 0.162445
1.000000 0.760864 0.162445
1.000000 0.760864 0.162445
0.007843 0.799408 0.162445
0.007843 0.799408 0.162445
0.007843 0.799408 0.162445
0.024963 0.799408 0.162445
0.050201 0.799408 0.162445
0.076019 0.799408 0.162445
0.102814 0.799408 0.162445
0.130554 0.799408 0.162445
0.159760 0.799408 0.162445
0.190643 0.799408 0.162445
0.223480 0.799408 0.162445
0.258728 0.799408 0.162445
0.296326 0.799408 0.162445
0.336700 0.799408 0.162445
0.379761 0.799408 0.162445
0.425262 0.799408 0.162445
0.473236 0.799408 0.162445
0.523010 0.799408 0.162445
0.574554 0.799408 0.162445
0.627808 0.799408 0.162445
0.682617 0.799408 0.162445
0.738342 0.799408 0.162445
0.795135 0.799408 0.162445
0.852631 0.799377 0.162445
0.910706 0.799316 0.162445
0.969116 0.799438 0.162445
1.000000 0.799316 0.162445
1.000000 0.799316 0.162445
1.000000 0.799469 0.162445
1.000000 0.799530 0.162445
1.000000 0.799530 0.162445
1.000000 0.799530 0.162445
0.007843 0.834290 0.162445
0.007843 0.834290 0.162445
0.007843 0.834290 0.162445
0.024933 0.834290 0.162445
0.050293 0.834290 0.162445
0.076141 0.834290 0.162445
0.102814 0.834290 0.162445
0.130585 0.834290 0.162445
0.159821 0.834290 0.162445
0.190704 0.834290 0.162445
0.223541 0.834290 0.162445
0.258667 0.834290 0.162445
0.296295 0.834290 0.162445
0.336670 0.834290 0.162445
0.379761 0.834290 0.162445
0.425293 0.834290 0.162445
0.473083 0.834290 0.162445
0.523132 0.834290 0.162445
0.574738 0.834290 0.162445
0.627991 0.834290 0.162445
0.682587 0.834290 0.162445
0.738342 0.834290 0.162445
0.795135 0.834290 0.162445
0.852631 0.834290 0.162445
0.910706 0.834229 0.162445
0.969116 0.834198 0.162445
1.000000 0.834229 0.162445
1.000000 0.834229 0.162445
1.000000 0.834229 0.162445
1.000000 0.834320 0.162445
1.000000 0.834320 0.162445
1.000000 0.834320 0.162445
0.007843 0.865509 0.162445
0.007843 0.865509 0.162445
0.007843 0.865509 0.162445
0.025024 0.865509 0.162445
0.050293 0.865509 0.162445
0.076141 0.865509 0.162445
0.102814 0.865509 0.162445
0.130615 0.865509 0.162445
0.159851 0.865509 0.162445
0.190735 0.865509 0.162445
0.223602 0.865509 0.162445
0.258728 0.865509 0.162445
0.296387 0.865509 0.162445
0.336792 0.865509 0.162445
0.379883 0.865509 0.162445
0.425415 0.865509 0.162445
0.473206 0.865509 0.162445
0.523041 0.865509 0.162445
0.574646 0.865509 0.162445
0.627899 0.865509 0.162445
0.682556 0.865509 0.162445
0.738312 0.865509 0.162445
0.795135 0.865509 0.162445
0.852631 0.865509 0.162445
0.910706 0.865509 0.162445
0.969116 0.865540 0.162445
1.000000 0.865509 0.162445
1.000000 0.865509 0.162445
1.000000 0.865601 0.162445
1.000000 0.865479 0.162445
1.000000 0.865479 0.162445
1.000000 0.865479 0.162445
0.007843 0.893677 0.162445
0.007843 0.893677 0.162445
0.007843 0.893677 0.162445
0.024933 0.893677 0.162445
0.050201 0.893677 0.162445
0.076080 0.893677 0.162445
0.102783 0.893677 0.162445
0.130554 0.893677 0.162445
0.159851 0.893677 0.162445
0.190765 0.893677 0.162445
0.223480 0.893677 0.162445
0.258606 0.893677 0.162445
0.296265 0.893677 0.162445
0.336670 0.893677 0.162445
0.379822 0.893677 0.162445
0.425385 0.893677 0.162445
0.473206 0.893677 0.162445
0.523102 0.893677 0.162445
0.574738 0.893677 0.162445
0.628021 0.893677 0.162445
0.682404 0.893677 0.162445
0.738220 0.893677 0.162445
0.795044 0.893677 0.162445
0.852631 0.893677 0.162445
0.910706 0.893677 0.162445
0.969116 0.893738 0.162445
1.000000 0.893646 0.162445
1.000000 0.893646 0.162445
1.000000 0.893646 0.162445
1.000000 0.893707 0.162445
1.000000 0.893707 0.162445
1.000000 0.893707 0.162445
0.007843 0.919220 0.162445
0.007843 0.919220 0.162445
0.007843 0.919220 0.162445
0.025024 0.919220 0.162445
0.050201 0.919220 0.162445
0.076111 0.919220 0.162445
0.102722 0.919220 0.162445
0.130554 0.919220 0.162445
0.159729 0.919220 0.162445
0.190704 0.919220 0.162445
0.223450 0.919220 0.162445
0.258667 0.919220 0.162445
0.296387 0.919220 0.162445
0.336670 0.919220 0.162445
0.379883 0.919220 0.162445
0.425262 0.919220 0.162445
0.473206 0.919220 0.162445
0.523132 0.919220 0.162445
0.574615 0.919220 0.162445
0.627991 0.919220 0.162445
0.682465 0.919220 0.162445
0.738403 0.919220 0.162445
0.794983 0.919220 0.162445
0.852661 0.919220 0.162445
0.910858 0.919220 0.162445
0.969116 0.919220 0.162445
1.000000 0.919220 0.162445
1.000000 0.919220 0.162445
1.000000 0.919312 0.162445
1.000000 0.919220 0.162445
1.000000 0.919220 0.162445
1.000000 0.919220 0.162445
0.007843 0.942841 0.162445
0.007843 0.942841 0.162445
0.007843 0.942841 0.162445
0.024902 0.942841 0.162445
0.050171 0.942841 0.162445
0.076019 0.942841 0.162445
0.102722 0.942841 0.162445
0.130524 0.942841 0.162445
0.159760 0.942841 0.162445
0.190674 0.942841 0.162445
0.223541 0.942841 0.162445
0.258698 0.942841 0.162445
0.296356 0.942841 0.162445
0.336792 0.942841 0.162445
0.379913 0.942841 0.162445
0.425446 0.942841 0.162445
0.473297 0.942841 0.162445
0.523132 0.942841 0.162445
0.574768 0.942841 0.162445
0.627777 0.942841 0.162445
0.682404 0.942841 0.162445
0.738220 0.942841 0.162445
0.795044 0.942841 0.162445
0.852570 0.942841 0.162445
0.910675 0.942841 0.162445
0.969116 0.942841 0.162445
1.000000 0.942841 0.162445
1.000000 0.942841 0.162445
1.000000 0.942810 0.162445
1.000000 0.942871 0.162445
1.000000 0.942871 0.162445
1.000000 0.942871 0.162445
0.007843 0.964935 0.162445
0.007843 0.964935 0.162445
0.007843 0.964935 0.162445
0.025024 0.964935 0.162445
0.050293 0.964935 0.162445
0.076019 0.964935 0.162445
0.102692 0.964935 0.162445
0.130493 0.964935 0.162445
0.159760 0.964935 0.162445
0.190643 0.964935 0.162445
0.223541 0.964935 0.162445
0.258667 0.964935 0.162445
0.296326 0.964935 0.162445
0.336792 0.964935 0.162445
0.379913 0.964935 0.162445
0.425446 0.964935 0.162445
